<?xml version="1.0" encoding="UTF-8"?>
<map version="1.10" tiledversion="1.11.2" orientation="orthogonal" renderorder="right-down" compressionlevel="0" width="1" height="2" tilewidth="16" tileheight="16" infinite="0" nextlayerid="16" nextobjectid="27">
 <tileset firstgid="1" name="MidnightsMisc" tilewidth="16" tileheight="16" tilecount="480" columns="12">
  <image source="MidnightsMisc.png" width="192" height="640"/>
  <tile id="291">
   <animation>
    <frame tileid="291" duration="50"/>
    <frame tileid="326" duration="50"/>
    <frame tileid="327" duration="50"/>
    <frame tileid="290" duration="50"/>
    <frame tileid="290" duration="50"/>
    <frame tileid="290" duration="50"/>
    <frame tileid="290" duration="50"/>
    <frame tileid="290" duration="50"/>
    <frame tileid="290" duration="50"/>
    <frame tileid="290" duration="50"/>
    <frame tileid="290" duration="50"/>
    <frame tileid="290" duration="50"/>
    <frame tileid="290" duration="50"/>
    <frame tileid="290" duration="50"/>
    <frame tileid="290" duration="50"/>
    <frame tileid="290" duration="50"/>
    <frame tileid="290" duration="50"/>
    <frame tileid="290" duration="50"/>
    <frame tileid="327" duration="50"/>
    <frame tileid="326" duration="50"/>
    <frame tileid="291" duration="50"/>
    <frame tileid="291" duration="50"/>
    <frame tileid="291" duration="50"/>
    <frame tileid="291" duration="50"/>
    <frame tileid="291" duration="50"/>
    <frame tileid="291" duration="50"/>
    <frame tileid="291" duration="50"/>
    <frame tileid="291" duration="50"/>
    <frame tileid="291" duration="50"/>
    <frame tileid="291" duration="50"/>
    <frame tileid="291" duration="50"/>
    <frame tileid="291" duration="50"/>
    <frame tileid="291" duration="50"/>
    <frame tileid="291" duration="50"/>
    <frame tileid="291" duration="50"/>
    <frame tileid="291" duration="50"/>
    <frame tileid="291" duration="50"/>
    <frame tileid="291" duration="50"/>
    <frame tileid="291" duration="50"/>
    <frame tileid="291" duration="50"/>
   </animation>
  </tile>
  <tile id="292">
   <animation>
    <frame tileid="292" duration="250"/>
    <frame tileid="294" duration="250"/>
    <frame tileid="292" duration="250"/>
    <frame tileid="318" duration="250"/>
   </animation>
  </tile>
  <tile id="293">
   <animation>
    <frame tileid="293" duration="250"/>
    <frame tileid="295" duration="250"/>
    <frame tileid="293" duration="250"/>
    <frame tileid="319" duration="250"/>
   </animation>
  </tile>
  <tile id="304">
   <animation>
    <frame tileid="304" duration="250"/>
    <frame tileid="306" duration="250"/>
    <frame tileid="304" duration="250"/>
    <frame tileid="330" duration="250"/>
   </animation>
  </tile>
  <tile id="305">
   <animation>
    <frame tileid="305" duration="250"/>
    <frame tileid="307" duration="250"/>
    <frame tileid="305" duration="250"/>
    <frame tileid="331" duration="250"/>
   </animation>
  </tile>
  <tile id="312">
   <animation>
    <frame tileid="312" duration="800"/>
    <frame tileid="308" duration="800"/>
   </animation>
  </tile>
  <tile id="313">
   <animation>
    <frame tileid="313" duration="800"/>
    <frame tileid="309" duration="800"/>
   </animation>
  </tile>
 </tileset>
 <layer id="4" name="Front" width="1" height="2">
  <data encoding="csv">
90,
102
</data>
 </layer>
</map>
