<?xml version="1.0" encoding="UTF-8"?>
<map version="1.10" tiledversion="1.12.2" orientation="orthogonal" renderorder="right-down" compressionlevel="0" width="3" height="8" tilewidth="16" tileheight="16" infinite="0" nextlayerid="19" nextobjectid="72">
 <tileset firstgid="1" name="Town" tilewidth="16" tileheight="16" tilecount="2304" columns="32">
  <image source="spring_town.png" width="512" height="1152"/>
  <tile id="45">
   <animation>
    <frame tileid="45" duration="1000"/>
    <frame tileid="45" duration="1000"/>
    <frame tileid="45" duration="1000"/>
    <frame tileid="45" duration="1000"/>
    <frame tileid="45" duration="1000"/>
    <frame tileid="45" duration="1000"/>
    <frame tileid="45" duration="1000"/>
    <frame tileid="45" duration="1000"/>
    <frame tileid="45" duration="1000"/>
    <frame tileid="45" duration="1000"/>
    <frame tileid="45" duration="1000"/>
    <frame tileid="45" duration="1000"/>
    <frame tileid="45" duration="1000"/>
    <frame tileid="45" duration="1000"/>
    <frame tileid="45" duration="1000"/>
    <frame tileid="45" duration="1000"/>
    <frame tileid="45" duration="1000"/>
    <frame tileid="12" duration="1000"/>
   </animation>
  </tile>
  <tile id="159">
   <properties>
    <property name="Passable" value="T"/>
   </properties>
  </tile>
  <tile id="191">
   <properties>
    <property name="Passable" value="T"/>
   </properties>
  </tile>
  <tile id="223">
   <properties>
    <property name="Passable" value="T"/>
   </properties>
  </tile>
  <tile id="608">
   <properties>
    <property name="Type" value="Grass"/>
   </properties>
  </tile>
  <tile id="609">
   <properties>
    <property name="Type" value="Grass"/>
   </properties>
  </tile>
  <tile id="610">
   <properties>
    <property name="Type" value="Grass"/>
   </properties>
  </tile>
  <tile id="611">
   <properties>
    <property name="Type" value="Grass"/>
   </properties>
  </tile>
  <tile id="612">
   <properties>
    <property name="Type" value="Grass"/>
   </properties>
  </tile>
  <tile id="641">
   <properties>
    <property name="Type" value="Stone"/>
   </properties>
  </tile>
  <tile id="644">
   <properties>
    <property name="Type" value="Grass"/>
   </properties>
  </tile>
  <tile id="645">
   <properties>
    <property name="Type" value="Grass"/>
   </properties>
  </tile>
  <tile id="646">
   <properties>
    <property name="Type" value="Stone"/>
   </properties>
  </tile>
  <tile id="672">
   <properties>
    <property name="Type" value="Grass"/>
   </properties>
  </tile>
  <tile id="674">
   <properties>
    <property name="Type" value="Grass"/>
   </properties>
  </tile>
  <tile id="676">
   <properties>
    <property name="Type" value="Stone"/>
   </properties>
  </tile>
  <tile id="736">
   <properties>
    <property name="Type" value="Stone"/>
   </properties>
  </tile>
  <tile id="737">
   <properties>
    <property name="Type" value="Stone"/>
   </properties>
  </tile>
  <tile id="768">
   <properties>
    <property name="Type" value="Stone"/>
   </properties>
  </tile>
  <tile id="769">
   <properties>
    <property name="Type" value="Stone"/>
   </properties>
  </tile>
  <tile id="770">
   <properties>
    <property name="Type" value="Stone"/>
   </properties>
  </tile>
  <tile id="909">
   <properties>
    <property name="Type" value="Stone"/>
   </properties>
  </tile>
  <tile id="916">
   <properties>
    <property name="Water" value="T"/>
   </properties>
  </tile>
  <tile id="917">
   <properties>
    <property name="Water" value="T"/>
   </properties>
  </tile>
  <tile id="918">
   <properties>
    <property name="Water" value="T"/>
   </properties>
  </tile>
  <tile id="919">
   <properties>
    <property name="Water" value="T"/>
   </properties>
  </tile>
  <tile id="931">
   <properties>
    <property name="Type" value="Stone"/>
   </properties>
  </tile>
  <tile id="932">
   <properties>
    <property name="Type" value="Stone"/>
   </properties>
  </tile>
  <tile id="950">
   <properties>
    <property name="Water" value="T"/>
   </properties>
  </tile>
  <tile id="963">
   <properties>
    <property name="Type" value="Stone"/>
   </properties>
  </tile>
  <tile id="964">
   <properties>
    <property name="Type" value="Stone"/>
   </properties>
  </tile>
  <tile id="1007">
   <properties>
    <property name="Type" value="Stone"/>
   </properties>
  </tile>
  <tile id="1008">
   <properties>
    <property name="Type" value="Stone"/>
   </properties>
  </tile>
  <tile id="1031">
   <properties>
    <property name="Type" value="Dirt"/>
   </properties>
  </tile>
  <tile id="1032">
   <properties>
    <property name="Type" value="Dirt"/>
   </properties>
  </tile>
  <tile id="1033">
   <properties>
    <property name="Type" value="Dirt"/>
   </properties>
  </tile>
  <tile id="1037">
   <animation>
    <frame tileid="1037" duration="100"/>
    <frame tileid="1038" duration="100"/>
    <frame tileid="1039" duration="100"/>
    <frame tileid="1039" duration="100"/>
   </animation>
  </tile>
  <tile id="1063">
   <properties>
    <property name="Type" value="Dirt"/>
   </properties>
  </tile>
  <tile id="1064">
   <properties>
    <property name="Type" value="Dirt"/>
   </properties>
  </tile>
  <tile id="1065">
   <properties>
    <property name="Type" value="Dirt"/>
   </properties>
  </tile>
  <tile id="1070">
   <animation>
    <frame tileid="1070" duration="100"/>
    <frame tileid="1101" duration="100"/>
    <frame tileid="1102" duration="100"/>
    <frame tileid="1043" duration="100"/>
   </animation>
  </tile>
  <tile id="1095">
   <properties>
    <property name="Type" value="Dirt"/>
   </properties>
  </tile>
  <tile id="1096">
   <properties>
    <property name="Type" value="Dirt"/>
   </properties>
  </tile>
  <tile id="1097">
   <properties>
    <property name="Type" value="Dirt"/>
   </properties>
  </tile>
  <tile id="1201">
   <animation>
    <frame tileid="1201" duration="100"/>
    <frame tileid="1202" duration="100"/>
    <frame tileid="1203" duration="100"/>
    <frame tileid="1204" duration="100"/>
    <frame tileid="1205" duration="100"/>
    <frame tileid="1206" duration="100"/>
   </animation>
  </tile>
  <tile id="1233">
   <animation>
    <frame tileid="1233" duration="100"/>
    <frame tileid="1234" duration="100"/>
    <frame tileid="1235" duration="100"/>
    <frame tileid="1236" duration="100"/>
    <frame tileid="1237" duration="100"/>
    <frame tileid="1238" duration="100"/>
   </animation>
  </tile>
  <tile id="1249">
   <properties>
    <property name="Shadow" value="T"/>
   </properties>
  </tile>
  <tile id="1265">
   <animation>
    <frame tileid="1265" duration="100"/>
    <frame tileid="1266" duration="100"/>
    <frame tileid="1267" duration="100"/>
    <frame tileid="1268" duration="100"/>
    <frame tileid="1269" duration="100"/>
    <frame tileid="1270" duration="100"/>
   </animation>
  </tile>
  <tile id="1958">
   <properties>
    <property name="Shadow" value="T"/>
   </properties>
  </tile>
 </tileset>
 <tileset firstgid="2305" name="v16_Shadows" tilewidth="16" tileheight="16" tilecount="475" columns="19">
  <image source="spring_Shadows" width="304" height="400"/>
 </tileset>
 <tileset firstgid="2780" name="z_SDSfurniture3" tilewidth="16" tileheight="16" tilecount="6944" columns="31">
  <image source="SDSfurniture3" width="496" height="3584"/>
 </tileset>
 <tileset firstgid="9724" name="z_SDSmap" tilewidth="16" tileheight="16" tilecount="8649" columns="93">
  <image source="spring_SDSmap" width="1500" height="1500"/>
  <tile id="284">
   <properties>
    <property name="Passable" value="T"/>
   </properties>
  </tile>
  <tile id="1581">
   <properties>
    <property name="Type" value="Stone"/>
   </properties>
  </tile>
  <tile id="1582">
   <properties>
    <property name="Type" value="Stone"/>
   </properties>
  </tile>
  <tile id="1583">
   <properties>
    <property name="Type" value="Stone"/>
   </properties>
  </tile>
  <tile id="1584">
   <properties>
    <property name="Type" value="Stone"/>
   </properties>
  </tile>
  <tile id="1585">
   <properties>
    <property name="Type" value="Stone"/>
   </properties>
  </tile>
  <tile id="1674">
   <properties>
    <property name="Type" value="Stone"/>
   </properties>
  </tile>
  <tile id="1675">
   <properties>
    <property name="Type" value="Stone"/>
   </properties>
  </tile>
  <tile id="1676">
   <properties>
    <property name="Type" value="Stone"/>
   </properties>
  </tile>
  <tile id="1677">
   <properties>
    <property name="Type" value="Stone"/>
   </properties>
  </tile>
  <tile id="1678">
   <properties>
    <property name="Type" value="Stone"/>
   </properties>
  </tile>
  <tile id="1767">
   <properties>
    <property name="Type" value="Stone"/>
   </properties>
  </tile>
  <tile id="1768">
   <properties>
    <property name="Type" value="Stone"/>
   </properties>
  </tile>
  <tile id="1769">
   <properties>
    <property name="Type" value="Stone"/>
   </properties>
  </tile>
  <tile id="1770">
   <properties>
    <property name="Type" value="Stone"/>
   </properties>
  </tile>
  <tile id="1771">
   <properties>
    <property name="Type" value="Stone"/>
   </properties>
  </tile>
  <tile id="1860">
   <properties>
    <property name="Passable" value="T"/>
    <property name="Type" value="Stone"/>
   </properties>
  </tile>
  <tile id="1861">
   <properties>
    <property name="Passable" value="T"/>
    <property name="Type" value="Stone"/>
   </properties>
  </tile>
  <tile id="1862">
   <properties>
    <property name="Passable" value="T"/>
    <property name="Type" value="Stone"/>
   </properties>
  </tile>
  <tile id="1863">
   <properties>
    <property name="Passable" value="T"/>
    <property name="Type" value="Stone"/>
   </properties>
  </tile>
  <tile id="1864">
   <properties>
    <property name="Passable" value="T"/>
    <property name="Type" value="Stone"/>
   </properties>
  </tile>
  <tile id="2527">
   <animation>
    <frame tileid="2527" duration="200"/>
    <frame tileid="2528" duration="200"/>
    <frame tileid="2529" duration="200"/>
    <frame tileid="2530" duration="200"/>
    <frame tileid="2531" duration="200"/>
    <frame tileid="2532" duration="200"/>
   </animation>
  </tile>
  <tile id="2541">
   <properties>
    <property name="Passable" value="T"/>
    <property name="Type" value="Stone"/>
   </properties>
  </tile>
  <tile id="2542">
   <properties>
    <property name="Passable" value="T"/>
    <property name="Type" value="Stone"/>
   </properties>
  </tile>
  <tile id="2543">
   <properties>
    <property name="Passable" value="T"/>
    <property name="Type" value="Stone"/>
   </properties>
  </tile>
  <tile id="2620">
   <animation>
    <frame tileid="2620" duration="200"/>
    <frame tileid="2621" duration="200"/>
    <frame tileid="2622" duration="200"/>
    <frame tileid="2623" duration="200"/>
    <frame tileid="2624" duration="200"/>
    <frame tileid="2625" duration="200"/>
   </animation>
  </tile>
  <tile id="2634">
   <properties>
    <property name="Passable" value="T"/>
    <property name="Type" value="Stone"/>
   </properties>
  </tile>
  <tile id="2635">
   <properties>
    <property name="Passable" value="T"/>
    <property name="Type" value="Stone"/>
   </properties>
  </tile>
  <tile id="2636">
   <properties>
    <property name="Passable" value="T"/>
    <property name="Type" value="Stone"/>
   </properties>
  </tile>
  <tile id="2713">
   <animation>
    <frame tileid="2713" duration="200"/>
    <frame tileid="2714" duration="200"/>
    <frame tileid="2715" duration="200"/>
    <frame tileid="2716" duration="200"/>
    <frame tileid="2717" duration="200"/>
    <frame tileid="2718" duration="200"/>
   </animation>
  </tile>
  <tile id="2727">
   <properties>
    <property name="Passable" value="T"/>
    <property name="Type" value="Stone"/>
   </properties>
  </tile>
  <tile id="2728">
   <properties>
    <property name="Passable" value="T"/>
    <property name="Type" value="Stone"/>
   </properties>
  </tile>
  <tile id="2729">
   <properties>
    <property name="Passable" value="T"/>
    <property name="Type" value="Stone"/>
   </properties>
  </tile>
  <tile id="2820">
   <properties>
    <property name="Passable" value="T"/>
    <property name="Type" value="Stone"/>
   </properties>
  </tile>
  <tile id="2821">
   <properties>
    <property name="Passable" value="T"/>
    <property name="Type" value="Stone"/>
   </properties>
  </tile>
  <tile id="2822">
   <properties>
    <property name="Passable" value="T"/>
    <property name="Type" value="Stone"/>
   </properties>
  </tile>
  <tile id="2913">
   <properties>
    <property name="Passable" value="T"/>
    <property name="Type" value="Stone"/>
   </properties>
  </tile>
  <tile id="2914">
   <properties>
    <property name="Passable" value="T"/>
    <property name="Type" value="Stone"/>
   </properties>
  </tile>
  <tile id="2915">
   <properties>
    <property name="Passable" value="T"/>
    <property name="Type" value="Stone"/>
   </properties>
  </tile>
  <tile id="2930">
   <animation>
    <frame tileid="2930" duration="300"/>
    <frame tileid="2933" duration="300"/>
    <frame tileid="2936" duration="300"/>
    <frame tileid="2939" duration="300"/>
   </animation>
  </tile>
  <tile id="2931">
   <animation>
    <frame tileid="2931" duration="300"/>
    <frame tileid="2934" duration="300"/>
    <frame tileid="2937" duration="300"/>
    <frame tileid="2940" duration="300"/>
   </animation>
  </tile>
  <tile id="2932">
   <animation>
    <frame tileid="2932" duration="300"/>
    <frame tileid="2935" duration="300"/>
    <frame tileid="2938" duration="300"/>
    <frame tileid="2941" duration="300"/>
   </animation>
  </tile>
  <tile id="3023">
   <animation>
    <frame tileid="3023" duration="300"/>
    <frame tileid="3026" duration="300"/>
    <frame tileid="3029" duration="300"/>
    <frame tileid="3032" duration="300"/>
   </animation>
  </tile>
  <tile id="3024">
   <animation>
    <frame tileid="3024" duration="300"/>
    <frame tileid="3027" duration="300"/>
    <frame tileid="3030" duration="300"/>
    <frame tileid="3033" duration="300"/>
   </animation>
  </tile>
  <tile id="3025">
   <animation>
    <frame tileid="3025" duration="300"/>
    <frame tileid="3028" duration="300"/>
    <frame tileid="3031" duration="300"/>
    <frame tileid="3034" duration="300"/>
   </animation>
  </tile>
  <tile id="3116">
   <animation>
    <frame tileid="3116" duration="300"/>
    <frame tileid="3119" duration="300"/>
    <frame tileid="3122" duration="300"/>
    <frame tileid="3125" duration="300"/>
   </animation>
  </tile>
  <tile id="3117">
   <animation>
    <frame tileid="3117" duration="300"/>
    <frame tileid="3120" duration="300"/>
    <frame tileid="3123" duration="300"/>
    <frame tileid="3126" duration="300"/>
   </animation>
  </tile>
  <tile id="3118">
   <animation>
    <frame tileid="3118" duration="300"/>
    <frame tileid="3121" duration="300"/>
    <frame tileid="3124" duration="300"/>
    <frame tileid="3127" duration="300"/>
   </animation>
  </tile>
  <tile id="5522">
   <properties>
    <property name="Passable" value="T"/>
   </properties>
  </tile>
  <tile id="5608">
   <properties>
    <property name="Passable" value="T"/>
   </properties>
  </tile>
  <tile id="5701">
   <properties>
    <property name="Passable" value="T"/>
   </properties>
  </tile>
  <tile id="5702">
   <properties>
    <property name="Passable" value="T"/>
   </properties>
  </tile>
  <tile id="5707">
   <properties>
    <property name="Passable" value="T"/>
   </properties>
  </tile>
  <tile id="6605">
   <properties>
    <property name="Passable" value="T"/>
   </properties>
  </tile>
  <tile id="6606">
   <properties>
    <property name="Passable" value="T"/>
   </properties>
  </tile>
  <tile id="6607">
   <properties>
    <property name="Passable" value="T"/>
   </properties>
  </tile>
  <tile id="6608">
   <properties>
    <property name="Passable" value="T"/>
   </properties>
  </tile>
  <tile id="6609">
   <properties>
    <property name="Passable" value="T"/>
   </properties>
  </tile>
  <tile id="6610">
   <properties>
    <property name="Passable" value="T"/>
   </properties>
  </tile>
  <tile id="6611">
   <properties>
    <property name="Passable" value="T"/>
    <property name="Type" value="Stone"/>
   </properties>
  </tile>
  <tile id="6612">
   <properties>
    <property name="Passable" value="T"/>
    <property name="Type" value="Stone"/>
   </properties>
  </tile>
  <tile id="6613">
   <properties>
    <property name="Passable" value="T"/>
    <property name="Type" value="Stone"/>
   </properties>
  </tile>
  <tile id="6614">
   <properties>
    <property name="Passable" value="T"/>
    <property name="Type" value="Stone"/>
   </properties>
  </tile>
  <tile id="6615">
   <properties>
    <property name="Passable" value="T"/>
    <property name="Type" value="Stone"/>
   </properties>
  </tile>
  <tile id="6616">
   <properties>
    <property name="Passable" value="T"/>
    <property name="Type" value="Stone"/>
   </properties>
  </tile>
  <tile id="6617">
   <properties>
    <property name="Passable" value="T"/>
    <property name="Type" value="Stone"/>
   </properties>
  </tile>
  <tile id="6618">
   <properties>
    <property name="Passable" value="T"/>
    <property name="Type" value="Stone"/>
   </properties>
  </tile>
  <tile id="6619">
   <properties>
    <property name="Passable" value="T"/>
    <property name="Type" value="Stone"/>
   </properties>
  </tile>
  <tile id="6620">
   <properties>
    <property name="Passable" value="T"/>
    <property name="Type" value="Stone"/>
   </properties>
  </tile>
  <tile id="6621">
   <properties>
    <property name="Passable" value="T"/>
    <property name="Type" value="Stone"/>
   </properties>
  </tile>
  <tile id="6622">
   <properties>
    <property name="Passable" value="T"/>
    <property name="Type" value="Stone"/>
   </properties>
  </tile>
  <tile id="6623">
   <properties>
    <property name="Passable" value="T"/>
    <property name="Type" value="Stone"/>
   </properties>
  </tile>
  <tile id="6624">
   <properties>
    <property name="Passable" value="T"/>
    <property name="Type" value="Stone"/>
   </properties>
  </tile>
  <tile id="6625">
   <properties>
    <property name="Passable" value="T"/>
   </properties>
  </tile>
  <tile id="6626">
   <properties>
    <property name="Passable" value="T"/>
   </properties>
  </tile>
  <tile id="6627">
   <properties>
    <property name="Passable" value="T"/>
   </properties>
  </tile>
  <tile id="6628">
   <properties>
    <property name="Passable" value="T"/>
   </properties>
  </tile>
  <tile id="6629">
   <properties>
    <property name="Passable" value="T"/>
   </properties>
  </tile>
  <tile id="6630">
   <properties>
    <property name="Passable" value="T"/>
   </properties>
  </tile>
  <tile id="6703">
   <properties>
    <property name="Passable" value="T"/>
   </properties>
  </tile>
  <tile id="6704">
   <properties>
    <property name="Passable" value="T"/>
    <property name="Type" value="Stone"/>
   </properties>
  </tile>
  <tile id="6705">
   <properties>
    <property name="Passable" value="T"/>
    <property name="Type" value="Stone"/>
   </properties>
  </tile>
  <tile id="6706">
   <properties>
    <property name="Passable" value="T"/>
    <property name="Type" value="Stone"/>
   </properties>
  </tile>
  <tile id="6707">
   <properties>
    <property name="Passable" value="T"/>
    <property name="Type" value="Stone"/>
   </properties>
  </tile>
  <tile id="6708">
   <properties>
    <property name="Passable" value="T"/>
    <property name="Type" value="Stone"/>
   </properties>
  </tile>
  <tile id="6709">
   <properties>
    <property name="Passable" value="T"/>
    <property name="Type" value="Stone"/>
   </properties>
  </tile>
  <tile id="6710">
   <properties>
    <property name="Passable" value="T"/>
    <property name="Type" value="Stone"/>
   </properties>
  </tile>
  <tile id="6711">
   <properties>
    <property name="Passable" value="T"/>
    <property name="Type" value="Stone"/>
   </properties>
  </tile>
  <tile id="6712">
   <properties>
    <property name="Passable" value="T"/>
    <property name="Type" value="Stone"/>
   </properties>
  </tile>
  <tile id="6713">
   <properties>
    <property name="Passable" value="T"/>
    <property name="Type" value="Stone"/>
   </properties>
  </tile>
  <tile id="6714">
   <properties>
    <property name="Passable" value="T"/>
    <property name="Type" value="Stone"/>
   </properties>
  </tile>
  <tile id="6715">
   <properties>
    <property name="Passable" value="T"/>
    <property name="Type" value="Stone"/>
   </properties>
  </tile>
  <tile id="6716">
   <properties>
    <property name="Passable" value="T"/>
    <property name="Type" value="Stone"/>
   </properties>
  </tile>
  <tile id="6717">
   <properties>
    <property name="Passable" value="T"/>
    <property name="Type" value="Stone"/>
   </properties>
  </tile>
  <tile id="6718">
   <properties>
    <property name="Passable" value="T"/>
   </properties>
  </tile>
 </tileset>
 <layer id="17" name="Back1" width="3" height="8">
  <data encoding="csv">
0,0,0,
0,0,0,
0,0,0,
0,0,0,
0,0,0,
0,0,0,
0,0,0,
0,0,0
</data>
 </layer>
 <objectgroup id="2" name="Back"/>
 <layer id="3" name="Back2" width="3" height="8">
  <properties>
   <property name="Draw" value="Back"/>
  </properties>
  <data encoding="csv">
0,0,0,
0,0,0,
2400,2400,0,
2400,2400,0,
2400,0,0,
2400,0,0,
2351,2351,2351,
14788,0,0
</data>
 </layer>
 <objectgroup id="4" name="Back2"/>
 <layer id="5" name="Back3" width="3" height="8">
  <properties>
   <property name="Draw" value="Back"/>
  </properties>
  <data encoding="csv">
0,0,0,
0,0,0,
0,0,0,
0,0,0,
0,0,0,
0,0,0,
0,0,0,
0,14789,14790
</data>
 </layer>
 <objectgroup id="6" name="Back3"/>
 <layer id="7" name="Buildings" width="3" height="8">
  <data encoding="csv">
0,0,0,
449,450,451,
481,482,483,
513,514,515,
14509,546,547,
14602,578,579,
14695,14696,14697,
0,0,0
</data>
 </layer>
 <objectgroup id="8" name="Buildings"/>
 <layer id="9" name="Buildings2" width="3" height="8">
  <properties>
   <property name="Draw" value="Buildings"/>
  </properties>
  <data encoding="csv">
0,0,0,
0,0,0,
0,0,0,
0,0,0,
0,0,0,
0,0,0,
0,0,0,
0,0,0
</data>
 </layer>
 <objectgroup id="10" name="Buildings2"/>
 <layer id="11" name="Paths" width="3" height="8">
  <data encoding="csv">
0,0,0,
0,0,0,
0,0,0,
0,0,0,
0,0,0,
0,0,0,
0,0,0,
0,0,0
</data>
 </layer>
 <objectgroup id="12" name="Paths"/>
 <layer id="13" name="Front" width="3" height="8">
  <data encoding="csv">
417,0,0,
14230,0,0,
0,0,0,
0,0,0,
0,14510,14511,
0,14603,14604,
0,0,0,
0,0,0
</data>
 </layer>
 <objectgroup id="14" name="Front"/>
 <layer id="15" name="AlwaysFront" width="3" height="8">
  <data encoding="csv">
14137,418,419,
0,14231,0,
14323,14324,0,
14416,14417,0,
0,0,0,
0,0,0,
0,0,0,
0,0,0
</data>
 </layer>
 <objectgroup id="16" name="AlwaysFront"/>
 <layer id="18" name="AlwaysFront2" width="3" height="8">
  <data encoding="csv">
0,0,0,
0,14231,0,
0,14324,0,
14416,14417,0,
0,0,0,
0,0,0,
0,0,0,
0,0,0
</data>
 </layer>
</map>
