<?xml version="1.0" encoding="UTF-8"?>
<map version="1.10" tiledversion="1.12.2" orientation="orthogonal" renderorder="right-down" compressionlevel="0" width="12" height="20" tilewidth="16" tileheight="16" infinite="0" nextlayerid="28" nextobjectid="441">
 <tileset firstgid="1" name="Paths" tilewidth="16" tileheight="16" tilecount="64" columns="4">
  <image source="paths.png" width="64" height="256"/>
  <tile id="0">
   <properties>
    <property name="PathType" value="NE"/>
   </properties>
  </tile>
  <tile id="1">
   <properties>
    <property name="PathType" value="SE"/>
   </properties>
  </tile>
  <tile id="2">
   <properties>
    <property name="PathType" value="WS"/>
   </properties>
  </tile>
  <tile id="3">
   <properties>
    <property name="PathType" value="WN"/>
   </properties>
  </tile>
  <tile id="4">
   <properties>
    <property name="PathType" value="Crossroad"/>
   </properties>
  </tile>
  <tile id="7">
   <properties>
    <property name="PathType" value="End"/>
   </properties>
  </tile>
  <tile id="35">
   <properties>
    <property name="GreenRain" value="asdf"/>
   </properties>
  </tile>
 </tileset>
 <tileset firstgid="65" name="v16_landscape2" tilewidth="16" tileheight="16" tilecount="1120" columns="16">
  <image source="spring_outdoorsTileSheet2.png" width="256" height="1120"/>
  <tile id="536">
   <animation>
    <frame tileid="536" duration="1000"/>
    <frame tileid="540" duration="1000"/>
   </animation>
  </tile>
  <tile id="537">
   <animation>
    <frame tileid="537" duration="1000"/>
    <frame tileid="541" duration="1000"/>
   </animation>
  </tile>
  <tile id="538">
   <animation>
    <frame tileid="538" duration="1000"/>
    <frame tileid="542" duration="1000"/>
   </animation>
  </tile>
  <tile id="552">
   <animation>
    <frame tileid="552" duration="1000"/>
    <frame tileid="556" duration="1000"/>
   </animation>
  </tile>
  <tile id="554">
   <animation>
    <frame tileid="554" duration="1000"/>
    <frame tileid="558" duration="1000"/>
   </animation>
  </tile>
  <tile id="568">
   <animation>
    <frame tileid="568" duration="1000"/>
    <frame tileid="572" duration="1000"/>
   </animation>
  </tile>
  <tile id="570">
   <animation>
    <frame tileid="570" duration="1000"/>
    <frame tileid="574" duration="1000"/>
   </animation>
  </tile>
  <tile id="584">
   <animation>
    <frame tileid="584" duration="1000"/>
    <frame tileid="588" duration="1000"/>
   </animation>
  </tile>
  <tile id="586">
   <animation>
    <frame tileid="586" duration="1000"/>
    <frame tileid="590" duration="1000"/>
   </animation>
  </tile>
  <tile id="600">
   <animation>
    <frame tileid="600" duration="1000"/>
    <frame tileid="604" duration="1000"/>
   </animation>
  </tile>
  <tile id="602">
   <animation>
    <frame tileid="602" duration="1000"/>
    <frame tileid="606" duration="1000"/>
   </animation>
  </tile>
  <tile id="616">
   <animation>
    <frame tileid="616" duration="1000"/>
    <frame tileid="620" duration="1000"/>
   </animation>
  </tile>
  <tile id="617">
   <animation>
    <frame tileid="617" duration="1000"/>
    <frame tileid="621" duration="1000"/>
   </animation>
  </tile>
  <tile id="618">
   <animation>
    <frame tileid="618" duration="1000"/>
    <frame tileid="622" duration="1000"/>
   </animation>
  </tile>
  <tile id="632">
   <animation>
    <frame tileid="632" duration="1000"/>
    <frame tileid="636" duration="1000"/>
   </animation>
  </tile>
  <tile id="633">
   <animation>
    <frame tileid="633" duration="1000"/>
    <frame tileid="637" duration="1000"/>
   </animation>
  </tile>
  <tile id="648">
   <animation>
    <frame tileid="648" duration="1000"/>
    <frame tileid="652" duration="1000"/>
   </animation>
  </tile>
  <tile id="649">
   <animation>
    <frame tileid="649" duration="1000"/>
    <frame tileid="653" duration="1000"/>
   </animation>
  </tile>
  <tile id="664">
   <animation>
    <frame tileid="664" duration="1000"/>
    <frame tileid="668" duration="1000"/>
   </animation>
  </tile>
  <tile id="665">
   <animation>
    <frame tileid="665" duration="1000"/>
    <frame tileid="669" duration="1000"/>
   </animation>
  </tile>
  <tile id="736">
   <properties>
    <property name="Type" value="Wood"/>
   </properties>
  </tile>
  <tile id="737">
   <properties>
    <property name="Type" value="Wood"/>
   </properties>
  </tile>
  <tile id="738">
   <properties>
    <property name="Type" value="Wood"/>
   </properties>
  </tile>
  <tile id="739">
   <properties>
    <property name="Type" value="Wood"/>
   </properties>
  </tile>
  <tile id="740">
   <properties>
    <property name="Type" value="Grass"/>
   </properties>
  </tile>
  <tile id="741">
   <properties>
    <property name="Type" value="Grass"/>
   </properties>
  </tile>
  <tile id="752">
   <properties>
    <property name="Type" value="Wood"/>
   </properties>
  </tile>
  <tile id="753">
   <properties>
    <property name="Type" value="Wood"/>
   </properties>
  </tile>
  <tile id="754">
   <properties>
    <property name="Type" value="Wood"/>
   </properties>
  </tile>
  <tile id="755">
   <properties>
    <property name="Type" value="Wood"/>
   </properties>
  </tile>
  <tile id="756">
   <properties>
    <property name="Type" value="Grass"/>
   </properties>
  </tile>
  <tile id="757">
   <properties>
    <property name="Type" value="Grass"/>
   </properties>
  </tile>
  <tile id="772">
   <properties>
    <property name="Type" value="Grass"/>
   </properties>
  </tile>
  <tile id="773">
   <properties>
    <property name="Type" value="Grass"/>
   </properties>
  </tile>
  <tile id="816">
   <properties>
    <property name="Water" value="T"/>
   </properties>
  </tile>
  <tile id="817">
   <properties>
    <property name="Water" value="T"/>
   </properties>
  </tile>
  <tile id="820">
   <properties>
    <property name="Water" value="T"/>
   </properties>
  </tile>
  <tile id="821">
   <properties>
    <property name="Water" value="T"/>
   </properties>
  </tile>
  <tile id="822">
   <properties>
    <property name="Water" value="T"/>
   </properties>
  </tile>
  <tile id="832">
   <properties>
    <property name="Water" value="T"/>
   </properties>
  </tile>
  <tile id="833">
   <properties>
    <property name="Water" value="T"/>
   </properties>
  </tile>
  <tile id="834">
   <properties>
    <property name="Water" value="T"/>
   </properties>
  </tile>
  <tile id="835">
   <properties>
    <property name="Water" value="T"/>
   </properties>
  </tile>
  <tile id="836">
   <properties>
    <property name="Water" value="T"/>
   </properties>
  </tile>
  <tile id="837">
   <properties>
    <property name="Water" value="T"/>
   </properties>
  </tile>
  <tile id="838">
   <properties>
    <property name="Water" value="T"/>
   </properties>
  </tile>
  <tile id="848">
   <properties>
    <property name="Water" value="T"/>
   </properties>
  </tile>
  <tile id="849">
   <properties>
    <property name="Water" value="T"/>
   </properties>
  </tile>
  <tile id="850">
   <properties>
    <property name="Water" value="T"/>
   </properties>
  </tile>
  <tile id="851">
   <properties>
    <property name="Water" value="T"/>
   </properties>
  </tile>
  <tile id="852">
   <properties>
    <property name="Water" value="T"/>
   </properties>
  </tile>
  <tile id="853">
   <properties>
    <property name="Water" value="T"/>
   </properties>
  </tile>
  <tile id="854">
   <properties>
    <property name="Water" value="T"/>
   </properties>
  </tile>
  <tile id="864">
   <properties>
    <property name="Water" value="T"/>
   </properties>
  </tile>
  <tile id="865">
   <properties>
    <property name="Water" value="T"/>
   </properties>
  </tile>
  <tile id="866">
   <properties>
    <property name="Water" value="T"/>
   </properties>
  </tile>
  <tile id="867">
   <properties>
    <property name="Water" value="T"/>
   </properties>
  </tile>
  <tile id="868">
   <properties>
    <property name="Water" value="T"/>
   </properties>
  </tile>
  <tile id="869">
   <properties>
    <property name="Water" value="T"/>
   </properties>
  </tile>
  <tile id="870">
   <properties>
    <property name="Water" value="T"/>
   </properties>
  </tile>
  <tile id="880">
   <properties>
    <property name="Water" value="T"/>
   </properties>
  </tile>
  <tile id="881">
   <properties>
    <property name="Water" value="T"/>
   </properties>
  </tile>
  <tile id="882">
   <properties>
    <property name="Water" value="T"/>
   </properties>
  </tile>
  <tile id="883">
   <properties>
    <property name="Water" value="T"/>
   </properties>
  </tile>
  <tile id="896">
   <properties>
    <property name="Diggable" value="t"/>
    <property name="Type" value="Dirt"/>
   </properties>
  </tile>
  <tile id="897">
   <animation>
    <frame tileid="897" duration="1000"/>
    <frame tileid="929" duration="1000"/>
   </animation>
  </tile>
  <tile id="905">
   <animation>
    <frame tileid="905" duration="1000"/>
    <frame tileid="937" duration="1000"/>
   </animation>
  </tile>
  <tile id="912">
   <animation>
    <frame tileid="912" duration="1000"/>
    <frame tileid="944" duration="1000"/>
   </animation>
  </tile>
  <tile id="913">
   <animation>
    <frame tileid="913" duration="1000"/>
    <frame tileid="945" duration="1000"/>
   </animation>
  </tile>
  <tile id="914">
   <animation>
    <frame tileid="914" duration="1000"/>
    <frame tileid="915" duration="1000"/>
   </animation>
  </tile>
  <tile id="920">
   <animation>
    <frame tileid="920" duration="1000"/>
    <frame tileid="952" duration="1000"/>
   </animation>
  </tile>
  <tile id="921">
   <animation>
    <frame tileid="921" duration="1000"/>
    <frame tileid="953" duration="1000"/>
   </animation>
  </tile>
  <tile id="922">
   <animation>
    <frame tileid="922" duration="1000"/>
    <frame tileid="923" duration="1000"/>
   </animation>
  </tile>
  <tile id="928">
   <properties>
    <property name="Diggable" value="t"/>
    <property name="Type" value="Dirt"/>
   </properties>
  </tile>
  <tile id="930">
   <animation>
    <frame tileid="930" duration="1000"/>
    <frame tileid="931" duration="1000"/>
   </animation>
  </tile>
  <tile id="938">
   <animation>
    <frame tileid="938" duration="1000"/>
    <frame tileid="939" duration="1000"/>
   </animation>
  </tile>
  <tile id="960">
   <animation>
    <frame tileid="960" duration="1000"/>
    <frame tileid="992" duration="1000"/>
   </animation>
  </tile>
  <tile id="961">
   <properties>
    <property name="Diggable" value="t"/>
    <property name="Type" value="Dirt"/>
   </properties>
  </tile>
  <tile id="962">
   <animation>
    <frame tileid="962" duration="1000"/>
    <frame tileid="963" duration="1000"/>
   </animation>
  </tile>
  <tile id="968">
   <animation>
    <frame tileid="968" duration="1000"/>
    <frame tileid="1000" duration="1000"/>
   </animation>
  </tile>
  <tile id="970">
   <animation>
    <frame tileid="970" duration="1000"/>
    <frame tileid="971" duration="1000"/>
   </animation>
  </tile>
  <tile id="976">
   <animation>
    <frame tileid="976" duration="1000"/>
    <frame tileid="1008" duration="1000"/>
   </animation>
  </tile>
  <tile id="977">
   <animation>
    <frame tileid="977" duration="1000"/>
    <frame tileid="1009" duration="1000"/>
   </animation>
  </tile>
  <tile id="978">
   <animation>
    <frame tileid="978" duration="1000"/>
    <frame tileid="979" duration="1000"/>
   </animation>
  </tile>
  <tile id="984">
   <animation>
    <frame tileid="984" duration="1000"/>
    <frame tileid="1016" duration="1000"/>
   </animation>
  </tile>
  <tile id="985">
   <animation>
    <frame tileid="985" duration="1000"/>
    <frame tileid="1017" duration="1000"/>
   </animation>
  </tile>
  <tile id="986">
   <animation>
    <frame tileid="986" duration="1000"/>
    <frame tileid="987" duration="1000"/>
   </animation>
  </tile>
  <tile id="993">
   <properties>
    <property name="Diggable" value="t"/>
    <property name="Type" value="Dirt"/>
   </properties>
  </tile>
  <tile id="1040">
   <properties>
    <property name="Diggable" value="t"/>
    <property name="Type" value="Dirt"/>
   </properties>
  </tile>
  <tile id="1041">
   <properties>
    <property name="Diggable" value="t"/>
    <property name="Type" value="Dirt"/>
   </properties>
  </tile>
  <tile id="1042">
   <properties>
    <property name="Diggable" value="t"/>
    <property name="Type" value="Dirt"/>
   </properties>
  </tile>
  <tile id="1043">
   <properties>
    <property name="Diggable" value="t"/>
    <property name="Type" value="Dirt"/>
   </properties>
  </tile>
  <tile id="1056">
   <animation>
    <frame tileid="1056" duration="1000"/>
    <frame tileid="1057" duration="1000"/>
   </animation>
  </tile>
  <tile id="1058">
   <animation>
    <frame tileid="1058" duration="1000"/>
    <frame tileid="1059" duration="1000"/>
   </animation>
  </tile>
  <tile id="1064">
   <animation>
    <frame tileid="1064" duration="1000"/>
    <frame tileid="1065" duration="1000"/>
   </animation>
  </tile>
  <tile id="1067">
   <animation>
    <frame tileid="1067" duration="1000"/>
    <frame tileid="1066" duration="1000"/>
   </animation>
  </tile>
 </tileset>
 <tileset firstgid="1185" name="daisyextras" tilewidth="16" tileheight="16" tilecount="1800" columns="30">
  <image source="spring_daisyextras.png" width="480" height="960"/>
  <tile id="762">
   <properties>
    <property name="Type" value="Stone"/>
   </properties>
  </tile>
  <tile id="763">
   <properties>
    <property name="Type" value="Stone"/>
   </properties>
  </tile>
  <tile id="764">
   <properties>
    <property name="Type" value="Stone"/>
   </properties>
  </tile>
  <tile id="795">
   <properties>
    <property name="Type" value="Stone"/>
   </properties>
  </tile>
  <tile id="796">
   <properties>
    <property name="Type" value="Stone"/>
   </properties>
  </tile>
  <tile id="797">
   <properties>
    <property name="Type" value="Stone"/>
   </properties>
  </tile>
  <tile id="798">
   <properties>
    <property name="Type" value="Stone"/>
   </properties>
  </tile>
  <tile id="799">
   <properties>
    <property name="Type" value="Stone"/>
   </properties>
  </tile>
  <tile id="825">
   <properties>
    <property name="Type" value="Stone"/>
   </properties>
  </tile>
  <tile id="826">
   <properties>
    <property name="Type" value="Stone"/>
   </properties>
  </tile>
  <tile id="827">
   <properties>
    <property name="Type" value="Stone"/>
   </properties>
  </tile>
  <tile id="828">
   <properties>
    <property name="Type" value="Stone"/>
   </properties>
  </tile>
  <tile id="829">
   <properties>
    <property name="Type" value="Stone"/>
   </properties>
  </tile>
  <tile id="850">
   <properties>
    <property name="Type" value="Stone"/>
   </properties>
  </tile>
  <tile id="851">
   <properties>
    <property name="Type" value="Stone"/>
   </properties>
  </tile>
  <tile id="852">
   <properties>
    <property name="Type" value="Stone"/>
   </properties>
  </tile>
  <tile id="855">
   <properties>
    <property name="Type" value="Stone"/>
   </properties>
  </tile>
  <tile id="856">
   <properties>
    <property name="Type" value="Stone"/>
   </properties>
  </tile>
  <tile id="857">
   <properties>
    <property name="Type" value="Stone"/>
   </properties>
  </tile>
  <tile id="880">
   <properties>
    <property name="Type" value="Stone"/>
   </properties>
  </tile>
  <tile id="881">
   <properties>
    <property name="Type" value="Stone"/>
   </properties>
  </tile>
  <tile id="882">
   <properties>
    <property name="Type" value="Stone"/>
   </properties>
  </tile>
  <tile id="884">
   <properties>
    <property name="Type" value="Stone"/>
   </properties>
  </tile>
  <tile id="885">
   <properties>
    <property name="Type" value="Stone"/>
   </properties>
  </tile>
  <tile id="886">
   <properties>
    <property name="Type" value="Stone"/>
   </properties>
  </tile>
  <tile id="887">
   <properties>
    <property name="Type" value="Stone"/>
   </properties>
  </tile>
  <tile id="888">
   <properties>
    <property name="Type" value="Stone"/>
   </properties>
  </tile>
  <tile id="911">
   <properties>
    <property name="Type" value="Stone"/>
   </properties>
  </tile>
  <tile id="912">
   <properties>
    <property name="Type" value="Stone"/>
   </properties>
  </tile>
  <tile id="913">
   <properties>
    <property name="Type" value="Stone"/>
   </properties>
  </tile>
  <tile id="914">
   <properties>
    <property name="Type" value="Stone"/>
   </properties>
  </tile>
  <tile id="915">
   <properties>
    <property name="Type" value="Stone"/>
   </properties>
  </tile>
  <tile id="916">
   <properties>
    <property name="Type" value="Stone"/>
   </properties>
  </tile>
  <tile id="917">
   <properties>
    <property name="Type" value="Stone"/>
   </properties>
  </tile>
  <tile id="918">
   <properties>
    <property name="Type" value="Stone"/>
   </properties>
  </tile>
  <tile id="943">
   <properties>
    <property name="Type" value="Stone"/>
   </properties>
  </tile>
  <tile id="944">
   <properties>
    <property name="Type" value="Stone"/>
   </properties>
  </tile>
  <tile id="945">
   <properties>
    <property name="Type" value="Stone"/>
   </properties>
  </tile>
  <tile id="946">
   <properties>
    <property name="Type" value="Stone"/>
   </properties>
  </tile>
  <tile id="947">
   <properties>
    <property name="Type" value="Stone"/>
   </properties>
  </tile>
  <tile id="948">
   <properties>
    <property name="Type" value="Stone"/>
   </properties>
  </tile>
  <tile id="973">
   <properties>
    <property name="Type" value="Stone"/>
   </properties>
  </tile>
  <tile id="974">
   <properties>
    <property name="Type" value="Stone"/>
   </properties>
  </tile>
  <tile id="975">
   <properties>
    <property name="Type" value="Stone"/>
   </properties>
  </tile>
  <tile id="976">
   <properties>
    <property name="Type" value="Stone"/>
   </properties>
  </tile>
  <tile id="977">
   <properties>
    <property name="Type" value="Stone"/>
   </properties>
  </tile>
  <tile id="978">
   <properties>
    <property name="Type" value="Stone"/>
   </properties>
  </tile>
  <tile id="1003">
   <properties>
    <property name="Type" value="Stone"/>
   </properties>
  </tile>
  <tile id="1004">
   <properties>
    <property name="Type" value="Stone"/>
   </properties>
  </tile>
  <tile id="1005">
   <properties>
    <property name="Type" value="Stone"/>
   </properties>
  </tile>
  <tile id="1006">
   <properties>
    <property name="Type" value="Stone"/>
   </properties>
  </tile>
  <tile id="1007">
   <properties>
    <property name="Type" value="Stone"/>
   </properties>
  </tile>
  <tile id="1008">
   <properties>
    <property name="Type" value="Stone"/>
   </properties>
  </tile>
  <tile id="1033">
   <properties>
    <property name="Type" value="Stone"/>
   </properties>
  </tile>
  <tile id="1034">
   <properties>
    <property name="Type" value="Stone"/>
   </properties>
  </tile>
  <tile id="1035">
   <properties>
    <property name="Type" value="Stone"/>
   </properties>
  </tile>
  <tile id="1036">
   <properties>
    <property name="Type" value="Stone"/>
   </properties>
  </tile>
  <tile id="1037">
   <properties>
    <property name="Type" value="Stone"/>
   </properties>
  </tile>
  <tile id="1038">
   <properties>
    <property name="Type" value="Stone"/>
   </properties>
  </tile>
 </tileset>
 <tileset firstgid="2985" name="Town" tilewidth="16" tileheight="16" tilecount="2304" columns="32">
  <image source="spring_town" width="512" height="1152"/>
  <tile id="45">
   <animation>
    <frame tileid="45" duration="1000"/>
    <frame tileid="45" duration="1000"/>
    <frame tileid="45" duration="1000"/>
    <frame tileid="45" duration="1000"/>
    <frame tileid="45" duration="1000"/>
    <frame tileid="45" duration="1000"/>
    <frame tileid="45" duration="1000"/>
    <frame tileid="45" duration="1000"/>
    <frame tileid="45" duration="1000"/>
    <frame tileid="45" duration="1000"/>
    <frame tileid="45" duration="1000"/>
    <frame tileid="45" duration="1000"/>
    <frame tileid="45" duration="1000"/>
    <frame tileid="45" duration="1000"/>
    <frame tileid="45" duration="1000"/>
    <frame tileid="45" duration="1000"/>
    <frame tileid="45" duration="1000"/>
    <frame tileid="12" duration="1000"/>
   </animation>
  </tile>
  <tile id="159">
   <properties>
    <property name="Passable" value="T"/>
   </properties>
  </tile>
  <tile id="191">
   <properties>
    <property name="Passable" value="T"/>
   </properties>
  </tile>
  <tile id="223">
   <properties>
    <property name="Passable" value="T"/>
   </properties>
  </tile>
  <tile id="608">
   <properties>
    <property name="Type" value="Grass"/>
   </properties>
  </tile>
  <tile id="609">
   <properties>
    <property name="Type" value="Grass"/>
   </properties>
  </tile>
  <tile id="610">
   <properties>
    <property name="Type" value="Grass"/>
   </properties>
  </tile>
  <tile id="611">
   <properties>
    <property name="Type" value="Grass"/>
   </properties>
  </tile>
  <tile id="612">
   <properties>
    <property name="Type" value="Grass"/>
   </properties>
  </tile>
  <tile id="641">
   <properties>
    <property name="Type" value="Stone"/>
   </properties>
  </tile>
  <tile id="644">
   <properties>
    <property name="Type" value="Grass"/>
   </properties>
  </tile>
  <tile id="645">
   <properties>
    <property name="Type" value="Grass"/>
   </properties>
  </tile>
  <tile id="646">
   <properties>
    <property name="Type" value="Stone"/>
   </properties>
  </tile>
  <tile id="672">
   <properties>
    <property name="Type" value="Grass"/>
   </properties>
  </tile>
  <tile id="674">
   <properties>
    <property name="Type" value="Grass"/>
   </properties>
  </tile>
  <tile id="676">
   <properties>
    <property name="Type" value="Stone"/>
   </properties>
  </tile>
  <tile id="736">
   <properties>
    <property name="Type" value="Stone"/>
   </properties>
  </tile>
  <tile id="737">
   <properties>
    <property name="Type" value="Stone"/>
   </properties>
  </tile>
  <tile id="768">
   <properties>
    <property name="Type" value="Stone"/>
   </properties>
  </tile>
  <tile id="769">
   <properties>
    <property name="Type" value="Stone"/>
   </properties>
  </tile>
  <tile id="770">
   <properties>
    <property name="Type" value="Stone"/>
   </properties>
  </tile>
  <tile id="858">
   <properties>
    <property name="Type" value="Stone"/>
   </properties>
  </tile>
  <tile id="859">
   <properties>
    <property name="Type" value="Stone"/>
   </properties>
  </tile>
  <tile id="860">
   <properties>
    <property name="Type" value="Stone"/>
   </properties>
  </tile>
  <tile id="861">
   <properties>
    <property name="Type" value="Stone"/>
   </properties>
  </tile>
  <tile id="862">
   <properties>
    <property name="Type" value="Stone"/>
   </properties>
  </tile>
  <tile id="863">
   <properties>
    <property name="Type" value="Stone"/>
   </properties>
  </tile>
  <tile id="874">
   <properties>
    <property name="Type" value="Stone"/>
   </properties>
  </tile>
  <tile id="890">
   <properties>
    <property name="Type" value="Stone"/>
   </properties>
  </tile>
  <tile id="891">
   <properties>
    <property name="Type" value="Stone"/>
   </properties>
  </tile>
  <tile id="892">
   <properties>
    <property name="Type" value="Stone"/>
   </properties>
  </tile>
  <tile id="893">
   <properties>
    <property name="Type" value="Stone"/>
   </properties>
  </tile>
  <tile id="894">
   <properties>
    <property name="Type" value="Stone"/>
   </properties>
  </tile>
  <tile id="895">
   <properties>
    <property name="Type" value="Stone"/>
   </properties>
  </tile>
  <tile id="901">
   <properties>
    <property name="Type" value="Stone"/>
   </properties>
  </tile>
  <tile id="902">
   <properties>
    <property name="Type" value="Stone"/>
   </properties>
  </tile>
  <tile id="903">
   <properties>
    <property name="Type" value="Stone"/>
   </properties>
  </tile>
  <tile id="904">
   <properties>
    <property name="Type" value="Stone"/>
   </properties>
  </tile>
  <tile id="905">
   <properties>
    <property name="Passable" value="F"/>
   </properties>
  </tile>
  <tile id="909">
   <properties>
    <property name="Type" value="Stone"/>
   </properties>
  </tile>
  <tile id="916">
   <properties>
    <property name="Water" value="T"/>
   </properties>
  </tile>
  <tile id="917">
   <properties>
    <property name="Water" value="T"/>
   </properties>
  </tile>
  <tile id="918">
   <properties>
    <property name="Water" value="T"/>
   </properties>
  </tile>
  <tile id="919">
   <properties>
    <property name="Water" value="T"/>
   </properties>
  </tile>
  <tile id="922">
   <properties>
    <property name="Type" value="Stone"/>
   </properties>
  </tile>
  <tile id="923">
   <properties>
    <property name="Type" value="Stone"/>
   </properties>
  </tile>
  <tile id="924">
   <properties>
    <property name="Type" value="Stone"/>
   </properties>
  </tile>
  <tile id="925">
   <properties>
    <property name="Type" value="Stone"/>
   </properties>
  </tile>
  <tile id="926">
   <properties>
    <property name="Type" value="Stone"/>
   </properties>
  </tile>
  <tile id="927">
   <properties>
    <property name="Type" value="Stone"/>
   </properties>
  </tile>
  <tile id="931">
   <properties>
    <property name="Type" value="Stone"/>
   </properties>
  </tile>
  <tile id="932">
   <properties>
    <property name="Type" value="Stone"/>
   </properties>
  </tile>
  <tile id="933">
   <properties>
    <property name="Type" value="Stone"/>
   </properties>
  </tile>
  <tile id="934">
   <properties>
    <property name="Type" value="Stone"/>
   </properties>
  </tile>
  <tile id="935">
   <properties>
    <property name="Type" value="Stone"/>
   </properties>
  </tile>
  <tile id="936">
   <properties>
    <property name="Type" value="Stone"/>
   </properties>
  </tile>
  <tile id="950">
   <properties>
    <property name="Water" value="T"/>
   </properties>
  </tile>
  <tile id="954">
   <properties>
    <property name="Type" value="Stone"/>
   </properties>
  </tile>
  <tile id="955">
   <properties>
    <property name="Type" value="Stone"/>
   </properties>
  </tile>
  <tile id="956">
   <properties>
    <property name="Type" value="Stone"/>
   </properties>
  </tile>
  <tile id="957">
   <properties>
    <property name="Type" value="Stone"/>
   </properties>
  </tile>
  <tile id="958">
   <properties>
    <property name="Type" value="Stone"/>
   </properties>
  </tile>
  <tile id="959">
   <properties>
    <property name="Type" value="Stone"/>
   </properties>
  </tile>
  <tile id="963">
   <properties>
    <property name="Type" value="Stone"/>
   </properties>
  </tile>
  <tile id="964">
   <properties>
    <property name="Type" value="Stone"/>
   </properties>
  </tile>
  <tile id="965">
   <properties>
    <property name="Type" value="Stone"/>
   </properties>
  </tile>
  <tile id="966">
   <properties>
    <property name="Type" value="Stone"/>
   </properties>
  </tile>
  <tile id="967">
   <properties>
    <property name="Type" value="Stone"/>
   </properties>
  </tile>
  <tile id="968">
   <properties>
    <property name="Type" value="Stone"/>
   </properties>
  </tile>
  <tile id="969">
   <properties>
    <property name="Type" value="Stone"/>
   </properties>
  </tile>
  <tile id="970">
   <properties>
    <property name="Type" value="Stone"/>
   </properties>
  </tile>
  <tile id="986">
   <properties>
    <property name="Type" value="Stone"/>
   </properties>
  </tile>
  <tile id="987">
   <properties>
    <property name="Type" value="Stone"/>
   </properties>
  </tile>
  <tile id="988">
   <properties>
    <property name="Type" value="Stone"/>
   </properties>
  </tile>
  <tile id="989">
   <properties>
    <property name="Type" value="Stone"/>
   </properties>
  </tile>
  <tile id="990">
   <properties>
    <property name="Type" value="Stone"/>
   </properties>
  </tile>
  <tile id="991">
   <properties>
    <property name="Type" value="Stone"/>
   </properties>
  </tile>
  <tile id="993">
   <properties>
    <property name="Type" value="Stone"/>
   </properties>
  </tile>
  <tile id="994">
   <properties>
    <property name="Type" value="Stone"/>
   </properties>
  </tile>
  <tile id="995">
   <properties>
    <property name="Type" value="Stone"/>
   </properties>
  </tile>
  <tile id="996">
   <properties>
    <property name="Type" value="Stone"/>
   </properties>
  </tile>
  <tile id="997">
   <properties>
    <property name="Type" value="Stone"/>
   </properties>
  </tile>
  <tile id="998">
   <properties>
    <property name="Type" value="Stone"/>
   </properties>
  </tile>
  <tile id="999">
   <properties>
    <property name="Type" value="Stone"/>
   </properties>
  </tile>
  <tile id="1000">
   <properties>
    <property name="Type" value="Stone"/>
   </properties>
  </tile>
  <tile id="1007">
   <properties>
    <property name="Type" value="Stone"/>
   </properties>
  </tile>
  <tile id="1008">
   <properties>
    <property name="Type" value="Stone"/>
   </properties>
  </tile>
  <tile id="1018">
   <properties>
    <property name="Type" value="Stone"/>
   </properties>
  </tile>
  <tile id="1019">
   <properties>
    <property name="Type" value="Stone"/>
   </properties>
  </tile>
  <tile id="1020">
   <properties>
    <property name="Type" value="Stone"/>
   </properties>
  </tile>
  <tile id="1021">
   <properties>
    <property name="Type" value="Stone"/>
   </properties>
  </tile>
  <tile id="1022">
   <properties>
    <property name="Type" value="Stone"/>
   </properties>
  </tile>
  <tile id="1023">
   <properties>
    <property name="Type" value="Stone"/>
   </properties>
  </tile>
  <tile id="1031">
   <properties>
    <property name="Type" value="Dirt"/>
   </properties>
  </tile>
  <tile id="1032">
   <properties>
    <property name="Type" value="Dirt"/>
   </properties>
  </tile>
  <tile id="1033">
   <properties>
    <property name="Type" value="Dirt"/>
   </properties>
  </tile>
  <tile id="1037">
   <animation>
    <frame tileid="1037" duration="100"/>
    <frame tileid="1038" duration="100"/>
    <frame tileid="1039" duration="100"/>
    <frame tileid="1039" duration="100"/>
   </animation>
  </tile>
  <tile id="1063">
   <properties>
    <property name="Type" value="Dirt"/>
   </properties>
  </tile>
  <tile id="1064">
   <properties>
    <property name="Type" value="Dirt"/>
   </properties>
  </tile>
  <tile id="1065">
   <properties>
    <property name="Type" value="Dirt"/>
   </properties>
  </tile>
  <tile id="1070">
   <animation>
    <frame tileid="1070" duration="100"/>
    <frame tileid="1101" duration="100"/>
    <frame tileid="1102" duration="100"/>
    <frame tileid="1043" duration="100"/>
   </animation>
  </tile>
  <tile id="1095">
   <properties>
    <property name="Type" value="Dirt"/>
   </properties>
  </tile>
  <tile id="1096">
   <properties>
    <property name="Type" value="Dirt"/>
   </properties>
  </tile>
  <tile id="1097">
   <properties>
    <property name="Type" value="Dirt"/>
   </properties>
  </tile>
  <tile id="1201">
   <animation>
    <frame tileid="1201" duration="100"/>
    <frame tileid="1202" duration="100"/>
    <frame tileid="1203" duration="100"/>
    <frame tileid="1204" duration="100"/>
    <frame tileid="1205" duration="100"/>
    <frame tileid="1206" duration="100"/>
   </animation>
  </tile>
  <tile id="1233">
   <animation>
    <frame tileid="1233" duration="100"/>
    <frame tileid="1234" duration="100"/>
    <frame tileid="1235" duration="100"/>
    <frame tileid="1236" duration="100"/>
    <frame tileid="1237" duration="100"/>
    <frame tileid="1238" duration="100"/>
   </animation>
  </tile>
  <tile id="1249">
   <properties>
    <property name="Shadow" value="T"/>
   </properties>
  </tile>
  <tile id="1265">
   <animation>
    <frame tileid="1265" duration="100"/>
    <frame tileid="1266" duration="100"/>
    <frame tileid="1267" duration="100"/>
    <frame tileid="1268" duration="100"/>
    <frame tileid="1269" duration="100"/>
    <frame tileid="1270" duration="100"/>
   </animation>
  </tile>
  <tile id="1573">
   <properties>
    <property name="Type" value="Stone"/>
   </properties>
  </tile>
  <tile id="1574">
   <properties>
    <property name="Type" value="Stone"/>
   </properties>
  </tile>
  <tile id="1585">
   <properties>
    <property name="Type" value="Stone"/>
   </properties>
  </tile>
  <tile id="1586">
   <properties>
    <property name="Type" value="Stone"/>
   </properties>
  </tile>
  <tile id="1958">
   <properties>
    <property name="Shadow" value="T"/>
   </properties>
  </tile>
 </tileset>
 <tileset firstgid="5289" name="z_municipalbuilding_tiles" tilewidth="16" tileheight="16" tilecount="112" columns="8">
  <image source="spring_municipalbuilding_tiles.png" width="128" height="224"/>
  <tile id="89">
   <properties>
    <property name="Type" value="Stone"/>
   </properties>
  </tile>
 </tileset>
 <tileset firstgid="5401" name="Landscape" tilewidth="16" tileheight="16" tilecount="1975" columns="25">
  <image source="spring_outdoorsTileSheet" width="400" height="1264"/>
  <tile id="150">
   <properties>
    <property name="Spawnable" value="T"/>
    <property name="Type" value="Grass"/>
   </properties>
   <animation>
    <frame tileid="150" duration="100"/>
    <frame tileid="420" duration="100"/>
    <frame tileid="421" duration="100"/>
    <frame tileid="422" duration="100"/>
    <frame tileid="423" duration="100"/>
    <frame tileid="420" duration="100"/>
    <frame tileid="150" duration="100"/>
    <frame tileid="150" duration="100"/>
    <frame tileid="150" duration="100"/>
    <frame tileid="150" duration="100"/>
    <frame tileid="150" duration="100"/>
    <frame tileid="150" duration="100"/>
    <frame tileid="150" duration="100"/>
    <frame tileid="150" duration="100"/>
    <frame tileid="150" duration="100"/>
    <frame tileid="150" duration="100"/>
    <frame tileid="150" duration="100"/>
    <frame tileid="150" duration="100"/>
    <frame tileid="150" duration="100"/>
    <frame tileid="150" duration="100"/>
    <frame tileid="150" duration="100"/>
    <frame tileid="150" duration="100"/>
    <frame tileid="150" duration="100"/>
    <frame tileid="150" duration="100"/>
    <frame tileid="150" duration="100"/>
    <frame tileid="150" duration="100"/>
    <frame tileid="150" duration="100"/>
    <frame tileid="150" duration="100"/>
    <frame tileid="150" duration="100"/>
    <frame tileid="150" duration="100"/>
    <frame tileid="150" duration="100"/>
   </animation>
  </tile>
  <tile id="151">
   <properties>
    <property name="Type" value="Grass"/>
   </properties>
   <animation>
    <frame tileid="151" duration="1000"/>
    <frame tileid="152" duration="1000"/>
   </animation>
  </tile>
  <tile id="152">
   <animation>
    <frame tileid="152" duration="1000"/>
    <frame tileid="151" duration="1000"/>
   </animation>
  </tile>
  <tile id="153">
   <properties>
    <property name="Diggable" value="T"/>
    <property name="Type" value="Dirt"/>
   </properties>
  </tile>
  <tile id="156">
   <properties>
    <property name="Spawnable" value="T"/>
    <property name="Type" value="Grass"/>
   </properties>
  </tile>
  <tile id="175">
   <properties>
    <property name="Spawnable" value="T"/>
    <property name="Type" value="Grass"/>
   </properties>
  </tile>
  <tile id="176">
   <properties>
    <property name="Diggable" value="T"/>
    <property name="Type" value="Dirt"/>
   </properties>
  </tile>
  <tile id="177">
   <properties>
    <property name="Type" value="Dirt"/>
   </properties>
  </tile>
  <tile id="178">
   <properties>
    <property name="Type" value="Dirt"/>
   </properties>
  </tile>
  <tile id="179">
   <properties>
    <property name="Type" value="Grass"/>
   </properties>
  </tile>
  <tile id="180">
   <properties>
    <property name="Spawnable" value="T"/>
    <property name="Type" value="Grass"/>
   </properties>
  </tile>
  <tile id="181">
   <properties>
    <property name="Type" value="Dirt"/>
   </properties>
  </tile>
  <tile id="182">
   <properties>
    <property name="Type" value="Dirt"/>
   </properties>
  </tile>
  <tile id="183">
   <animation>
    <frame tileid="183" duration="1000"/>
    <frame tileid="1182" duration="1000"/>
   </animation>
  </tile>
  <tile id="184">
   <animation>
    <frame tileid="184" duration="1000"/>
    <frame tileid="1183" duration="1000"/>
   </animation>
  </tile>
  <tile id="185">
   <animation>
    <frame tileid="185" duration="1000"/>
    <frame tileid="1184" duration="1000"/>
   </animation>
  </tile>
  <tile id="200">
   <properties>
    <property name="Spawnable" value="T"/>
    <property name="Type" value="Grass"/>
   </properties>
  </tile>
  <tile id="202">
   <properties>
    <property name="Type" value="Dirt"/>
   </properties>
  </tile>
  <tile id="203">
   <properties>
    <property name="Type" value="Grass"/>
   </properties>
  </tile>
  <tile id="204">
   <properties>
    <property name="Type" value="Grass"/>
   </properties>
  </tile>
  <tile id="205">
   <properties>
    <property name="Type" value="Grass"/>
   </properties>
  </tile>
  <tile id="206">
   <properties>
    <property name="Diggable" value="T"/>
    <property name="Type" value="Dirt"/>
   </properties>
  </tile>
  <tile id="207">
   <properties>
    <property name="Diggable" value="T"/>
    <property name="Type" value="Dirt"/>
   </properties>
  </tile>
  <tile id="208">
   <animation>
    <frame tileid="208" duration="1000"/>
    <frame tileid="1207" duration="1000"/>
   </animation>
  </tile>
  <tile id="209">
   <properties>
    <property name="Water" value="T"/>
   </properties>
   <animation>
    <frame tileid="209" duration="1000"/>
    <frame tileid="1208" duration="1000"/>
   </animation>
  </tile>
  <tile id="210">
   <animation>
    <frame tileid="210" duration="1000"/>
    <frame tileid="1209" duration="1000"/>
   </animation>
  </tile>
  <tile id="211">
   <animation>
    <frame tileid="211" duration="1000"/>
    <frame tileid="1210" duration="1000"/>
   </animation>
  </tile>
  <tile id="225">
   <properties>
    <property name="Type" value="Dirt"/>
   </properties>
  </tile>
  <tile id="226">
   <properties>
    <property name="Diggable" value="T"/>
    <property name="Type" value="Dirt"/>
   </properties>
  </tile>
  <tile id="227">
   <properties>
    <property name="Diggable" value="T"/>
    <property name="Type" value="Dirt"/>
   </properties>
  </tile>
  <tile id="228">
   <properties>
    <property name="Type" value="Dirt"/>
   </properties>
  </tile>
  <tile id="229">
   <properties>
    <property name="Type" value="Grass"/>
   </properties>
  </tile>
  <tile id="230">
   <properties>
    <property name="Type" value="Grass"/>
   </properties>
  </tile>
  <tile id="231">
   <properties>
    <property name="Diggable" value="T"/>
    <property name="Type" value="Dirt"/>
   </properties>
  </tile>
  <tile id="233">
   <animation>
    <frame tileid="233" duration="1000"/>
    <frame tileid="1232" duration="1000"/>
   </animation>
  </tile>
  <tile id="234">
   <properties>
    <property name="Water" value="T"/>
   </properties>
  </tile>
  <tile id="235">
   <animation>
    <frame tileid="235" duration="1000"/>
    <frame tileid="1290" duration="1000"/>
   </animation>
  </tile>
  <tile id="237">
   <animation>
    <frame tileid="237" duration="1000"/>
    <frame tileid="1291" duration="1000"/>
   </animation>
  </tile>
  <tile id="238">
   <animation>
    <frame tileid="238" duration="1000"/>
    <frame tileid="1292" duration="1000"/>
   </animation>
  </tile>
  <tile id="250">
   <properties>
    <property name="Type" value="Grass"/>
   </properties>
  </tile>
  <tile id="251">
   <properties>
    <property name="Type" value="Dirt"/>
   </properties>
  </tile>
  <tile id="252">
   <properties>
    <property name="Diggable" value="T"/>
    <property name="Type" value="Dirt"/>
   </properties>
  </tile>
  <tile id="253">
   <properties>
    <property name="Type" value="Grass"/>
   </properties>
  </tile>
  <tile id="254">
   <properties>
    <property name="Type" value="Grass"/>
   </properties>
  </tile>
  <tile id="255">
   <properties>
    <property name="Type" value="Grass"/>
   </properties>
  </tile>
  <tile id="256">
   <properties>
    <property name="Type" value="Grass"/>
   </properties>
  </tile>
  <tile id="258">
   <animation>
    <frame tileid="258" duration="1000"/>
    <frame tileid="1257" duration="1000"/>
   </animation>
  </tile>
  <tile id="260">
   <animation>
    <frame tileid="260" duration="1000"/>
    <frame tileid="1315" duration="1000"/>
   </animation>
  </tile>
  <tile id="261">
   <properties>
    <property name="Type" value="Grass"/>
   </properties>
  </tile>
  <tile id="265">
   <properties>
    <property name="Type" value="Dirt"/>
   </properties>
  </tile>
  <tile id="276">
   <properties>
    <property name="Type" value="Grass"/>
   </properties>
  </tile>
  <tile id="277">
   <properties>
    <property name="Type" value="Grass"/>
   </properties>
  </tile>
  <tile id="278">
   <properties>
    <property name="Type" value="Grass"/>
   </properties>
  </tile>
  <tile id="279">
   <properties>
    <property name="Type" value="Grass"/>
   </properties>
  </tile>
  <tile id="281">
   <properties>
    <property name="Type" value="Grass"/>
   </properties>
  </tile>
  <tile id="283">
   <animation>
    <frame tileid="283" duration="1000"/>
    <frame tileid="1312" duration="1000"/>
   </animation>
  </tile>
  <tile id="284">
   <animation>
    <frame tileid="284" duration="1000"/>
    <frame tileid="1313" duration="1000"/>
   </animation>
  </tile>
  <tile id="285">
   <properties>
    <property name="Water" value="T"/>
   </properties>
  </tile>
  <tile id="286">
   <properties>
    <property name="Type" value="Grass"/>
   </properties>
  </tile>
  <tile id="301">
   <properties>
    <property name="Type" value="Grass"/>
   </properties>
  </tile>
  <tile id="302">
   <properties>
    <property name="Type" value="Grass"/>
   </properties>
  </tile>
  <tile id="303">
   <properties>
    <property name="Type" value="Grass"/>
   </properties>
  </tile>
  <tile id="304">
   <properties>
    <property name="Type" value="Grass"/>
   </properties>
  </tile>
  <tile id="305">
   <properties>
    <property name="Type" value="Grass"/>
   </properties>
  </tile>
  <tile id="306">
   <properties>
    <property name="Type" value="Grass"/>
   </properties>
  </tile>
  <tile id="308">
   <properties>
    <property name="Water" value="T"/>
   </properties>
  </tile>
  <tile id="309">
   <properties>
    <property name="Water" value="T"/>
   </properties>
  </tile>
  <tile id="310">
   <properties>
    <property name="Water" value="T"/>
   </properties>
  </tile>
  <tile id="311">
   <properties>
    <property name="Type" value="Grass"/>
   </properties>
  </tile>
  <tile id="312">
   <properties>
    <property name="Type" value="Wood"/>
   </properties>
  </tile>
  <tile id="313">
   <properties>
    <property name="Type" value="Wood"/>
   </properties>
  </tile>
  <tile id="314">
   <properties>
    <property name="Type" value="Wood"/>
   </properties>
  </tile>
  <tile id="325">
   <properties>
    <property name="Type" value="Grass"/>
   </properties>
  </tile>
  <tile id="326">
   <properties>
    <property name="Type" value="Grass"/>
   </properties>
  </tile>
  <tile id="327">
   <properties>
    <property name="Type" value="Grass"/>
   </properties>
  </tile>
  <tile id="328">
   <properties>
    <property name="Type" value="Grass"/>
   </properties>
  </tile>
  <tile id="329">
   <properties>
    <property name="Type" value="Grass"/>
   </properties>
  </tile>
  <tile id="331">
   <properties>
    <property name="Type" value="Grass"/>
   </properties>
  </tile>
  <tile id="332">
   <properties>
    <property name="Type" value="Grass"/>
   </properties>
  </tile>
  <tile id="333">
   <properties>
    <property name="Water" value="T"/>
   </properties>
  </tile>
  <tile id="334">
   <properties>
    <property name="Water" value="T"/>
   </properties>
  </tile>
  <tile id="335">
   <properties>
    <property name="Water" value="T"/>
   </properties>
  </tile>
  <tile id="336">
   <properties>
    <property name="Water" value="T"/>
   </properties>
  </tile>
  <tile id="337">
   <properties>
    <property name="Type" value="Wood"/>
   </properties>
  </tile>
  <tile id="338">
   <properties>
    <property name="Type" value="Wood"/>
   </properties>
  </tile>
  <tile id="339">
   <properties>
    <property name="Type" value="Wood"/>
   </properties>
  </tile>
  <tile id="350">
   <properties>
    <property name="Type" value="Grass"/>
   </properties>
  </tile>
  <tile id="351">
   <properties>
    <property name="Spawnable" value="T"/>
    <property name="Type" value="Grass"/>
   </properties>
  </tile>
  <tile id="352">
   <properties>
    <property name="Type" value="Grass"/>
   </properties>
  </tile>
  <tile id="353">
   <properties>
    <property name="Type" value="Grass"/>
   </properties>
  </tile>
  <tile id="354">
   <properties>
    <property name="Type" value="Grass"/>
   </properties>
  </tile>
  <tile id="355">
   <properties>
    <property name="Type" value="Grass"/>
   </properties>
  </tile>
  <tile id="356">
   <properties>
    <property name="Type" value="Grass"/>
   </properties>
  </tile>
  <tile id="357">
   <properties>
    <property name="Type" value="Grass"/>
   </properties>
  </tile>
  <tile id="375">
   <properties>
    <property name="Type" value="Grass"/>
   </properties>
  </tile>
  <tile id="376">
   <properties>
    <property name="Type" value="Grass"/>
   </properties>
  </tile>
  <tile id="377">
   <properties>
    <property name="Type" value="Grass"/>
   </properties>
  </tile>
  <tile id="378">
   <properties>
    <property name="Type" value="Grass"/>
   </properties>
  </tile>
  <tile id="379">
   <properties>
    <property name="Type" value="Grass"/>
   </properties>
  </tile>
  <tile id="380">
   <properties>
    <property name="Spawnable" value="T"/>
    <property name="Type" value="Grass"/>
   </properties>
  </tile>
  <tile id="381">
   <properties>
    <property name="Type" value="Grass"/>
   </properties>
  </tile>
  <tile id="382">
   <properties>
    <property name="Type" value="Grass"/>
   </properties>
  </tile>
  <tile id="400">
   <properties>
    <property name="Type" value="Grass"/>
   </properties>
  </tile>
  <tile id="401">
   <properties>
    <property name="Type" value="Grass"/>
   </properties>
  </tile>
  <tile id="402">
   <properties>
    <property name="Type" value="Grass"/>
   </properties>
  </tile>
  <tile id="403">
   <properties>
    <property name="Spawnable" value="T"/>
    <property name="Type" value="Grass"/>
   </properties>
  </tile>
  <tile id="404">
   <properties>
    <property name="Type" value="Grass"/>
   </properties>
  </tile>
  <tile id="405">
   <properties>
    <property name="Type" value="Grass"/>
   </properties>
  </tile>
  <tile id="406">
   <properties>
    <property name="Type" value="Grass"/>
   </properties>
  </tile>
  <tile id="407">
   <properties>
    <property name="Type" value="Grass"/>
   </properties>
  </tile>
  <tile id="463">
   <properties>
    <property name="Type" value="Dirt"/>
   </properties>
  </tile>
  <tile id="488">
   <properties>
    <property name="Type" value="Dirt"/>
   </properties>
  </tile>
  <tile id="512">
   <properties>
    <property name="Type" value="Dirt"/>
   </properties>
  </tile>
  <tile id="513">
   <properties>
    <property name="Type" value="Dirt"/>
   </properties>
  </tile>
  <tile id="534">
   <properties>
    <property name="Type" value="Dirt"/>
   </properties>
  </tile>
  <tile id="536">
   <properties>
    <property name="Type" value="Dirt"/>
   </properties>
  </tile>
  <tile id="537">
   <properties>
    <property name="Type" value="Dirt"/>
   </properties>
  </tile>
  <tile id="538">
   <properties>
    <property name="Type" value="Dirt"/>
   </properties>
  </tile>
  <tile id="558">
   <properties>
    <property name="Diggable" value="T"/>
    <property name="Type" value="Dirt"/>
   </properties>
  </tile>
  <tile id="560">
   <properties>
    <property name="Diggable" value="T"/>
    <property name="Type" value="Dirt"/>
   </properties>
  </tile>
  <tile id="561">
   <properties>
    <property name="Type" value="Dirt"/>
   </properties>
  </tile>
  <tile id="562">
   <properties>
    <property name="Type" value="Dirt"/>
   </properties>
  </tile>
  <tile id="563">
   <properties>
    <property name="Type" value="Dirt"/>
   </properties>
  </tile>
  <tile id="564">
   <properties>
    <property name="Diggable" value="T"/>
    <property name="Type" value="Dirt"/>
   </properties>
  </tile>
  <tile id="565">
   <properties>
    <property name="Type" value="Dirt"/>
   </properties>
  </tile>
  <tile id="566">
   <properties>
    <property name="Type" value="Dirt"/>
   </properties>
  </tile>
  <tile id="567">
   <properties>
    <property name="Spawnable" value="T"/>
    <property name="Type" value="Grass"/>
   </properties>
  </tile>
  <tile id="568">
   <properties>
    <property name="Type" value="Grass"/>
   </properties>
  </tile>
  <tile id="569">
   <properties>
    <property name="Spawnable" value="T"/>
    <property name="Type" value="Grass"/>
   </properties>
  </tile>
  <tile id="570">
   <properties>
    <property name="Type" value="Grass"/>
   </properties>
  </tile>
  <tile id="583">
   <properties>
    <property name="Diggable" value="T"/>
    <property name="Type" value="Dirt"/>
   </properties>
  </tile>
  <tile id="585">
   <properties>
    <property name="Diggable" value="T"/>
    <property name="Type" value="Dirt"/>
   </properties>
  </tile>
  <tile id="586">
   <properties>
    <property name="Type" value="Dirt"/>
   </properties>
  </tile>
  <tile id="587">
   <properties>
    <property name="Diggable" value="T"/>
    <property name="Type" value="Dirt"/>
   </properties>
  </tile>
  <tile id="588">
   <properties>
    <property name="Type" value="Dirt"/>
   </properties>
  </tile>
  <tile id="589">
   <properties>
    <property name="Diggable" value="T"/>
    <property name="Type" value="Dirt"/>
   </properties>
  </tile>
  <tile id="590">
   <properties>
    <property name="Type" value="Dirt"/>
   </properties>
  </tile>
  <tile id="591">
   <properties>
    <property name="Type" value="Dirt"/>
   </properties>
  </tile>
  <tile id="592">
   <properties>
    <property name="Type" value="Grass"/>
   </properties>
  </tile>
  <tile id="593">
   <properties>
    <property name="Type" value="Grass"/>
   </properties>
  </tile>
  <tile id="594">
   <properties>
    <property name="Type" value="Grass"/>
   </properties>
  </tile>
  <tile id="595">
   <properties>
    <property name="Type" value="Grass"/>
   </properties>
  </tile>
  <tile id="596">
   <properties>
    <property name="Type" value="Dirt"/>
   </properties>
  </tile>
  <tile id="597">
   <properties>
    <property name="Type" value="Dirt"/>
   </properties>
  </tile>
  <tile id="598">
   <properties>
    <property name="Type" value="Stone"/>
   </properties>
  </tile>
  <tile id="599">
   <properties>
    <property name="Type" value="Stone"/>
   </properties>
  </tile>
  <tile id="606">
   <properties>
    <property name="Diggable" value="T"/>
    <property name="Type" value="Dirt"/>
   </properties>
  </tile>
  <tile id="607">
   <properties>
    <property name="Diggable" value="T"/>
    <property name="Type" value="Dirt"/>
   </properties>
  </tile>
  <tile id="608">
   <properties>
    <property name="Diggable" value="T"/>
    <property name="Type" value="Dirt"/>
   </properties>
  </tile>
  <tile id="610">
   <properties>
    <property name="Diggable" value="T"/>
    <property name="Type" value="Dirt"/>
   </properties>
  </tile>
  <tile id="611">
   <properties>
    <property name="Type" value="Dirt"/>
   </properties>
  </tile>
  <tile id="612">
   <properties>
    <property name="Type" value="Dirt"/>
   </properties>
  </tile>
  <tile id="613">
   <properties>
    <property name="Type" value="Dirt"/>
   </properties>
  </tile>
  <tile id="614">
   <properties>
    <property name="Diggable" value="T"/>
    <property name="Type" value="Dirt"/>
   </properties>
  </tile>
  <tile id="615">
   <properties>
    <property name="Type" value="Dirt"/>
   </properties>
  </tile>
  <tile id="616">
   <properties>
    <property name="Type" value="Dirt"/>
   </properties>
  </tile>
  <tile id="617">
   <properties>
    <property name="Type" value="Dirt"/>
   </properties>
  </tile>
  <tile id="618">
   <properties>
    <property name="Type" value="Dirt"/>
   </properties>
  </tile>
  <tile id="619">
   <properties>
    <property name="Type" value="Grass"/>
   </properties>
  </tile>
  <tile id="620">
   <properties>
    <property name="Type" value="Dirt"/>
   </properties>
  </tile>
  <tile id="621">
   <properties>
    <property name="Type" value="Dirt"/>
   </properties>
  </tile>
  <tile id="622">
   <properties>
    <property name="Type" value="Dirt"/>
   </properties>
  </tile>
  <tile id="623">
   <properties>
    <property name="Type" value="Stone"/>
   </properties>
  </tile>
  <tile id="628">
   <properties>
    <property name="Water" value="T"/>
   </properties>
  </tile>
  <tile id="629">
   <properties>
    <property name="Water" value="T"/>
   </properties>
  </tile>
  <tile id="630">
   <properties>
    <property name="Diggable" value="T"/>
    <property name="Type" value="Dirt"/>
   </properties>
  </tile>
  <tile id="631">
   <properties>
    <property name="Type" value="Dirt"/>
   </properties>
  </tile>
  <tile id="632">
   <properties>
    <property name="Diggable" value="T"/>
    <property name="Type" value="Dirt"/>
   </properties>
  </tile>
  <tile id="633">
   <properties>
    <property name="Type" value="Grass"/>
   </properties>
  </tile>
  <tile id="634">
   <properties>
    <property name="Spawnable" value="T"/>
    <property name="Type" value="Grass"/>
   </properties>
  </tile>
  <tile id="635">
   <properties>
    <property name="Type" value="Dirt"/>
   </properties>
  </tile>
  <tile id="636">
   <properties>
    <property name="Type" value="Dirt"/>
   </properties>
  </tile>
  <tile id="653">
   <properties>
    <property name="Water" value="T"/>
   </properties>
  </tile>
  <tile id="654">
   <properties>
    <property name="Type" value="Grass"/>
   </properties>
  </tile>
  <tile id="655">
   <properties>
    <property name="Type" value="Dirt"/>
   </properties>
  </tile>
  <tile id="656">
   <properties>
    <property name="Type" value="Dirt"/>
   </properties>
  </tile>
  <tile id="657">
   <properties>
    <property name="Type" value="Grass"/>
   </properties>
  </tile>
  <tile id="658">
   <properties>
    <property name="Type" value="Grass"/>
   </properties>
  </tile>
  <tile id="659">
   <properties>
    <property name="Type" value="Grass"/>
   </properties>
  </tile>
  <tile id="679">
   <properties>
    <property name="Type" value="Dirt"/>
   </properties>
  </tile>
  <tile id="680">
   <properties>
    <property name="Diggable" value="T"/>
    <property name="Type" value="Dirt"/>
   </properties>
  </tile>
  <tile id="681">
   <properties>
    <property name="Diggable" value="T"/>
    <property name="Type" value="Dirt"/>
   </properties>
  </tile>
  <tile id="682">
   <properties>
    <property name="Type" value="Dirt"/>
   </properties>
  </tile>
  <tile id="683">
   <properties>
    <property name="Type" value="Grass"/>
   </properties>
  </tile>
  <tile id="684">
   <properties>
    <property name="Type" value="Grass"/>
   </properties>
  </tile>
  <tile id="685">
   <properties>
    <property name="Diggable" value="T"/>
    <property name="Type" value="Dirt"/>
   </properties>
  </tile>
  <tile id="704">
   <properties>
    <property name="Type" value="Grass"/>
   </properties>
  </tile>
  <tile id="705">
   <properties>
    <property name="Type" value="Dirt"/>
   </properties>
  </tile>
  <tile id="706">
   <properties>
    <property name="Diggable" value="T"/>
    <property name="Type" value="Dirt"/>
   </properties>
  </tile>
  <tile id="707">
   <properties>
    <property name="Type" value="Grass"/>
   </properties>
  </tile>
  <tile id="729">
   <properties>
    <property name="Type" value="Wood"/>
   </properties>
  </tile>
  <tile id="730">
   <properties>
    <property name="Type" value="Wood"/>
   </properties>
  </tile>
  <tile id="734">
   <properties>
    <property name="Water" value="T"/>
   </properties>
  </tile>
  <tile id="754">
   <properties>
    <property name="Type" value="Wood"/>
   </properties>
  </tile>
  <tile id="755">
   <properties>
    <property name="Type" value="Wood"/>
   </properties>
  </tile>
  <tile id="759">
   <properties>
    <property name="Water" value="T"/>
   </properties>
  </tile>
  <tile id="779">
   <properties>
    <property name="Passable" value="T"/>
    <property name="Type" value="Wood"/>
   </properties>
  </tile>
  <tile id="780">
   <properties>
    <property name="Passable" value="T"/>
    <property name="Type" value="Wood"/>
   </properties>
  </tile>
  <tile id="781">
   <properties>
    <property name="Passable" value="T"/>
    <property name="Type" value="Wood"/>
   </properties>
  </tile>
  <tile id="782">
   <properties>
    <property name="Passable" value="T"/>
    <property name="Type" value="Wood"/>
   </properties>
  </tile>
  <tile id="809">
   <properties>
    <property name="Passable" value="T"/>
    <property name="Type" value="Wood"/>
   </properties>
  </tile>
  <tile id="812">
   <properties>
    <property name="Type" value="Stone"/>
   </properties>
  </tile>
  <tile id="813">
   <properties>
    <property name="Type" value="Stone"/>
   </properties>
  </tile>
  <tile id="834">
   <properties>
    <property name="Passable" value="T"/>
    <property name="Type" value="Wood"/>
   </properties>
  </tile>
  <tile id="838">
   <properties>
    <property name="Type" value="Stone"/>
   </properties>
  </tile>
  <tile id="859">
   <properties>
    <property name="Passable" value="T"/>
    <property name="Type" value="Wood"/>
   </properties>
  </tile>
  <tile id="884">
   <properties>
    <property name="Passable" value="T"/>
    <property name="Type" value="Wood"/>
   </properties>
  </tile>
  <tile id="947">
   <properties>
    <property name="Type" value="Stone"/>
   </properties>
  </tile>
  <tile id="948">
   <properties>
    <property name="Type" value="Stone"/>
   </properties>
  </tile>
  <tile id="949">
   <properties>
    <property name="Type" value="Stone"/>
   </properties>
  </tile>
  <tile id="972">
   <properties>
    <property name="Type" value="Stone"/>
   </properties>
  </tile>
  <tile id="973">
   <properties>
    <property name="Type" value="Stone"/>
   </properties>
  </tile>
  <tile id="974">
   <properties>
    <property name="Type" value="Stone"/>
   </properties>
  </tile>
  <tile id="998">
   <properties>
    <property name="Type" value="Stone"/>
   </properties>
  </tile>
  <tile id="999">
   <properties>
    <property name="Type" value="Stone"/>
   </properties>
  </tile>
  <tile id="1186">
   <properties>
    <property name="Water" value="T"/>
   </properties>
  </tile>
  <tile id="1187">
   <properties>
    <property name="Water" value="T"/>
   </properties>
  </tile>
  <tile id="1188">
   <properties>
    <property name="Water" value="T"/>
   </properties>
  </tile>
  <tile id="1211">
   <properties>
    <property name="Water" value="T"/>
   </properties>
  </tile>
  <tile id="1212">
   <properties>
    <property name="Water" value="T"/>
   </properties>
  </tile>
  <tile id="1213">
   <properties>
    <property name="Water" value="T"/>
   </properties>
  </tile>
  <tile id="1227">
   <properties>
    <property name="Water" value="T"/>
   </properties>
  </tile>
  <tile id="1228">
   <properties>
    <property name="Water" value="T"/>
   </properties>
  </tile>
  <tile id="1229">
   <properties>
    <property name="Water" value="T"/>
   </properties>
  </tile>
  <tile id="1230">
   <properties>
    <property name="Water" value="T"/>
   </properties>
  </tile>
  <tile id="1231">
   <properties>
    <property name="Water" value="T"/>
   </properties>
  </tile>
  <tile id="1237">
   <properties>
    <property name="Water" value="T"/>
   </properties>
  </tile>
  <tile id="1238">
   <properties>
    <property name="Water" value="T"/>
   </properties>
  </tile>
  <tile id="1239">
   <properties>
    <property name="Water" value="T"/>
   </properties>
  </tile>
  <tile id="1240">
   <properties>
    <property name="Water" value="T"/>
   </properties>
  </tile>
  <tile id="1241">
   <properties>
    <property name="Water" value="T"/>
   </properties>
  </tile>
  <tile id="1242">
   <properties>
    <property name="Water" value="T"/>
   </properties>
  </tile>
  <tile id="1243">
   <properties>
    <property name="Water" value="T"/>
   </properties>
  </tile>
  <tile id="1244">
   <properties>
    <property name="Water" value="T"/>
   </properties>
  </tile>
  <tile id="1245">
   <properties>
    <property name="Water" value="T"/>
   </properties>
  </tile>
  <tile id="1246">
   <properties>
    <property name="Passable" value="F"/>
    <property name="Water" value="T"/>
   </properties>
  </tile>
  <tile id="1247">
   <properties>
    <property name="Water" value="T"/>
   </properties>
  </tile>
  <tile id="1248">
   <properties>
    <property name="Water" value="T"/>
   </properties>
  </tile>
  <tile id="1249">
   <properties>
    <property name="Passable" value="F"/>
    <property name="Water" value="T"/>
   </properties>
  </tile>
  <tile id="1252">
   <properties>
    <property name="Water" value="T"/>
   </properties>
  </tile>
  <tile id="1253">
   <properties>
    <property name="Water" value="T"/>
   </properties>
  </tile>
  <tile id="1254">
   <properties>
    <property name="Water" value="T"/>
   </properties>
  </tile>
  <tile id="1255">
   <properties>
    <property name="Water" value="T"/>
   </properties>
  </tile>
  <tile id="1256">
   <properties>
    <property name="Water" value="T"/>
   </properties>
  </tile>
  <tile id="1263">
   <properties>
    <property name="Water" value="T"/>
   </properties>
  </tile>
  <tile id="1264">
   <properties>
    <property name="Water" value="T"/>
   </properties>
  </tile>
  <tile id="1265">
   <properties>
    <property name="Water" value="T"/>
   </properties>
  </tile>
  <tile id="1266">
   <properties>
    <property name="Passable" value="F"/>
    <property name="Water" value="T"/>
   </properties>
  </tile>
  <tile id="1267">
   <properties>
    <property name="Passable" value="F"/>
    <property name="Water" value="T"/>
   </properties>
  </tile>
  <tile id="1268">
   <properties>
    <property name="Water" value="T"/>
   </properties>
  </tile>
  <tile id="1269">
   <properties>
    <property name="Water" value="T"/>
   </properties>
  </tile>
  <tile id="1270">
   <properties>
    <property name="Water" value="T"/>
   </properties>
  </tile>
  <tile id="1271">
   <properties>
    <property name="Passable" value="F"/>
    <property name="Water" value="T"/>
   </properties>
  </tile>
  <tile id="1272">
   <properties>
    <property name="Water" value="T"/>
   </properties>
  </tile>
  <tile id="1273">
   <properties>
    <property name="Water" value="T"/>
   </properties>
  </tile>
  <tile id="1274">
   <properties>
    <property name="Water" value="T"/>
   </properties>
  </tile>
  <tile id="1277">
   <properties>
    <property name="Water" value="T"/>
   </properties>
  </tile>
  <tile id="1278">
   <properties>
    <property name="Water" value="T"/>
   </properties>
  </tile>
  <tile id="1279">
   <properties>
    <property name="Water" value="T"/>
   </properties>
  </tile>
  <tile id="1280">
   <properties>
    <property name="Water" value="T"/>
   </properties>
  </tile>
  <tile id="1281">
   <properties>
    <property name="Water" value="T"/>
   </properties>
  </tile>
  <tile id="1297">
   <properties>
    <property name="Water" value="T"/>
   </properties>
  </tile>
  <tile id="1298">
   <properties>
    <property name="Water" value="T"/>
   </properties>
  </tile>
  <tile id="1299">
   <properties>
    <property name="Passable" value="F"/>
    <property name="Water" value="T"/>
   </properties>
  </tile>
  <tile id="1302">
   <properties>
    <property name="Water" value="T"/>
   </properties>
  </tile>
  <tile id="1303">
   <properties>
    <property name="Water" value="T"/>
   </properties>
  </tile>
  <tile id="1304">
   <properties>
    <property name="Water" value="T"/>
   </properties>
  </tile>
  <tile id="1305">
   <properties>
    <property name="Water" value="T"/>
   </properties>
  </tile>
  <tile id="1306">
   <properties>
    <property name="Water" value="T"/>
   </properties>
  </tile>
  <tile id="1322">
   <properties>
    <property name="Water" value="T"/>
   </properties>
  </tile>
  <tile id="1323">
   <properties>
    <property name="Water" value="T"/>
   </properties>
  </tile>
  <tile id="1324">
   <properties>
    <property name="Water" value="T"/>
   </properties>
  </tile>
 </tileset>
 <tileset firstgid="7376" name="v16_Shadows" tilewidth="16" tileheight="16" tilecount="475" columns="19">
  <image source="spring_Shadows" width="304" height="400"/>
 </tileset>
 <tileset firstgid="7851" name="z_SDSmap" tilewidth="16" tileheight="16" tilecount="8649" columns="93">
  <image source="spring_SDSmap" width="1500" height="1500"/>
  <tile id="284">
   <properties>
    <property name="Passable" value="T"/>
   </properties>
  </tile>
  <tile id="1581">
   <properties>
    <property name="Type" value="Stone"/>
   </properties>
  </tile>
  <tile id="1582">
   <properties>
    <property name="Type" value="Stone"/>
   </properties>
  </tile>
  <tile id="1583">
   <properties>
    <property name="Type" value="Stone"/>
   </properties>
  </tile>
  <tile id="1584">
   <properties>
    <property name="Type" value="Stone"/>
   </properties>
  </tile>
  <tile id="1585">
   <properties>
    <property name="Type" value="Stone"/>
   </properties>
  </tile>
  <tile id="1674">
   <properties>
    <property name="Type" value="Stone"/>
   </properties>
  </tile>
  <tile id="1675">
   <properties>
    <property name="Type" value="Stone"/>
   </properties>
  </tile>
  <tile id="1676">
   <properties>
    <property name="Type" value="Stone"/>
   </properties>
  </tile>
  <tile id="1677">
   <properties>
    <property name="Type" value="Stone"/>
   </properties>
  </tile>
  <tile id="1678">
   <properties>
    <property name="Type" value="Stone"/>
   </properties>
  </tile>
  <tile id="1767">
   <properties>
    <property name="Type" value="Stone"/>
   </properties>
  </tile>
  <tile id="1768">
   <properties>
    <property name="Type" value="Stone"/>
   </properties>
  </tile>
  <tile id="1769">
   <properties>
    <property name="Type" value="Stone"/>
   </properties>
  </tile>
  <tile id="1770">
   <properties>
    <property name="Type" value="Stone"/>
   </properties>
  </tile>
  <tile id="1771">
   <properties>
    <property name="Type" value="Stone"/>
   </properties>
  </tile>
  <tile id="1860">
   <properties>
    <property name="Passable" value="T"/>
    <property name="Type" value="Stone"/>
   </properties>
  </tile>
  <tile id="1861">
   <properties>
    <property name="Passable" value="T"/>
    <property name="Type" value="Stone"/>
   </properties>
  </tile>
  <tile id="1862">
   <properties>
    <property name="Passable" value="T"/>
    <property name="Type" value="Stone"/>
   </properties>
  </tile>
  <tile id="1863">
   <properties>
    <property name="Passable" value="T"/>
    <property name="Type" value="Stone"/>
   </properties>
  </tile>
  <tile id="1864">
   <properties>
    <property name="Passable" value="T"/>
    <property name="Type" value="Stone"/>
   </properties>
  </tile>
  <tile id="2527">
   <animation>
    <frame tileid="2527" duration="200"/>
    <frame tileid="2528" duration="200"/>
    <frame tileid="2529" duration="200"/>
    <frame tileid="2530" duration="200"/>
    <frame tileid="2531" duration="200"/>
    <frame tileid="2532" duration="200"/>
   </animation>
  </tile>
  <tile id="2541">
   <properties>
    <property name="Passable" value="T"/>
    <property name="Type" value="Stone"/>
   </properties>
  </tile>
  <tile id="2542">
   <properties>
    <property name="Passable" value="T"/>
    <property name="Type" value="Stone"/>
   </properties>
  </tile>
  <tile id="2543">
   <properties>
    <property name="Passable" value="T"/>
    <property name="Type" value="Stone"/>
   </properties>
  </tile>
  <tile id="2620">
   <animation>
    <frame tileid="2620" duration="200"/>
    <frame tileid="2621" duration="200"/>
    <frame tileid="2622" duration="200"/>
    <frame tileid="2623" duration="200"/>
    <frame tileid="2624" duration="200"/>
    <frame tileid="2625" duration="200"/>
   </animation>
  </tile>
  <tile id="2634">
   <properties>
    <property name="Passable" value="T"/>
    <property name="Type" value="Stone"/>
   </properties>
  </tile>
  <tile id="2635">
   <properties>
    <property name="Passable" value="T"/>
    <property name="Type" value="Stone"/>
   </properties>
  </tile>
  <tile id="2636">
   <properties>
    <property name="Passable" value="T"/>
    <property name="Type" value="Stone"/>
   </properties>
  </tile>
  <tile id="2713">
   <animation>
    <frame tileid="2713" duration="200"/>
    <frame tileid="2714" duration="200"/>
    <frame tileid="2715" duration="200"/>
    <frame tileid="2716" duration="200"/>
    <frame tileid="2717" duration="200"/>
    <frame tileid="2718" duration="200"/>
   </animation>
  </tile>
  <tile id="2727">
   <properties>
    <property name="Passable" value="T"/>
    <property name="Type" value="Stone"/>
   </properties>
  </tile>
  <tile id="2728">
   <properties>
    <property name="Passable" value="T"/>
    <property name="Type" value="Stone"/>
   </properties>
  </tile>
  <tile id="2729">
   <properties>
    <property name="Passable" value="T"/>
    <property name="Type" value="Stone"/>
   </properties>
  </tile>
  <tile id="2820">
   <properties>
    <property name="Passable" value="T"/>
    <property name="Type" value="Stone"/>
   </properties>
  </tile>
  <tile id="2821">
   <properties>
    <property name="Passable" value="T"/>
    <property name="Type" value="Stone"/>
   </properties>
  </tile>
  <tile id="2822">
   <properties>
    <property name="Passable" value="T"/>
    <property name="Type" value="Stone"/>
   </properties>
  </tile>
  <tile id="2913">
   <properties>
    <property name="Passable" value="T"/>
    <property name="Type" value="Stone"/>
   </properties>
  </tile>
  <tile id="2914">
   <properties>
    <property name="Passable" value="T"/>
    <property name="Type" value="Stone"/>
   </properties>
  </tile>
  <tile id="2915">
   <properties>
    <property name="Passable" value="T"/>
    <property name="Type" value="Stone"/>
   </properties>
  </tile>
  <tile id="2930">
   <animation>
    <frame tileid="2930" duration="300"/>
    <frame tileid="2933" duration="300"/>
    <frame tileid="2936" duration="300"/>
    <frame tileid="2939" duration="300"/>
   </animation>
  </tile>
  <tile id="2931">
   <animation>
    <frame tileid="2931" duration="300"/>
    <frame tileid="2934" duration="300"/>
    <frame tileid="2937" duration="300"/>
    <frame tileid="2940" duration="300"/>
   </animation>
  </tile>
  <tile id="2932">
   <animation>
    <frame tileid="2932" duration="300"/>
    <frame tileid="2935" duration="300"/>
    <frame tileid="2938" duration="300"/>
    <frame tileid="2941" duration="300"/>
   </animation>
  </tile>
  <tile id="3023">
   <animation>
    <frame tileid="3023" duration="300"/>
    <frame tileid="3026" duration="300"/>
    <frame tileid="3029" duration="300"/>
    <frame tileid="3032" duration="300"/>
   </animation>
  </tile>
  <tile id="3024">
   <animation>
    <frame tileid="3024" duration="300"/>
    <frame tileid="3027" duration="300"/>
    <frame tileid="3030" duration="300"/>
    <frame tileid="3033" duration="300"/>
   </animation>
  </tile>
  <tile id="3025">
   <animation>
    <frame tileid="3025" duration="300"/>
    <frame tileid="3028" duration="300"/>
    <frame tileid="3031" duration="300"/>
    <frame tileid="3034" duration="300"/>
   </animation>
  </tile>
  <tile id="3116">
   <animation>
    <frame tileid="3116" duration="300"/>
    <frame tileid="3119" duration="300"/>
    <frame tileid="3122" duration="300"/>
    <frame tileid="3125" duration="300"/>
   </animation>
  </tile>
  <tile id="3117">
   <animation>
    <frame tileid="3117" duration="300"/>
    <frame tileid="3120" duration="300"/>
    <frame tileid="3123" duration="300"/>
    <frame tileid="3126" duration="300"/>
   </animation>
  </tile>
  <tile id="3118">
   <animation>
    <frame tileid="3118" duration="300"/>
    <frame tileid="3121" duration="300"/>
    <frame tileid="3124" duration="300"/>
    <frame tileid="3127" duration="300"/>
   </animation>
  </tile>
  <tile id="5522">
   <properties>
    <property name="Passable" value="T"/>
   </properties>
  </tile>
  <tile id="5608">
   <properties>
    <property name="Passable" value="T"/>
   </properties>
  </tile>
  <tile id="5701">
   <properties>
    <property name="Passable" value="T"/>
   </properties>
  </tile>
  <tile id="5702">
   <properties>
    <property name="Passable" value="T"/>
   </properties>
  </tile>
  <tile id="5707">
   <properties>
    <property name="Passable" value="T"/>
   </properties>
  </tile>
  <tile id="6605">
   <properties>
    <property name="Passable" value="T"/>
   </properties>
  </tile>
  <tile id="6606">
   <properties>
    <property name="Passable" value="T"/>
   </properties>
  </tile>
  <tile id="6607">
   <properties>
    <property name="Passable" value="T"/>
   </properties>
  </tile>
  <tile id="6608">
   <properties>
    <property name="Passable" value="T"/>
   </properties>
  </tile>
  <tile id="6609">
   <properties>
    <property name="Passable" value="T"/>
   </properties>
  </tile>
  <tile id="6610">
   <properties>
    <property name="Passable" value="T"/>
   </properties>
  </tile>
  <tile id="6611">
   <properties>
    <property name="Passable" value="T"/>
    <property name="Type" value="Stone"/>
   </properties>
  </tile>
  <tile id="6612">
   <properties>
    <property name="Passable" value="T"/>
    <property name="Type" value="Stone"/>
   </properties>
  </tile>
  <tile id="6613">
   <properties>
    <property name="Passable" value="T"/>
    <property name="Type" value="Stone"/>
   </properties>
  </tile>
  <tile id="6614">
   <properties>
    <property name="Passable" value="T"/>
    <property name="Type" value="Stone"/>
   </properties>
  </tile>
  <tile id="6615">
   <properties>
    <property name="Passable" value="T"/>
    <property name="Type" value="Stone"/>
   </properties>
  </tile>
  <tile id="6616">
   <properties>
    <property name="Passable" value="T"/>
    <property name="Type" value="Stone"/>
   </properties>
  </tile>
  <tile id="6617">
   <properties>
    <property name="Passable" value="T"/>
    <property name="Type" value="Stone"/>
   </properties>
  </tile>
  <tile id="6618">
   <properties>
    <property name="Passable" value="T"/>
    <property name="Type" value="Stone"/>
   </properties>
  </tile>
  <tile id="6619">
   <properties>
    <property name="Passable" value="T"/>
    <property name="Type" value="Stone"/>
   </properties>
  </tile>
  <tile id="6620">
   <properties>
    <property name="Passable" value="T"/>
    <property name="Type" value="Stone"/>
   </properties>
  </tile>
  <tile id="6621">
   <properties>
    <property name="Passable" value="T"/>
    <property name="Type" value="Stone"/>
   </properties>
  </tile>
  <tile id="6622">
   <properties>
    <property name="Passable" value="T"/>
    <property name="Type" value="Stone"/>
   </properties>
  </tile>
  <tile id="6623">
   <properties>
    <property name="Passable" value="T"/>
    <property name="Type" value="Stone"/>
   </properties>
  </tile>
  <tile id="6624">
   <properties>
    <property name="Passable" value="T"/>
    <property name="Type" value="Stone"/>
   </properties>
  </tile>
  <tile id="6625">
   <properties>
    <property name="Passable" value="T"/>
   </properties>
  </tile>
  <tile id="6626">
   <properties>
    <property name="Passable" value="T"/>
   </properties>
  </tile>
  <tile id="6627">
   <properties>
    <property name="Passable" value="T"/>
   </properties>
  </tile>
  <tile id="6628">
   <properties>
    <property name="Passable" value="T"/>
   </properties>
  </tile>
  <tile id="6629">
   <properties>
    <property name="Passable" value="T"/>
   </properties>
  </tile>
  <tile id="6630">
   <properties>
    <property name="Passable" value="T"/>
   </properties>
  </tile>
  <tile id="6703">
   <properties>
    <property name="Passable" value="T"/>
   </properties>
  </tile>
  <tile id="6704">
   <properties>
    <property name="Passable" value="T"/>
    <property name="Type" value="Stone"/>
   </properties>
  </tile>
  <tile id="6705">
   <properties>
    <property name="Passable" value="T"/>
    <property name="Type" value="Stone"/>
   </properties>
  </tile>
  <tile id="6706">
   <properties>
    <property name="Passable" value="T"/>
    <property name="Type" value="Stone"/>
   </properties>
  </tile>
  <tile id="6707">
   <properties>
    <property name="Passable" value="T"/>
    <property name="Type" value="Stone"/>
   </properties>
  </tile>
  <tile id="6708">
   <properties>
    <property name="Passable" value="T"/>
    <property name="Type" value="Stone"/>
   </properties>
  </tile>
  <tile id="6709">
   <properties>
    <property name="Passable" value="T"/>
    <property name="Type" value="Stone"/>
   </properties>
  </tile>
  <tile id="6710">
   <properties>
    <property name="Passable" value="T"/>
    <property name="Type" value="Stone"/>
   </properties>
  </tile>
  <tile id="6711">
   <properties>
    <property name="Passable" value="T"/>
    <property name="Type" value="Stone"/>
   </properties>
  </tile>
  <tile id="6712">
   <properties>
    <property name="Passable" value="T"/>
    <property name="Type" value="Stone"/>
   </properties>
  </tile>
  <tile id="6713">
   <properties>
    <property name="Passable" value="T"/>
    <property name="Type" value="Stone"/>
   </properties>
  </tile>
  <tile id="6714">
   <properties>
    <property name="Passable" value="T"/>
    <property name="Type" value="Stone"/>
   </properties>
  </tile>
  <tile id="6715">
   <properties>
    <property name="Passable" value="T"/>
    <property name="Type" value="Stone"/>
   </properties>
  </tile>
  <tile id="6716">
   <properties>
    <property name="Passable" value="T"/>
    <property name="Type" value="Stone"/>
   </properties>
  </tile>
  <tile id="6717">
   <properties>
    <property name="Passable" value="T"/>
    <property name="Type" value="Stone"/>
   </properties>
  </tile>
  <tile id="6718">
   <properties>
    <property name="Passable" value="T"/>
   </properties>
  </tile>
 </tileset>
 <tileset firstgid="16500" name="z_SDSfurniture3" tilewidth="16" tileheight="16" tilecount="6944" columns="31">
  <image source="SDSfurniture3" width="496" height="3584"/>
 </tileset>
 <tileset firstgid="23444" name="MidnightsMiscExt2" tilewidth="16" tileheight="16" tilecount="50" columns="25">
  <image source="spring_MidnightsMiscExt2.png" width="400" height="32"/>
 </tileset>
 <tileset firstgid="23494" name="zspring_island_tilesheet_1" tilewidth="16" tileheight="16" tilecount="1280" columns="32">
  <image source="spring_island_tilesheet_1.png" width="512" height="640"/>
  <tile id="305">
   <properties>
    <property name="Type" value="Grass"/>
   </properties>
  </tile>
  <tile id="306">
   <properties>
    <property name="Type" value="Grass"/>
   </properties>
  </tile>
 </tileset>
 <layer id="1" name="Back" width="12" height="20">
  <data encoding="csv">
5604,5576,5751,5701,5752,5805,5806,5807,5752,5752,5752,5752,
5629,5551,5776,5804,5705,5752,5752,5752,5752,5777,5752,5752,
5629,5576,5576,5776,5804,5752,5754,5778,5576,5576,5752,5678,
2147489251,3595,5552,5751,5751,5756,5753,5757,5752,5752,5752,5752,
3917,2684358156,5576,5751,5805,5806,5806,5807,5752,5752,5752,5752,
3917,2684358156,5576,5776,5777,5677,5678,5679,5777,5752,5753,5676,
3917,2684358156,5726,5728,5576,5576,5576,5576,5576,5752,5753,5676,
3949,3628,3627,5776,5777,5777,5804,5701,5754,5752,5753,5676,
3721,3723,3659,5551,5726,5704,5729,5756,5756,5752,5753,5676,
3626,3628,5726,5727,5729,5755,5781,5752,5752,5756,5753,6055,
3721,3627,5676,3625,3753,3753,3754,3754,3627,5751,5753,6080,
3722,3628,5676,3657,3691,3753,3754,3723,3659,5776,5778,6080,
3754,3628,5676,5676,3660,3626,3721,3628,5726,5576,5676,6080,
3754,3628,5551,5676,3660,3753,3754,3628,5751,5576,5676,6080,
3755,3628,3593,3594,3690,3753,3754,3628,5751,5576,5676,6105,
3754,3689,3690,3753,3721,3721,3721,3627,5751,5576,5676,5576,
3721,3753,3754,3722,3753,3755,3722,3628,5751,5576,5676,5576,
3631,3753,3754,3722,3721,3722,3626,3628,5776,5576,5576,5576,
3658,3692,3658,3691,3753,3754,3626,3689,3596,3594,0,0,
5602,5604,5551,3625,3721,3721,3722,3755,3722,3721,3722,3721
</data>
 </layer>
 <objectgroup id="2" name="Back"/>
 <layer id="26" name="Back1" width="12" height="20">
  <data encoding="csv">
0,0,0,0,0,0,0,0,0,0,0,0,
0,0,0,0,0,0,0,0,0,0,0,0,
0,0,0,0,0,0,0,0,0,0,0,0,
0,0,0,0,0,0,0,0,0,0,0,0,
0,0,0,0,0,0,0,0,0,0,0,0,
0,0,0,0,0,0,0,0,0,0,2036,0,
0,0,0,0,0,0,0,0,0,0,2097,0,
0,0,0,0,0,0,0,0,0,0,2036,0,
0,0,0,0,0,0,0,0,0,0,2147485713,0,
0,0,0,0,0,0,0,0,0,0,2036,0,
0,0,0,0,0,0,0,0,0,0,2097,0,
0,0,0,0,0,0,0,0,2147485715,2065,2067,0,
0,0,0,0,0,0,0,0,0,0,0,0,
0,0,0,0,0,0,0,0,0,0,0,0,
0,0,0,0,0,0,0,0,0,0,0,0,
0,0,0,0,0,0,0,0,0,0,0,0,
0,0,0,0,0,0,0,0,0,0,0,0,
0,0,0,0,0,0,0,0,0,0,0,0,
0,0,0,0,0,0,0,0,0,0,0,0,
0,0,0,0,0,0,0,0,0,0,0,0
</data>
 </layer>
 <layer id="3" name="Back2" width="12" height="20">
  <properties>
   <property name="Draw" value="Back"/>
  </properties>
  <data encoding="csv">
0,0,0,0,0,0,0,0,0,0,0,0,
0,0,0,0,0,0,0,0,0,0,0,0,
0,0,0,0,0,0,0,0,0,0,0,0,
0,0,0,0,0,0,0,0,0,0,0,0,
0,7396,7568,0,0,0,0,0,0,0,0,0,
0,7415,7568,0,0,0,0,0,0,0,0,0,
0,7415,7568,0,0,0,0,0,0,0,0,0,
0,7415,7568,0,0,0,0,0,0,0,0,7415,
0,7415,7568,0,0,0,0,0,0,0,0,7377,
0,7415,7568,0,0,0,0,0,0,0,0,0,
0,7377,7587,0,0,0,0,0,0,0,0,0,
0,0,0,0,0,0,0,0,0,0,0,0,
0,0,0,0,0,0,0,0,0,0,0,0,
0,0,0,0,0,0,0,0,0,0,0,7396,
0,0,0,0,0,0,0,0,0,0,0,7415,
0,0,0,0,0,0,0,0,0,12540,12541,12542,
0,0,0,0,0,0,0,0,0,12633,12634,12635,
0,0,0,0,0,0,12723,0,0,0,0,7415,
0,0,0,0,0,0,12816,0,0,0,0,7377,
0,0,0,0,0,0,0,0,0,12912,12913,12914
</data>
 </layer>
 <objectgroup id="4" name="Back2"/>
 <layer id="27" name="Back3" width="12" height="20">
  <data encoding="csv">
0,0,0,0,0,0,0,0,0,0,0,0,
0,0,0,0,0,0,0,0,0,0,0,0,
0,0,0,0,0,0,0,0,0,0,0,0,
0,0,0,0,0,0,0,0,0,0,0,0,
0,0,0,0,0,0,0,0,0,0,0,0,
0,0,0,0,0,0,0,0,0,0,0,0,
0,0,0,0,0,0,0,0,0,0,0,0,
0,0,0,0,0,0,0,0,0,0,0,0,
0,0,0,0,0,0,0,0,0,0,0,0,
0,0,0,0,0,0,0,0,0,0,0,0,
0,0,0,0,0,0,0,0,0,0,0,0,
0,0,0,0,0,0,0,0,0,0,0,0,
0,0,0,0,0,0,0,0,0,0,0,0,
0,0,0,0,0,0,0,0,0,0,0,0,
0,0,0,0,0,0,0,0,0,0,0,0,
0,0,0,0,0,0,0,0,0,0,0,0,
0,0,0,0,0,0,0,0,0,0,0,0,
0,0,0,0,0,0,0,0,0,0,0,0,
0,0,0,0,0,0,0,0,0,0,0,0,
0,0,0,0,0,0,0,0,0,0,0,0
</data>
 </layer>
 <layer id="9" name="Buildings" width="12" height="20">
  <data encoding="csv">
0,0,0,0,0,0,0,0,0,0,0,4100,
0,0,0,0,0,0,0,0,0,0,0,0,
0,5784,5785,5785,5835,5785,5785,5835,5785,5835,5785,5785,
0,0,5313,5314,5315,5316,5317,5318,5319,5320,1459,1460,
0,0,5321,5322,5323,5324,5325,5326,5327,5328,1489,1490,
0,0,5329,5330,5331,5332,5333,5334,5335,5336,0,3063,
0,0,5337,5338,5339,5340,5341,5342,5343,5344,0,3073,
0,3988,5345,5346,5347,5348,5349,5350,5351,5352,0,23472,
0,0,5353,5354,5355,5356,5357,5358,5359,5360,0,3817,
0,0,5361,5362,5363,5364,5365,5366,5367,5368,0,3849,
0,0,3307,3308,5371,0,0,5374,3307,3308,0,3849,
0,0,0,0,0,0,0,0,0,0,0,3849,
0,0,0,0,0,0,0,0,0,0,0,3849,
0,0,0,0,0,0,0,0,0,0,0,3849,
0,0,0,0,0,0,0,0,0,0,0,3913,
0,0,0,3988,0,0,0,0,0,0,0,0,
0,0,0,0,0,0,0,0,12632,0,0,0,
0,0,0,0,0,0,0,12724,12725,0,0,0,
0,0,0,0,0,0,0,12817,12818,12819,12820,12821,
0,0,0,0,0,0,0,12910,12911,0,0,0
</data>
 </layer>
 <objectgroup id="10" name="Buildings">
  <object id="433" name="TileData" x="144" y="80" width="16" height="16">
   <properties>
    <property name="Action" value="LockedDoorWarp 28 7 MunicipalFloor2 900 2200"/>
   </properties>
  </object>
  <object id="434" name="TileData" x="96" y="144" width="16" height="16">
   <properties>
    <property name="Action" value="LockedDoorWarp 10 19 MunicipalFloor1 900 1700"/>
   </properties>
  </object>
  <object id="435" name="TileData" x="80" y="144" width="16" height="16">
   <properties>
    <property name="Action" value="LockedDoorWarp 9 19 MunicipalFloor1 900 1700"/>
   </properties>
  </object>
  <object id="436" name="TileData" x="176" y="80" width="16" height="16">
   <properties>
    <property name="Action" value="Garbage MV.Municipal"/>
   </properties>
  </object>
  <object id="440" name="TileData" x="176" y="112" width="16" height="16">
   <properties>
    <property name="Action" value="Message MunicipalFlavor55"/>
   </properties>
  </object>
  <object id="437" name="TileData" x="160" y="288" width="16" height="16">
   <properties>
    <property name="Action" value="Message &quot;SDS.Town.1&quot;"/>
   </properties>
  </object>
  <object id="438" name="TileData" x="144" y="288" width="16" height="16">
   <properties>
    <property name="Action" value="Message &quot;SDS.Town.1&quot;"/>
   </properties>
  </object>
  <object id="439" name="TileData" x="176" y="288" width="16" height="16">
   <properties>
    <property name="Action" value="Message &quot;SDS.Town.1&quot;"/>
   </properties>
  </object>
 </objectgroup>
 <layer id="11" name="Buildings2" width="12" height="20">
  <properties>
   <property name="Draw" value="Buildings"/>
  </properties>
  <data encoding="csv">
0,0,0,0,0,0,0,0,0,0,0,0,
0,0,0,0,0,0,0,0,0,0,0,0,
0,0,0,0,0,0,0,0,0,0,0,0,
0,0,0,0,0,0,0,0,0,0,0,0,
0,0,0,0,0,0,0,0,0,0,0,0,
0,0,0,0,0,0,0,0,0,0,0,3041,
0,0,0,0,0,0,0,0,0,0,0,23447,
0,0,0,0,0,0,0,0,0,0,0,0,
0,0,0,0,0,0,0,0,0,0,0,0,
0,0,3275,3276,0,0,0,0,3275,3276,0,0,
0,0,0,0,0,0,0,0,0,0,0,0,
0,0,0,0,0,0,0,0,0,0,0,0,
0,0,0,0,0,0,0,0,0,0,0,0,
0,0,0,0,0,0,0,0,0,0,0,3881,
0,0,0,0,0,0,0,0,0,0,0,0,
0,0,0,0,0,0,0,0,0,0,0,0,
0,0,0,0,0,0,0,0,0,0,0,0,
0,0,0,0,0,0,0,0,0,0,0,0,
0,0,0,0,0,0,0,0,0,0,0,0,
0,0,0,0,0,0,0,0,0,0,0,0
</data>
 </layer>
 <objectgroup id="12" name="Buildings2"/>
 <layer id="15" name="Paths" width="12" height="20">
  <data encoding="csv">
0,0,0,0,0,0,23,0,0,0,0,0,
0,0,10,0,0,0,0,0,27,0,0,0,
0,0,0,0,0,0,0,0,0,0,0,0,
0,0,0,0,0,0,0,0,0,0,0,0,
0,0,0,0,0,0,0,0,0,0,0,0,
0,0,0,0,0,0,0,0,0,0,0,0,
0,0,0,0,0,0,0,0,0,0,0,0,
0,0,0,0,0,0,0,0,0,0,0,0,
0,0,0,0,0,0,0,0,0,0,0,0,
0,0,0,0,0,0,0,0,0,0,0,0,
0,0,0,36,0,0,0,0,0,0,0,0,
0,0,0,0,0,0,0,36,0,0,0,0,
0,0,0,0,0,0,0,0,0,0,0,0,
0,0,0,0,0,0,0,0,0,0,0,0,
0,0,0,0,0,0,0,0,0,0,0,0,
0,0,0,0,0,0,0,0,0,0,0,0,
0,0,0,0,0,0,0,0,0,0,0,0,
0,0,0,0,0,0,0,0,0,0,0,0,
0,0,0,0,0,0,0,0,0,0,0,0,
0,0,0,0,0,0,0,0,0,0,0,0
</data>
 </layer>
 <objectgroup id="16" name="Paths"/>
 <layer id="17" name="Front" width="12" height="20">
  <data encoding="csv">
0,0,0,0,0,0,0,0,0,0,0,0,
0,5759,5760,5760,5760,5760,5760,5760,5760,5760,5760,5760,
0,0,5305,5306,5307,5308,5309,5310,5311,5312,0,0,
0,0,0,0,0,0,0,0,0,0,0,0,
0,3892,0,0,0,0,0,0,0,0,0,3031,
0,3924,0,0,0,0,0,0,0,0,0,0,
0,3956,0,0,0,0,0,0,0,0,0,0,
0,0,0,0,0,0,0,0,0,0,0,3785,
0,0,0,0,0,0,0,0,0,0,0,0,
0,0,0,0,0,0,0,0,0,0,0,0,
0,0,0,0,0,0,0,0,0,0,0,0,
0,0,0,0,0,0,0,0,0,0,0,0,
0,0,0,0,0,0,0,0,0,0,0,0,
0,0,0,0,0,0,0,0,0,0,0,0,
0,0,0,3956,0,0,0,0,12446,0,0,0,
0,0,0,0,0,0,0,0,0,0,0,0,
0,0,0,0,0,0,0,12631,0,0,0,0,
0,0,0,0,0,0,0,0,0,12726,12727,12728,
0,0,0,0,0,0,0,0,0,0,0,0,
0,0,0,0,0,0,0,0,0,0,0,0
</data>
 </layer>
 <objectgroup id="18" name="Front"/>
 <layer id="19" name="AlwaysFront" width="12" height="20">
  <data encoding="csv">
0,0,5289,5290,5291,5292,5293,5294,5295,5296,0,0,
0,0,5297,5298,5299,5300,5301,5302,5303,5304,0,5407,
0,0,0,0,0,0,0,0,0,0,0,5432,
0,0,0,0,0,0,0,0,0,0,2000,5457,
0,3892,0,0,0,0,0,0,0,0,2030,5482,
0,3924,0,0,0,0,0,0,0,0,0,0,
0,0,0,0,0,0,0,0,0,0,0,0,
0,0,0,0,0,0,0,0,0,0,0,0,
0,0,0,0,5379,0,0,5379,0,0,0,0,
0,0,0,0,0,0,0,0,0,0,0,0,
0,0,0,0,0,0,0,0,0,0,0,0,
0,0,0,0,0,0,0,0,0,12168,12169,12170,
0,0,0,3892,0,0,0,0,12260,12261,12262,12263,
0,0,0,3924,0,0,0,0,12353,12354,12355,12356,
0,0,0,0,0,0,0,0,12446,12447,12448,12449,
0,0,0,0,0,0,0,0,12539,12442,12443,12444,
0,0,0,0,0,0,0,0,0,12535,12536,12537,
0,0,0,0,0,0,0,0,0,0,22683,0,
0,0,0,0,0,0,0,0,0,0,0,0,
0,0,0,0,0,0,0,0,0,0,0,0
</data>
 </layer>
 <objectgroup id="20" name="AlwaysFront"/>
 <layer id="21" name="AlwaysFront2" width="12" height="20">
  <properties>
   <property name="Draw" value="AlwaysFront"/>
  </properties>
  <data encoding="csv">
0,0,0,0,0,0,0,0,0,0,0,0,
0,0,0,0,0,0,0,0,0,0,0,0,
0,0,0,0,0,0,0,0,0,0,0,0,
0,0,0,0,0,0,0,0,0,0,0,0,
0,0,0,0,0,0,0,0,0,0,0,0,
0,0,0,0,0,0,0,0,0,0,0,0,
0,0,0,0,0,0,0,0,0,0,0,0,
0,0,0,0,0,0,0,0,0,0,0,0,
0,0,0,0,0,0,0,0,0,0,0,0,
0,0,0,0,0,0,0,0,0,0,0,0,
0,0,0,0,0,0,0,0,0,0,0,0,
0,0,0,0,0,0,0,0,0,0,0,0,
0,0,0,0,0,0,0,0,0,0,0,0,
0,0,0,0,0,0,0,0,0,0,0,0,
0,0,0,0,0,0,0,0,0,0,0,0,
0,0,0,0,0,0,0,0,0,0,0,0,
0,0,0,0,0,0,0,0,0,0,0,0,
0,0,0,0,0,0,0,0,0,0,0,0,
0,0,0,0,0,0,0,0,0,0,0,0,
0,0,0,0,0,0,0,0,0,0,0,0
</data>
 </layer>
 <objectgroup id="22" name="AlwaysFront2"/>
</map>
