<?xml version="1.0" encoding="UTF-8"?>
<map version="1.10" tiledversion="1.11.2" orientation="orthogonal" renderorder="right-down" width="1" height="2" tilewidth="16" tileheight="16" infinite="0" nextlayerid="13" nextobjectid="148">
 <tileset firstgid="1" name="spring_outdoorsTileSheet" tilewidth="16" tileheight="16" tilecount="1975" columns="25">
  <image source="spring_outdoorsTileSheet.png" width="400" height="1264"/>
  <tile id="0">
   <properties>
    <property name="Type" value="Stone"/>
   </properties>
  </tile>
  <tile id="150">
   <properties>
    <property name="Type" value="Grass"/>
   </properties>
   <animation>
    <frame tileid="150" duration="200"/>
    <frame tileid="420" duration="200"/>
    <frame tileid="421" duration="200"/>
    <frame tileid="422" duration="200"/>
    <frame tileid="423" duration="200"/>
   </animation>
  </tile>
  <tile id="151">
   <animation>
    <frame tileid="151" duration="1000"/>
    <frame tileid="152" duration="1000"/>
   </animation>
  </tile>
  <tile id="175">
   <properties>
    <property name="Type" value="Grass"/>
   </properties>
  </tile>
  <tile id="275">
   <properties>
    <property name="Type" value="Grass"/>
   </properties>
  </tile>
  <tile id="325">
   <properties>
    <property name="Type" value="Grass"/>
   </properties>
  </tile>
  <tile id="326">
   <properties>
    <property name="Type" value="Grass"/>
   </properties>
  </tile>
  <tile id="327">
   <properties>
    <property name="Type" value="Grass"/>
   </properties>
  </tile>
  <tile id="350">
   <properties>
    <property name="Type" value="Grass"/>
   </properties>
  </tile>
  <tile id="351">
   <properties>
    <property name="Type" value="Grass"/>
   </properties>
  </tile>
  <tile id="352">
   <properties>
    <property name="Type" value="Grass"/>
   </properties>
  </tile>
  <tile id="375">
   <properties>
    <property name="Type" value="Grass"/>
   </properties>
  </tile>
  <tile id="376">
   <properties>
    <property name="Type" value="Grass"/>
   </properties>
  </tile>
  <tile id="377">
   <properties>
    <property name="Type" value="Grass"/>
   </properties>
  </tile>
  <tile id="400">
   <properties>
    <property name="Type" value="Grass"/>
   </properties>
  </tile>
  <tile id="401">
   <properties>
    <property name="Type" value="Grass"/>
   </properties>
  </tile>
  <tile id="402">
   <properties>
    <property name="Type" value="Grass"/>
   </properties>
  </tile>
  <tile id="1030">
   <properties>
    <property name="Type" value="Stone"/>
   </properties>
  </tile>
  <tile id="1054">
   <properties>
    <property name="Type" value="Stone"/>
   </properties>
  </tile>
  <tile id="1056">
   <properties>
    <property name="Type" value="Stone"/>
   </properties>
  </tile>
  <tile id="1628">
   <properties>
    <property name="Type" value="Stone"/>
   </properties>
  </tile>
  <tile id="1629">
   <properties>
    <property name="Type" value="Stone"/>
   </properties>
  </tile>
  <tile id="1678">
   <properties>
    <property name="Type" value="Stone"/>
   </properties>
  </tile>
  <tile id="1679">
   <properties>
    <property name="Type" value="Stone"/>
   </properties>
  </tile>
  <tile id="1680">
   <properties>
    <property name="Type" value="Stone"/>
   </properties>
  </tile>
 </tileset>
 <tileset firstgid="1976" name="municipalbuilding_tiles" tilewidth="16" tileheight="16" tilecount="112" columns="8">
  <image source="spring_municipalbuilding_tiles.png" width="128" height="224"/>
  <tile id="86">
   <animation>
    <frame tileid="86" duration="50"/>
    <frame tileid="86" duration="50"/>
    <frame tileid="86" duration="50"/>
    <frame tileid="86" duration="50"/>
    <frame tileid="86" duration="50"/>
    <frame tileid="86" duration="50"/>
    <frame tileid="86" duration="50"/>
    <frame tileid="86" duration="50"/>
    <frame tileid="86" duration="50"/>
    <frame tileid="86" duration="50"/>
    <frame tileid="86" duration="50"/>
    <frame tileid="86" duration="50"/>
    <frame tileid="86" duration="50"/>
    <frame tileid="86" duration="50"/>
    <frame tileid="86" duration="50"/>
    <frame tileid="86" duration="50"/>
    <frame tileid="86" duration="50"/>
    <frame tileid="86" duration="50"/>
    <frame tileid="86" duration="50"/>
    <frame tileid="86" duration="50"/>
    <frame tileid="81" duration="50"/>
    <frame tileid="89" duration="50"/>
    <frame tileid="81" duration="50"/>
    <frame tileid="86" duration="50"/>
    <frame tileid="86" duration="50"/>
    <frame tileid="86" duration="50"/>
    <frame tileid="86" duration="50"/>
    <frame tileid="86" duration="50"/>
    <frame tileid="86" duration="50"/>
    <frame tileid="86" duration="50"/>
    <frame tileid="86" duration="50"/>
    <frame tileid="86" duration="50"/>
    <frame tileid="86" duration="50"/>
    <frame tileid="86" duration="50"/>
    <frame tileid="86" duration="50"/>
    <frame tileid="86" duration="50"/>
    <frame tileid="86" duration="50"/>
    <frame tileid="86" duration="50"/>
    <frame tileid="86" duration="50"/>
    <frame tileid="86" duration="50"/>
    <frame tileid="86" duration="50"/>
    <frame tileid="86" duration="50"/>
    <frame tileid="86" duration="50"/>
   </animation>
  </tile>
 </tileset>
 <layer id="1" name="Back" width="1" height="2">
  <data encoding="csv">
276,
276
</data>
 </layer>
 <objectgroup id="2" name="Back"/>
 <layer id="11" name="Back1" width="1" height="2">
  <properties>
   <property name="DrawAbove" value="Back"/>
  </properties>
  <data encoding="csv">
0,
0
</data>
 </layer>
 <layer id="3" name="Buildings" width="1" height="2">
  <data encoding="csv">
0,
2070
</data>
 </layer>
 <objectgroup id="4" name="Buildings">
  <object id="147" name="TileData" x="0" y="16" width="16" height="16">
   <properties>
    <property name="Action" value="Message &quot;MunicipalFlavorDTZ&quot;"/>
   </properties>
  </object>
 </objectgroup>
 <layer id="12" name="Set-Up" width="1" height="2">
  <data encoding="csv">
0,
0
</data>
 </layer>
 <layer id="5" name="Paths" width="1" height="2">
  <data encoding="csv">
0,
0
</data>
 </layer>
 <objectgroup id="6" name="Paths"/>
 <layer id="7" name="Front" width="1" height="2">
  <data encoding="csv">
2062,
0
</data>
 </layer>
 <objectgroup id="8" name="Front"/>
 <layer id="9" name="AlwaysFront" width="1" height="2">
  <data encoding="csv">
0,
0
</data>
 </layer>
 <objectgroup id="10" name="AlwaysFront"/>
</map>
