<?xml version="1.0" encoding="UTF-8"?>
<map version="1.10" tiledversion="1.12.1" orientation="orthogonal" renderorder="right-down" compressionlevel="0" width="2" height="3" tilewidth="16" tileheight="16" infinite="0" nextlayerid="14" nextobjectid="37">
 <properties>
  <property name="DayTiles" value="Back 23 11 224 Back 24 11 225"/>
  <property name="Doors" value="20 14 1 120"/>
  <property name="Lights" value="24 11 6"/>
  <property name="NPCWarp" value="25 16 MunicipalCells 0 1"/>
  <property name="NightTiles" value="Back 23 11 284 Back 24 11 285"/>
  <property name="Warp" value="9 20 Town 26 48 10 20 Town 27 48"/>
 </properties>
 <tileset firstgid="1" name="indoors" tilewidth="16" tileheight="16" tilecount="2176" columns="32">
  <image source="townInterior" width="512" height="1088"/>
 </tileset>
 <tileset firstgid="2177" name="paths" tilewidth="16" tileheight="16" tilecount="64" columns="4">
  <image source="paths" width="64" height="256"/>
 </tileset>
 <tileset firstgid="2241" name="z_municipalbuilding_interior_tiles" tilewidth="16" tileheight="16" tilecount="200" columns="10">
  <image source="z_municipalbuilding_interior_tiles.png" width="160" height="320"/>
  <tile id="104">
   <animation>
    <frame tileid="104" duration="50"/>
    <frame tileid="104" duration="50"/>
    <frame tileid="104" duration="50"/>
    <frame tileid="104" duration="50"/>
    <frame tileid="104" duration="50"/>
    <frame tileid="104" duration="50"/>
    <frame tileid="104" duration="50"/>
    <frame tileid="104" duration="50"/>
    <frame tileid="104" duration="50"/>
    <frame tileid="104" duration="50"/>
    <frame tileid="104" duration="50"/>
    <frame tileid="104" duration="50"/>
    <frame tileid="104" duration="50"/>
    <frame tileid="104" duration="50"/>
    <frame tileid="104" duration="50"/>
    <frame tileid="104" duration="50"/>
    <frame tileid="104" duration="50"/>
    <frame tileid="104" duration="50"/>
    <frame tileid="104" duration="50"/>
    <frame tileid="104" duration="50"/>
    <frame tileid="96" duration="50"/>
    <frame tileid="106" duration="50"/>
    <frame tileid="96" duration="50"/>
    <frame tileid="104" duration="50"/>
    <frame tileid="104" duration="50"/>
    <frame tileid="104" duration="50"/>
    <frame tileid="104" duration="50"/>
    <frame tileid="104" duration="50"/>
    <frame tileid="104" duration="50"/>
    <frame tileid="104" duration="50"/>
    <frame tileid="104" duration="50"/>
    <frame tileid="104" duration="50"/>
    <frame tileid="104" duration="50"/>
    <frame tileid="104" duration="50"/>
    <frame tileid="104" duration="50"/>
    <frame tileid="104" duration="50"/>
    <frame tileid="104" duration="50"/>
    <frame tileid="104" duration="50"/>
    <frame tileid="104" duration="50"/>
    <frame tileid="104" duration="50"/>
    <frame tileid="104" duration="50"/>
    <frame tileid="104" duration="50"/>
    <frame tileid="104" duration="50"/>
   </animation>
  </tile>
  <tile id="105">
   <animation>
    <frame tileid="105" duration="50"/>
    <frame tileid="105" duration="50"/>
    <frame tileid="105" duration="50"/>
    <frame tileid="105" duration="50"/>
    <frame tileid="105" duration="50"/>
    <frame tileid="105" duration="50"/>
    <frame tileid="105" duration="50"/>
    <frame tileid="105" duration="50"/>
    <frame tileid="105" duration="50"/>
    <frame tileid="105" duration="50"/>
    <frame tileid="105" duration="50"/>
    <frame tileid="105" duration="50"/>
    <frame tileid="105" duration="50"/>
    <frame tileid="105" duration="50"/>
    <frame tileid="105" duration="50"/>
    <frame tileid="105" duration="50"/>
    <frame tileid="105" duration="50"/>
    <frame tileid="105" duration="50"/>
    <frame tileid="105" duration="50"/>
    <frame tileid="105" duration="50"/>
    <frame tileid="97" duration="50"/>
    <frame tileid="107" duration="50"/>
    <frame tileid="97" duration="50"/>
    <frame tileid="105" duration="50"/>
    <frame tileid="105" duration="50"/>
    <frame tileid="105" duration="50"/>
    <frame tileid="105" duration="50"/>
    <frame tileid="105" duration="50"/>
    <frame tileid="105" duration="50"/>
    <frame tileid="105" duration="50"/>
    <frame tileid="105" duration="50"/>
    <frame tileid="105" duration="50"/>
    <frame tileid="105" duration="50"/>
    <frame tileid="105" duration="50"/>
    <frame tileid="105" duration="50"/>
    <frame tileid="105" duration="50"/>
    <frame tileid="105" duration="50"/>
    <frame tileid="105" duration="50"/>
    <frame tileid="105" duration="50"/>
    <frame tileid="105" duration="50"/>
    <frame tileid="105" duration="50"/>
    <frame tileid="105" duration="50"/>
    <frame tileid="105" duration="50"/>
   </animation>
  </tile>
 </tileset>
 <layer id="11" name="Back" width="2" height="3">
  <data encoding="csv">
2366,2366,
2376,2376,
607,640
</data>
 </layer>
 <layer id="1" name="Back2" width="2" height="3">
  <data encoding="csv">
0,0,
0,0,
2431,2432
</data>
 </layer>
 <layer id="2" name="Buildings" width="2" height="3">
  <data encoding="csv">
81,81,
113,113,
0,0
</data>
 </layer>
 <layer id="12" name="Buildings2" width="2" height="3">
  <data encoding="csv">
2411,2412,
2421,2422,
0,0
</data>
 </layer>
 <layer id="3" name="Front" width="2" height="3">
  <data encoding="csv">
0,0,
0,0,
0,0
</data>
 </layer>
 <layer id="4" name="Front2" width="2" height="3">
  <properties>
   <property name="Draw" value="Front"/>
  </properties>
  <data encoding="csv">
0,0,
0,0,
0,0
</data>
 </layer>
 <layer id="5" name="Paths" width="2" height="3" visible="0">
  <data encoding="csv">
0,2185,
0,0,
0,0
</data>
 </layer>
 <layer id="13" name="AlwaysFront" width="2" height="3">
  <data encoding="csv">
0,0,
0,0,
0,0
</data>
 </layer>
 <objectgroup id="6" name="Back"/>
 <objectgroup id="7" name="Buildings">
  <object id="6" name="TileData" x="0" y="16" width="32" height="16">
   <properties>
    <property name="Action" value="Message MunicipalFlavor51"/>
   </properties>
  </object>
 </objectgroup>
 <objectgroup id="8" name="Front"/>
 <objectgroup id="9" name="Front2"/>
 <objectgroup id="10" name="Paths"/>
</map>
