<?xml version="1.0" encoding="UTF-8"?>
<map version="1.10" tiledversion="1.12.2" orientation="orthogonal" renderorder="right-down" compressionlevel="0" width="1" height="2" tilewidth="16" tileheight="16" infinite="0" nextlayerid="15" nextobjectid="39">
 <tileset firstgid="1" name="indoors" tilewidth="16" tileheight="16" tilecount="2176" columns="32">
  <image source="townInterior" width="512" height="1088"/>
 </tileset>
 <tileset firstgid="2177" name="MadDog.STW_InteriorTiles" tilewidth="16" tileheight="16" tilecount="552" columns="23">
  <image source="MadDog.STW_InteriorTiles.png" width="368" height="384"/>
  <tile id="0">
   <properties>
    <property name="Type" value="Wood"/>
   </properties>
  </tile>
  <tile id="1">
   <properties>
    <property name="Type" value="Wood"/>
   </properties>
  </tile>
  <tile id="23">
   <properties>
    <property name="Type" value="Wood"/>
   </properties>
  </tile>
  <tile id="24">
   <properties>
    <property name="Type" value="Wood"/>
   </properties>
  </tile>
  <tile id="46">
   <properties>
    <property name="Type" value="Wood"/>
   </properties>
  </tile>
  <tile id="47">
   <properties>
    <property name="Type" value="Wood"/>
   </properties>
  </tile>
  <tile id="69">
   <properties>
    <property name="Type" value="Wood"/>
   </properties>
  </tile>
  <tile id="70">
   <properties>
    <property name="Type" value="Wood"/>
   </properties>
  </tile>
  <tile id="79">
   <animation>
    <frame tileid="79" duration="320"/>
    <frame tileid="80" duration="320"/>
    <frame tileid="81" duration="320"/>
    <frame tileid="82" duration="320"/>
   </animation>
  </tile>
  <tile id="92">
   <properties>
    <property name="Type" value="Wood"/>
   </properties>
  </tile>
  <tile id="93">
   <properties>
    <property name="Type" value="Wood"/>
   </properties>
  </tile>
  <tile id="102">
   <animation>
    <frame tileid="102" duration="320"/>
    <frame tileid="103" duration="320"/>
    <frame tileid="104" duration="320"/>
    <frame tileid="105" duration="320"/>
   </animation>
  </tile>
  <tile id="161">
   <properties>
    <property name="Type" value="Wood"/>
   </properties>
  </tile>
  <tile id="162">
   <properties>
    <property name="Type" value="Wood"/>
   </properties>
  </tile>
  <tile id="163">
   <properties>
    <property name="Type" value="Wood"/>
   </properties>
  </tile>
  <tile id="164">
   <properties>
    <property name="Type" value="Wood"/>
   </properties>
  </tile>
  <tile id="184">
   <properties>
    <property name="Type" value="Wood"/>
   </properties>
  </tile>
  <tile id="185">
   <properties>
    <property name="Type" value="Wood"/>
   </properties>
  </tile>
  <tile id="345">
   <animation>
    <frame tileid="345" duration="1050"/>
    <frame tileid="345" duration="1050"/>
    <frame tileid="346" duration="1050"/>
   </animation>
  </tile>
  <tile id="352">
   <properties>
    <property name="Type" value="Wood"/>
   </properties>
  </tile>
  <tile id="353">
   <properties>
    <property name="Type" value="Wood"/>
   </properties>
  </tile>
  <tile id="354">
   <properties>
    <property name="Type" value="Wood"/>
   </properties>
  </tile>
  <tile id="375">
   <properties>
    <property name="Type" value="Wood"/>
   </properties>
  </tile>
  <tile id="376">
   <properties>
    <property name="Type" value="Wood"/>
   </properties>
  </tile>
  <tile id="377">
   <properties>
    <property name="Type" value="Wood"/>
   </properties>
  </tile>
  <tile id="391">
   <animation>
    <frame tileid="345" duration="1050"/>
    <frame tileid="346" duration="1050"/>
    <frame tileid="346" duration="1050"/>
    <frame tileid="345" duration="1050"/>
   </animation>
  </tile>
  <tile id="398">
   <properties>
    <property name="Type" value="Wood"/>
   </properties>
  </tile>
  <tile id="399">
   <properties>
    <property name="Type" value="Wood"/>
   </properties>
  </tile>
  <tile id="400">
   <properties>
    <property name="Type" value="Wood"/>
   </properties>
  </tile>
  <tile id="421">
   <properties>
    <property name="Type" value="Wood"/>
   </properties>
  </tile>
  <tile id="422">
   <properties>
    <property name="Type" value="Wood"/>
   </properties>
  </tile>
  <tile id="423">
   <properties>
    <property name="Type" value="Wood"/>
   </properties>
  </tile>
  <tile id="437">
   <animation>
    <frame tileid="437" duration="750"/>
    <frame tileid="438" duration="750"/>
    <frame tileid="438" duration="750"/>
    <frame tileid="439" duration="750"/>
    <frame tileid="439" duration="750"/>
    <frame tileid="440" duration="750"/>
    <frame tileid="440" duration="750"/>
    <frame tileid="441" duration="750"/>
   </animation>
  </tile>
  <tile id="460">
   <animation>
    <frame tileid="460" duration="750"/>
    <frame tileid="461" duration="750"/>
    <frame tileid="461" duration="750"/>
    <frame tileid="462" duration="750"/>
    <frame tileid="462" duration="750"/>
    <frame tileid="463" duration="750"/>
    <frame tileid="463" duration="750"/>
    <frame tileid="464" duration="750"/>
   </animation>
  </tile>
 </tileset>
 <layer id="2" name="Buildings" width="1" height="2">
  <data encoding="csv">
81,
113
</data>
 </layer>
 <objectgroup id="7" name="Buildings">
  <object id="38" name="TileData" x="0" y="16" width="16" height="16">
   <properties>
    <property name="Action" value="Message MunicipalFlavor56"/>
   </properties>
  </object>
 </objectgroup>
 <layer id="12" name="Buildings2" width="1" height="2">
  <data encoding="csv">
2520,
0
</data>
 </layer>
 <objectgroup id="14" name="Buildings2"/>
</map>
