<?xml version="1.0" encoding="UTF-8"?>
<map version="1.10" tiledversion="1.12.1" orientation="orthogonal" renderorder="right-down" compressionlevel="0" width="32" height="21" tilewidth="16" tileheight="16" infinite="0" nextlayerid="15" nextobjectid="52">
 <properties>
  <property name="DayTiles" value="Front 5 4 256 Front 5 5 288 Front 14 4 256 Front 14 5 288 Front 25 4 256 Buildings2 25 5 288 Back 14 6 222 Back 14 7 234 Back 25 6 222 Back 25 7 234 Back 27 11 212 Back 28 11 213"/>
  <property name="Doors" value="9 13 1 120"/>
  <property name="Light" value="5 5 6 14 5 6 25 5 6 28 11 6 17 12 8 18 12 8 17 13 8 18 13 8"/>
  <property name="NightTiles" value="Front 5 4 1253 Front 5 5 1285 Front 14 4 1253 Front 14 5 1285 Front 25 4 1253 Buildings2 25 5 1285 Back 14 6 286 Back 14 7 286 Back 25 6 286 Back 25 7 286 Back 27 11 272 Back 28 11 273"/>
  <property name="Warp" value="29 7 Town 31 43"/>
 </properties>
 <tileset firstgid="1" name="indoors" tilewidth="16" tileheight="16" tilecount="2176" columns="32">
  <image source="townInterior" width="512" height="1088"/>
 </tileset>
 <tileset firstgid="2177" name="indoors2" tilewidth="16" tileheight="16" tilecount="1312" columns="32">
  <image source="townInterior_2" width="512" height="656"/>
 </tileset>
 <tileset firstgid="3489" name="paths" tilewidth="16" tileheight="16" tilecount="64" columns="4">
  <image source="paths" width="64" height="256"/>
 </tileset>
 <tileset firstgid="3553" name="z_municipalbuilding_interior_tiles" tilewidth="16" tileheight="16" tilecount="170" columns="10">
  <image source="z_municipalbuilding_interior_tiles.png" width="160" height="272"/>
  <tile id="10">
   <animation>
    <frame tileid="10" duration="400"/>
    <frame tileid="12" duration="400"/>
    <frame tileid="14" duration="400"/>
    <frame tileid="16" duration="400"/>
   </animation>
  </tile>
  <tile id="11">
   <animation>
    <frame tileid="11" duration="400"/>
    <frame tileid="13" duration="400"/>
    <frame tileid="15" duration="400"/>
    <frame tileid="17" duration="400"/>
   </animation>
  </tile>
  <tile id="20">
   <animation>
    <frame tileid="20" duration="400"/>
    <frame tileid="22" duration="400"/>
    <frame tileid="24" duration="400"/>
    <frame tileid="26" duration="400"/>
   </animation>
  </tile>
  <tile id="21">
   <animation>
    <frame tileid="21" duration="400"/>
    <frame tileid="23" duration="400"/>
    <frame tileid="25" duration="400"/>
    <frame tileid="27" duration="400"/>
   </animation>
  </tile>
  <tile id="104">
   <animation>
    <frame tileid="104" duration="50"/>
    <frame tileid="104" duration="50"/>
    <frame tileid="104" duration="50"/>
    <frame tileid="104" duration="50"/>
    <frame tileid="104" duration="50"/>
    <frame tileid="104" duration="50"/>
    <frame tileid="104" duration="50"/>
    <frame tileid="104" duration="50"/>
    <frame tileid="104" duration="50"/>
    <frame tileid="104" duration="50"/>
    <frame tileid="104" duration="50"/>
    <frame tileid="104" duration="50"/>
    <frame tileid="104" duration="50"/>
    <frame tileid="104" duration="50"/>
    <frame tileid="104" duration="50"/>
    <frame tileid="104" duration="50"/>
    <frame tileid="104" duration="50"/>
    <frame tileid="104" duration="50"/>
    <frame tileid="104" duration="50"/>
    <frame tileid="104" duration="50"/>
    <frame tileid="96" duration="50"/>
    <frame tileid="106" duration="50"/>
    <frame tileid="96" duration="50"/>
    <frame tileid="104" duration="50"/>
    <frame tileid="104" duration="50"/>
    <frame tileid="104" duration="50"/>
    <frame tileid="104" duration="50"/>
    <frame tileid="104" duration="50"/>
    <frame tileid="104" duration="50"/>
    <frame tileid="104" duration="50"/>
    <frame tileid="104" duration="50"/>
    <frame tileid="104" duration="50"/>
    <frame tileid="104" duration="50"/>
    <frame tileid="104" duration="50"/>
    <frame tileid="104" duration="50"/>
    <frame tileid="104" duration="50"/>
    <frame tileid="104" duration="50"/>
    <frame tileid="104" duration="50"/>
    <frame tileid="104" duration="50"/>
    <frame tileid="104" duration="50"/>
    <frame tileid="104" duration="50"/>
    <frame tileid="104" duration="50"/>
    <frame tileid="104" duration="50"/>
   </animation>
  </tile>
  <tile id="105">
   <animation>
    <frame tileid="105" duration="50"/>
    <frame tileid="105" duration="50"/>
    <frame tileid="105" duration="50"/>
    <frame tileid="105" duration="50"/>
    <frame tileid="105" duration="50"/>
    <frame tileid="105" duration="50"/>
    <frame tileid="105" duration="50"/>
    <frame tileid="105" duration="50"/>
    <frame tileid="105" duration="50"/>
    <frame tileid="105" duration="50"/>
    <frame tileid="105" duration="50"/>
    <frame tileid="105" duration="50"/>
    <frame tileid="105" duration="50"/>
    <frame tileid="105" duration="50"/>
    <frame tileid="105" duration="50"/>
    <frame tileid="105" duration="50"/>
    <frame tileid="105" duration="50"/>
    <frame tileid="105" duration="50"/>
    <frame tileid="105" duration="50"/>
    <frame tileid="105" duration="50"/>
    <frame tileid="97" duration="50"/>
    <frame tileid="107" duration="50"/>
    <frame tileid="97" duration="50"/>
    <frame tileid="105" duration="50"/>
    <frame tileid="105" duration="50"/>
    <frame tileid="105" duration="50"/>
    <frame tileid="105" duration="50"/>
    <frame tileid="105" duration="50"/>
    <frame tileid="105" duration="50"/>
    <frame tileid="105" duration="50"/>
    <frame tileid="105" duration="50"/>
    <frame tileid="105" duration="50"/>
    <frame tileid="105" duration="50"/>
    <frame tileid="105" duration="50"/>
    <frame tileid="105" duration="50"/>
    <frame tileid="105" duration="50"/>
    <frame tileid="105" duration="50"/>
    <frame tileid="105" duration="50"/>
    <frame tileid="105" duration="50"/>
    <frame tileid="105" duration="50"/>
    <frame tileid="105" duration="50"/>
    <frame tileid="105" duration="50"/>
    <frame tileid="105" duration="50"/>
   </animation>
  </tile>
 </tileset>
 <tileset firstgid="3723" name="MidnightsMisc" tilewidth="16" tileheight="16" tilecount="480" columns="12">
  <image source="MidnightsMisc.png" width="192" height="640"/>
  <tile id="291">
   <animation>
    <frame tileid="291" duration="50"/>
    <frame tileid="326" duration="50"/>
    <frame tileid="327" duration="50"/>
    <frame tileid="290" duration="50"/>
    <frame tileid="290" duration="50"/>
    <frame tileid="290" duration="50"/>
    <frame tileid="290" duration="50"/>
    <frame tileid="290" duration="50"/>
    <frame tileid="290" duration="50"/>
    <frame tileid="290" duration="50"/>
    <frame tileid="290" duration="50"/>
    <frame tileid="290" duration="50"/>
    <frame tileid="290" duration="50"/>
    <frame tileid="290" duration="50"/>
    <frame tileid="290" duration="50"/>
    <frame tileid="290" duration="50"/>
    <frame tileid="290" duration="50"/>
    <frame tileid="290" duration="50"/>
    <frame tileid="327" duration="50"/>
    <frame tileid="326" duration="50"/>
    <frame tileid="291" duration="50"/>
    <frame tileid="291" duration="50"/>
    <frame tileid="291" duration="50"/>
    <frame tileid="291" duration="50"/>
    <frame tileid="291" duration="50"/>
    <frame tileid="291" duration="50"/>
    <frame tileid="291" duration="50"/>
    <frame tileid="291" duration="50"/>
    <frame tileid="291" duration="50"/>
    <frame tileid="291" duration="50"/>
    <frame tileid="291" duration="50"/>
    <frame tileid="291" duration="50"/>
    <frame tileid="291" duration="50"/>
    <frame tileid="291" duration="50"/>
    <frame tileid="291" duration="50"/>
    <frame tileid="291" duration="50"/>
    <frame tileid="291" duration="50"/>
    <frame tileid="291" duration="50"/>
    <frame tileid="291" duration="50"/>
    <frame tileid="291" duration="50"/>
   </animation>
  </tile>
  <tile id="292">
   <animation>
    <frame tileid="292" duration="250"/>
    <frame tileid="294" duration="250"/>
    <frame tileid="292" duration="250"/>
    <frame tileid="318" duration="250"/>
   </animation>
  </tile>
  <tile id="293">
   <animation>
    <frame tileid="293" duration="250"/>
    <frame tileid="295" duration="250"/>
    <frame tileid="293" duration="250"/>
    <frame tileid="319" duration="250"/>
   </animation>
  </tile>
  <tile id="304">
   <animation>
    <frame tileid="304" duration="250"/>
    <frame tileid="306" duration="250"/>
    <frame tileid="304" duration="250"/>
    <frame tileid="330" duration="250"/>
   </animation>
  </tile>
  <tile id="305">
   <animation>
    <frame tileid="305" duration="250"/>
    <frame tileid="307" duration="250"/>
    <frame tileid="305" duration="250"/>
    <frame tileid="331" duration="250"/>
   </animation>
  </tile>
  <tile id="312">
   <animation>
    <frame tileid="312" duration="800"/>
    <frame tileid="308" duration="800"/>
   </animation>
  </tile>
  <tile id="313">
   <animation>
    <frame tileid="313" duration="800"/>
    <frame tileid="309" duration="800"/>
   </animation>
  </tile>
 </tileset>
 <layer id="11" name="Back" width="32" height="21">
  <data encoding="csv">
0,0,0,0,0,0,0,0,0,0,0,0,0,0,0,0,0,0,0,0,0,0,0,0,0,0,0,0,0,0,0,0,
0,0,0,0,0,0,0,0,0,0,0,0,0,0,0,0,0,0,0,0,0,0,0,0,0,0,0,0,0,0,0,0,
0,0,0,0,0,0,0,0,0,0,0,0,0,0,0,0,0,0,0,0,0,0,0,0,0,0,0,0,0,0,0,0,
0,0,0,3667,3668,3668,3668,3668,3668,3668,3668,3668,3668,3668,3668,3668,3668,3668,3668,3668,3668,3668,3668,3668,3668,3668,3668,3668,3668,0,0,0,
0,0,0,3677,3678,3678,3678,3678,3678,3678,3678,3678,3678,3678,3678,3678,3678,3678,3678,3678,3678,3678,3678,3678,3678,3678,3678,3678,3678,0,0,0,
0,0,0,3687,3688,3688,3688,3688,3688,3688,3688,3688,3688,3688,3688,3688,3688,3688,3688,3688,3688,3688,3688,3688,3688,3688,3688,3688,3688,0,0,0,
0,0,0,574,576,672,576,575,576,575,576,575,576,576,3945,2110,2110,2110,2110,2110,2110,2110,2110,2110,2110,3945,2110,2110,2110,2110,0,0,
0,0,0,2147,608,704,1531,1532,1533,1534,1535,1536,608,608,3957,2110,2110,2110,2110,2110,2110,2110,2110,2110,2110,3957,2110,2110,2110,2110,0,0,
0,0,0,640,639,2147,1563,1564,1565,1566,1567,1568,2147,640,2110,2110,2110,2110,2110,2110,2110,2110,2110,2110,2110,2110,2110,2110,2110,2110,0,0,
0,0,0,608,607,608,1595,1596,1597,1598,1599,1600,640,2147,2110,2110,2110,2110,2110,2110,2110,2110,2110,2110,2110,2110,2110,2110,2110,0,0,0,
0,0,0,640,639,640,1627,1628,1629,1630,1631,1632,608,639,2110,2110,2110,2110,2110,2110,2110,2110,2110,2110,2110,2110,2110,2110,2110,0,0,0,
0,0,0,2147,607,640,2147,607,639,2147,2147,640,2147,607,2147,2147,639,2147,2147,2147,639,2147,2147,2147,639,2147,2147,3935,3948,0,0,0,
0,0,0,640,639,608,640,639,607,608,2147,608,640,639,2147,2147,607,608,2147,608,607,608,2147,608,607,2147,2147,2147,2147,0,0,0,
0,0,0,2147,607,640,2147,607,2147,640,639,640,2147,607,639,639,2147,640,608,2147,2147,2147,2147,2147,2147,2147,2147,2147,2147,0,0,0,
0,0,0,608,608,608,608,2147,2147,2147,607,608,608,608,607,607,2147,2147,2147,2147,2147,2147,2147,2147,2147,2147,2147,2147,2147,0,0,0,
0,0,0,640,640,608,640,640,2147,639,608,608,640,640,640,640,639,608,2147,2147,2147,2147,2147,2147,608,639,640,639,640,0,0,0,
0,0,0,640,639,2147,639,2147,639,607,639,640,2147,2147,608,608,607,640,639,2147,639,2147,639,639,640,607,608,607,608,0,0,0,
0,0,0,608,607,608,607,608,607,608,607,608,608,639,2147,2147,2147,608,607,608,607,639,608,607,608,608,608,608,608,0,0,0,
0,0,0,0,0,0,0,0,0,0,0,0,0,0,0,0,0,0,0,0,0,0,0,0,0,0,0,0,0,0,0,0,
0,0,0,0,0,0,0,0,0,0,0,0,0,0,0,0,0,0,0,0,0,0,0,0,0,0,0,0,0,0,0,0,
0,0,0,0,0,0,0,0,0,0,0,0,0,0,0,0,0,0,0,0,0,0,0,0,0,0,0,0,0,0,0,0
</data>
 </layer>
 <layer id="1" name="Back2" width="32" height="21">
  <data encoding="csv">
0,0,0,0,0,0,0,0,0,0,0,0,0,0,0,0,0,0,0,0,0,0,0,0,0,0,0,0,0,0,0,0,
0,0,0,0,0,0,0,0,0,0,0,0,0,0,0,0,0,0,0,0,0,0,0,0,0,0,0,0,0,0,0,0,
0,0,0,0,0,0,0,0,0,0,0,0,0,0,0,0,0,0,0,0,0,0,0,0,0,0,0,0,0,0,0,0,
0,0,0,0,0,0,0,0,0,0,0,0,0,0,0,0,0,0,0,0,0,0,0,0,0,0,0,0,0,0,0,0,
0,0,0,0,0,0,0,0,0,0,0,0,0,0,0,0,0,0,0,0,0,0,81,0,81,0,0,0,0,0,0,0,
0,0,0,0,0,0,0,0,0,0,0,0,0,0,0,0,0,0,0,0,0,0,0,0,0,0,0,0,0,0,0,0,
0,0,0,0,0,0,0,0,0,0,0,0,0,0,0,0,0,0,0,0,0,0,0,0,0,0,0,1610615854,1610615886,0,0,0,
0,0,0,0,0,0,0,0,0,0,0,0,0,0,0,0,0,0,0,0,0,0,0,0,0,0,0,1610615853,1610615885,0,0,0,
0,0,0,0,0,0,0,0,0,0,0,0,0,0,0,0,0,0,0,0,0,0,0,0,0,0,0,0,0,0,0,0,
0,0,0,0,0,0,0,0,0,0,0,0,0,0,0,0,0,0,0,0,0,0,0,0,0,0,0,0,0,0,0,0,
0,0,0,0,0,0,0,0,0,0,0,0,0,0,0,0,0,0,0,0,0,0,0,0,0,0,0,0,0,0,0,0,
0,0,0,0,0,0,0,0,0,0,0,0,0,0,0,0,0,0,0,0,0,0,0,0,0,0,0,0,0,0,0,0,
0,0,0,0,0,0,0,0,0,0,0,0,0,0,0,0,0,0,0,0,0,0,3013,3014,3015,3015,3016,3017,0,0,0,0,
0,0,0,0,0,0,0,0,0,0,0,0,0,0,0,0,0,0,0,0,0,0,3045,3046,3047,3047,3048,3049,0,0,0,0,
0,0,0,0,0,0,0,0,0,0,0,0,0,0,0,0,0,0,0,0,0,0,3077,3078,3079,3079,3080,3081,0,0,0,0,
0,0,0,0,0,0,0,0,0,0,0,0,0,0,0,0,0,0,0,0,0,0,3109,3110,3111,3111,3112,3113,0,0,0,0,
0,0,0,0,0,0,0,0,0,0,0,0,0,0,0,0,0,0,0,0,0,0,3141,3142,3143,3143,3144,3145,0,0,0,0,
0,0,0,0,0,0,0,0,0,0,0,0,0,0,0,0,0,0,0,0,0,0,0,0,0,0,0,0,0,0,0,0,
0,0,0,0,0,0,0,0,0,0,0,0,0,0,0,0,0,0,0,0,0,0,0,0,0,0,0,0,0,0,0,0,
0,0,0,0,0,0,0,0,0,0,0,0,0,0,0,0,0,0,0,0,0,0,0,0,0,0,0,0,0,0,0,0,
0,0,0,0,0,0,0,0,0,0,0,0,0,0,0,0,0,0,0,0,0,0,0,0,0,0,0,0,0,0,0,0
</data>
 </layer>
 <layer id="2" name="Buildings" width="32" height="21">
  <data encoding="csv">
1,1,1,1,1,1,1,1,1,1,1,1,1,1,1,1,1,1,1,1,1,1,1,1,1,1,1,1,1,1,1,1,
1,1,1,1,1,1,1,1,1,1,1,1,1,1,1,1,1,1,1,1,1,1,1,1,1,1,1,1,1,1,1,1,
1,1,1,3628,3671,3671,3671,3671,3671,3671,3671,3671,3672,3670,3671,3671,3671,3671,3671,3671,3671,3671,3671,3671,3671,3671,3671,3671,3671,3672,1,1,
1,1,3637,3638,0,0,0,0,0,0,0,0,3682,3680,0,0,0,0,0,0,0,0,0,0,0,0,0,0,0,3682,1,1,
1,1,3680,80,81,81,81,81,81,81,81,81,3682,3680,81,81,81,81,81,81,81,81,0,81,2886,81,81,81,81,3682,1,1,
1,1,3680,112,113,113,113,113,113,113,113,113,3682,3680,113,113,113,113,113,2913,2914,2915,2916,2917,2918,113,113,113,113,3682,1,1,
1,1,3680,144,2657,2658,2659,648,649,2605,2606,737,3682,3680,2523,0,0,0,496,2945,2946,2947,2948,2949,2950,0,0,0,2765,3682,1,1,
1,1,3680,521,0,0,0,0,0,0,0,769,3682,3680,0,0,522,0,0,0,0,0,0,0,0,0,0,0,0,0,1,1,
1,1,3680,0,2721,2722,2723,0,0,0,0,801,3682,3680,0,505,506,507,0,0,0,0,0,0,0,0,0,0,0,3682,1,1,
1,1,3680,0,0,0,0,0,0,0,739,833,3682,3680,393,537,538,539,457,0,0,0,0,0,0,0,0,0,0,3682,1,1,
1,1,3690,0,0,0,0,0,0,0,0,865,3692,3680,0,0,523,0,0,0,0,0,0,0,0,0,0,0,0,3682,1,1,
1,1,3670,3671,3671,3671,3671,3671,3632,0,3631,3671,3671,3632,0,0,0,0,0,0,0,0,0,0,624,626,0,0,0,3682,1,1,
1,1,3680,0,0,0,0,0,0,0,0,0,3668,3668,0,0,0,0,0,0,0,0,0,816,688,690,0,0,2489,3682,1,1,
1,1,3680,0,0,0,0,0,0,121,81,81,3678,3678,644,705,645,3573,3574,0,0,0,521,0,0,0,0,0,2521,3682,1,1,
1,1,3680,113,113,113,113,113,113,0,113,113,113,113,0,0,0,0,0,0,0,749,750,0,656,658,0,0,3770,3682,1,1,
1,1,3680,2147484093,0,0,618,0,0,0,0,2605,2606,0,0,0,0,0,0,0,0,781,782,0,688,690,0,0,3782,3682,1,1,
1,1,3680,2147484125,457,0,0,0,0,0,0,0,0,0,0,0,0,0,0,0,0,0,0,0,0,0,0,0,0,3682,1,1,
1,1,3617,0,0,0,0,0,0,0,0,0,0,0,0,0,0,0,0,0,0,0,3847,3771,3772,3772,3773,3847,0,3692,1,1,
1,1,1,1,1,1,1,1,1,1,1,1,1,1,1,1,1,1,1,1,1,1,1,1,1,1,1,1,1,1,1,1,
1,1,1,1,1,1,1,1,1,1,1,1,1,1,1,1,1,1,1,1,1,1,1,1,1,1,1,1,1,1,1,1,
1,1,1,1,1,1,1,1,1,1,1,1,1,1,1,1,1,1,1,1,1,1,1,1,1,1,1,1,1,1,1,1
</data>
 </layer>
 <layer id="12" name="Buildings2" width="32" height="21">
  <data encoding="csv">
0,0,0,0,0,0,0,0,0,0,0,0,0,0,0,0,0,0,0,0,0,0,0,0,0,0,0,0,0,0,0,0,
0,0,0,0,0,0,0,0,0,0,0,0,0,0,0,0,0,0,0,0,0,0,0,0,0,0,0,0,0,0,0,0,
0,0,0,0,0,0,0,0,0,0,0,0,0,0,0,0,0,0,0,0,0,0,0,0,0,0,0,0,0,0,0,0,
0,0,0,0,0,0,0,0,0,0,0,0,0,0,0,0,0,0,0,0,0,0,0,0,0,0,0,0,0,0,0,0,
0,0,0,0,0,0,0,0,0,2541,2542,0,0,0,0,0,0,3963,0,0,3815,0,0,0,0,0,0,0,0,0,0,0,
0,0,0,0,0,0,0,616,617,2573,2574,0,0,0,0,0,0,3975,464,1031,3827,0,0,0,0,289,0,1354,0,0,0,0,
0,0,0,489,0,0,0,0,0,0,0,0,0,0,0,0,0,0,0,0,0,0,0,0,0,0,0,0,0,0,0,0,
0,0,0,0,0,0,0,0,0,0,0,0,0,0,0,0,0,0,0,0,0,0,0,0,0,0,0,0,0,0,0,0,
0,0,0,0,0,0,0,0,0,0,0,0,0,0,0,0,0,0,0,0,0,0,0,0,0,0,0,0,0,0,0,0,
0,0,0,0,0,0,0,0,0,0,0,0,0,0,0,0,0,0,0,0,0,0,0,0,0,0,0,0,0,0,0,0,
0,0,0,0,0,0,0,0,0,0,0,0,0,0,0,0,0,0,0,0,0,0,0,0,0,0,0,0,0,0,0,0,
0,0,0,0,0,0,0,0,0,0,0,0,0,0,0,0,0,0,0,0,0,0,0,0,0,0,0,0,0,0,0,0,
0,0,0,0,0,0,0,0,0,0,0,0,0,0,0,0,0,0,0,0,0,0,0,0,0,0,0,0,0,0,0,0,
0,0,0,0,0,0,0,0,0,0,0,0,0,0,0,0,0,0,0,0,0,0,718,0,0,0,0,0,0,0,0,0,
0,0,0,2147484061,0,0,0,0,0,0,0,0,0,0,0,0,0,0,0,0,0,0,0,0,0,0,0,0,0,0,0,0,
0,0,0,0,0,0,0,0,0,0,0,0,0,0,0,0,0,0,0,0,0,0,0,0,0,0,0,0,0,0,0,0,
0,0,0,0,0,0,0,0,0,0,0,0,0,0,0,0,0,0,0,0,0,0,0,0,0,0,0,0,0,0,0,0,
0,0,0,0,0,0,0,0,0,0,0,0,0,0,0,0,0,0,0,0,0,0,0,0,0,0,0,0,0,0,0,0,
0,0,0,0,0,0,0,0,0,0,0,0,0,0,0,0,0,0,0,0,0,0,0,0,0,0,0,0,0,0,0,0,
0,0,0,0,0,0,0,0,0,0,0,0,0,0,0,0,0,0,0,0,0,0,0,0,0,0,0,0,0,0,0,0,
0,0,0,0,0,0,0,0,0,0,0,0,0,0,0,0,0,0,0,0,0,0,0,0,0,0,0,0,0,0,0,0
</data>
 </layer>
 <layer id="3" name="Front" width="32" height="21">
  <data encoding="csv">
0,0,0,0,0,0,0,0,0,0,0,0,0,0,0,0,0,0,0,0,0,0,0,0,0,0,0,0,0,0,0,0,
0,0,0,0,0,0,0,0,0,0,0,0,0,0,0,0,0,0,0,0,0,0,0,0,0,0,0,0,0,0,0,0,
0,0,0,0,0,0,0,0,0,0,0,0,0,0,0,0,0,0,0,0,0,0,0,0,0,0,0,0,0,0,0,0,
0,0,0,1430,0,0,0,0,0,0,0,0,0,0,0,0,0,0,0,0,2849,2850,2851,2852,0,0,0,1290,0,0,0,0,
0,0,0,2676,0,257,0,0,0,0,0,0,0,0,257,0,0,0,3812,178,2881,2882,2883,2884,0,257,0,1322,2701,0,0,0,
0,0,0,2708,2625,289,2627,0,0,0,0,0,0,0,289,0,0,0,3824,0,0,0,0,0,0,0,0,0,2733,0,0,0,
0,0,0,481,2660,2661,2662,0,0,0,0,435,0,0,0,0,490,0,0,0,0,0,0,0,0,0,0,0,0,0,0,0,
0,0,0,0,2692,2693,2694,0,0,0,0,315,0,0,0,0,0,0,0,0,0,0,0,0,0,0,0,0,0,0,0,0,
0,0,0,0,0,0,0,0,0,0,707,0,0,0,361,0,0,333,425,0,0,0,0,0,0,0,0,0,0,0,0,0,
0,0,0,0,0,0,0,0,0,0,0,0,0,0,0,0,491,0,0,0,0,0,0,0,0,0,0,0,0,0,0,0,
0,0,0,0,0,0,0,0,0,0,0,0,0,0,0,0,0,0,0,0,0,0,0,0,3807,3808,0,0,0,0,0,0,
0,0,0,0,0,0,0,0,0,57,0,0,0,0,580,641,581,3553,3554,0,0,0,0,0,3819,3820,0,0,0,0,0,0,
0,0,0,3668,3668,3668,3668,3668,3668,89,3668,3668,0,0,612,673,613,3563,3564,0,0,0,489,0,0,0,0,0,3746,0,0,0,
0,0,0,3678,3678,3678,3678,3678,3678,0,3678,3678,0,0,0,0,0,0,0,0,0,717,0,0,624,626,0,0,3758,0,0,0,
0,0,0,0,0,0,586,0,0,0,0,0,0,0,0,0,0,0,0,0,0,0,2147487383,0,652,2684358291,0,0,0,0,0,0,
0,0,0,0,425,0,0,0,0,0,0,0,0,0,0,0,0,0,0,0,0,0,2147487395,0,0,0,0,0,0,0,0,0,
0,0,0,0,0,0,0,0,0,0,0,0,0,0,0,0,0,0,0,0,0,0,3835,0,0,0,0,3835,0,0,0,0,
0,0,0,3618,3691,3691,3691,3691,3691,3691,3691,3691,3691,3691,3691,3691,3691,3691,3691,3691,3691,3691,3691,3691,3691,3691,3691,3691,3691,0,0,0,
0,0,0,0,0,0,0,0,0,0,0,0,0,0,0,0,0,0,0,0,0,0,0,0,0,0,0,0,0,0,0,0,
0,0,0,0,0,0,0,0,0,0,0,0,0,0,0,0,0,0,0,0,0,0,0,0,0,0,0,0,0,0,0,0,
0,0,0,0,0,0,0,0,0,0,0,0,0,0,0,0,0,0,0,0,0,0,0,0,0,0,0,0,0,0,0,0
</data>
 </layer>
 <layer id="4" name="Front2" width="32" height="21">
  <properties>
   <property name="Draw" value="Front"/>
  </properties>
  <data encoding="csv">
0,0,0,0,0,0,0,0,0,0,0,0,0,0,0,0,0,0,0,0,0,0,0,0,0,0,0,0,0,0,0,0,
0,0,0,0,0,0,0,0,0,0,0,0,0,0,0,0,0,0,0,0,0,0,0,0,0,0,0,0,0,0,0,0,
0,0,0,0,0,0,0,0,0,0,0,0,0,0,0,0,0,0,0,0,0,0,0,0,0,0,0,0,0,0,0,0,
0,0,0,0,0,0,0,0,0,0,0,0,0,0,0,0,0,0,0,0,0,0,0,0,0,0,0,0,0,0,0,0,
0,0,0,0,404,0,405,0,0,0,0,3655,0,0,2459,0,0,0,0,0,0,0,0,0,0,0,0,0,0,0,0,0,
0,0,0,0,0,2626,0,0,0,0,0,0,0,0,2491,0,0,0,0,0,0,0,0,0,0,0,0,0,0,0,0,0,
0,0,0,0,0,0,0,0,0,0,0,0,0,0,0,0,0,0,0,0,0,0,0,0,0,0,0,0,0,0,0,0,
0,0,0,0,0,0,0,0,0,0,0,0,0,0,0,0,0,0,0,0,0,0,0,0,0,0,0,0,0,0,0,0,
0,0,0,0,0,0,0,0,0,0,0,0,0,0,0,0,0,0,0,0,0,0,0,0,0,0,0,0,0,0,0,0,
0,0,0,0,0,0,0,0,0,0,0,0,0,0,0,0,0,0,0,0,0,0,0,0,0,0,0,0,0,0,0,0,
0,0,0,0,0,0,0,0,0,0,0,0,0,0,0,0,0,0,0,0,0,0,0,0,0,0,0,0,0,0,0,0,
0,0,0,0,0,0,0,0,0,0,0,0,0,0,0,609,0,0,0,0,0,0,0,0,0,0,0,0,0,0,0,0,
0,0,0,0,0,0,0,0,0,0,0,0,0,0,0,0,0,0,0,0,0,0,3814,0,0,0,0,0,0,0,0,0,
0,0,0,81,81,81,81,81,81,0,81,81,81,81,0,0,0,0,0,0,0,0,0,0,0,0,0,0,0,0,0,0,
0,0,0,0,0,0,513,0,0,0,0,0,0,0,0,0,0,0,0,0,0,0,0,0,0,0,0,0,0,0,0,0,
0,0,0,0,0,0,0,0,0,0,0,0,0,0,0,0,0,0,0,0,0,0,0,0,0,0,0,0,0,0,0,0,
0,0,0,0,0,0,0,0,0,0,0,0,0,0,0,0,0,0,0,0,0,0,481,0,0,0,0,652,0,0,0,0,
0,0,0,0,0,0,0,0,0,0,0,0,0,0,0,0,0,0,0,0,0,0,0,0,0,0,0,0,0,0,0,0,
0,0,0,0,0,0,0,0,0,0,0,0,0,0,0,0,0,0,0,0,0,0,0,0,0,0,0,0,0,0,0,0,
0,0,0,0,0,0,0,0,0,0,0,0,0,0,0,0,0,0,0,0,0,0,0,0,0,0,0,0,0,0,0,0,
0,0,0,0,0,0,0,0,0,0,0,0,0,0,0,0,0,0,0,0,0,0,0,0,0,0,0,0,0,0,0,0
</data>
 </layer>
 <layer id="13" name="Front3" width="32" height="21">
  <data encoding="csv">
0,0,0,0,0,0,0,0,0,0,0,0,0,0,0,0,0,0,0,0,0,0,0,0,0,0,0,0,0,0,0,0,
0,0,0,0,0,0,0,0,0,0,0,0,0,0,0,0,0,0,0,0,0,0,0,0,0,0,0,0,0,0,0,0,
0,0,0,0,0,0,0,0,0,0,0,0,0,0,0,0,0,0,0,0,0,0,0,0,0,0,0,0,0,0,0,0,
0,0,0,0,0,0,0,0,0,0,0,0,0,0,0,0,0,0,0,0,0,0,0,0,0,0,0,0,0,0,0,0,
0,0,0,0,0,2190,0,0,0,0,0,0,0,0,0,0,0,0,0,0,0,0,0,0,0,0,0,0,0,0,0,0,
0,0,0,0,0,2222,0,0,0,0,0,0,0,0,0,0,0,0,0,0,0,0,0,0,0,0,0,0,0,0,0,0,
0,0,0,0,0,0,0,0,0,0,0,0,0,0,0,0,0,0,0,0,0,0,0,0,0,0,0,0,0,0,0,0,
0,0,0,0,0,0,0,0,0,0,0,0,0,0,0,0,0,0,0,0,0,0,0,0,0,0,0,0,0,0,0,0,
0,0,0,0,0,0,0,0,0,0,0,0,0,0,0,0,0,0,0,0,0,0,0,0,0,0,0,0,0,0,0,0,
0,0,0,0,0,0,0,0,0,0,0,0,0,0,0,0,0,0,0,0,0,0,0,0,0,0,0,0,0,0,0,0,
0,0,0,0,0,0,0,0,0,0,0,0,0,0,0,0,0,0,0,0,0,0,0,0,0,0,0,0,0,0,0,0,
0,0,0,0,0,0,0,0,0,0,0,0,0,0,0,0,0,0,0,0,0,0,0,0,0,0,0,0,0,0,0,0,
0,0,0,0,0,0,0,0,0,0,0,0,0,0,0,0,0,0,0,0,0,0,0,0,0,0,0,0,0,0,0,0,
0,0,0,0,721,722,0,182,214,0,903,2541,2542,0,0,0,0,0,0,0,0,0,0,0,0,0,0,0,0,0,0,0,
0,0,0,0,0,0,0,0,0,0,0,2573,2574,0,0,0,0,0,0,0,0,0,0,0,0,0,0,0,0,0,0,0,
0,0,0,0,0,0,0,0,0,0,0,0,0,0,0,0,0,0,0,0,0,0,0,0,0,0,0,0,0,0,0,0,
0,0,0,0,0,0,0,0,0,0,0,0,0,0,0,0,0,0,0,0,0,0,0,0,0,0,0,0,0,0,0,0,
0,0,0,0,0,0,0,0,0,0,0,0,0,0,0,0,0,0,0,0,0,0,0,0,0,0,0,0,0,0,0,0,
0,0,0,0,0,0,0,0,0,0,0,0,0,0,0,0,0,0,0,0,0,0,0,0,0,0,0,0,0,0,0,0,
0,0,0,0,0,0,0,0,0,0,0,0,0,0,0,0,0,0,0,0,0,0,0,0,0,0,0,0,0,0,0,0,
0,0,0,0,0,0,0,0,0,0,0,0,0,0,0,0,0,0,0,0,0,0,0,0,0,0,0,0,0,0,0,0
</data>
 </layer>
 <layer id="5" name="Paths" width="32" height="21">
  <data encoding="csv">
0,0,0,0,0,0,0,0,0,0,0,0,0,0,0,0,0,0,0,0,0,0,0,0,0,0,0,0,0,0,0,0,
0,0,0,0,0,0,0,0,0,0,0,0,0,0,0,0,0,0,0,0,0,0,0,0,0,0,0,0,0,0,0,0,
0,0,0,0,0,0,0,0,0,0,0,0,0,0,0,0,0,0,0,0,0,0,0,0,0,0,0,0,0,0,0,0,
0,0,0,0,0,0,0,0,0,0,0,0,0,0,0,0,0,0,0,0,0,0,0,0,0,0,0,0,0,0,0,0,
0,0,0,0,0,0,0,0,0,0,0,0,0,0,0,0,0,0,0,0,0,0,0,0,0,0,0,0,0,0,0,0,
0,0,0,0,0,0,0,0,0,0,0,0,0,0,0,0,0,0,0,3497,0,0,0,0,0,0,0,0,0,0,0,0,
0,0,0,3497,0,0,0,0,0,3497,0,0,0,0,0,0,0,0,0,0,0,0,0,0,0,0,0,0,0,0,0,0,
0,0,0,0,0,0,0,0,0,0,0,0,0,0,0,0,0,0,0,0,0,0,0,0,0,0,0,0,0,0,0,0,
0,0,0,0,0,0,0,0,0,0,0,0,0,0,0,3497,0,0,0,0,3497,0,0,0,3497,0,0,0,3497,0,0,0,
0,0,0,0,0,0,0,0,0,0,0,0,0,0,0,0,0,0,0,0,0,0,0,0,0,0,0,0,0,0,0,0,
0,0,0,3497,0,0,0,0,0,0,0,3497,0,0,0,0,0,0,0,0,0,0,0,0,0,0,0,0,0,0,0,0,
0,0,0,0,0,0,0,0,0,0,0,0,0,0,0,0,0,0,0,0,0,0,0,0,0,0,0,0,0,0,0,0,
0,0,0,0,0,0,0,0,0,0,0,0,0,0,0,0,0,0,0,0,0,0,0,0,0,0,0,0,0,0,0,0,
0,0,0,0,0,0,0,0,0,0,0,0,0,0,0,0,0,0,0,0,0,0,0,0,0,0,0,0,0,0,0,0,
0,0,0,0,0,0,0,0,0,3497,0,0,0,0,0,0,0,0,0,0,0,0,0,0,0,0,0,3497,0,0,0,0,
0,0,0,0,0,0,0,0,0,0,0,0,0,0,0,0,0,0,0,0,0,0,0,0,0,0,0,0,0,0,0,0,
0,0,0,0,3497,0,0,0,0,0,0,0,0,3497,0,0,0,3497,0,0,0,0,3497,0,0,0,0,0,0,0,0,0,
0,0,0,0,0,0,0,0,0,0,0,0,0,0,0,0,0,0,0,0,0,0,0,0,0,0,0,0,0,0,0,0,
0,0,0,0,0,0,0,0,0,0,0,0,0,0,0,0,0,0,0,0,0,0,0,0,0,0,0,0,0,0,0,0,
0,0,0,0,0,0,0,0,0,0,0,0,0,0,0,0,0,0,0,0,0,0,0,0,0,0,0,0,0,0,0,0,
0,0,0,0,0,0,0,0,0,0,0,0,0,0,0,0,0,0,0,0,0,0,0,0,0,0,0,0,0,0,0,0
</data>
 </layer>
 <layer id="14" name="AlwaysFront" width="32" height="21">
  <data encoding="csv">
0,0,0,0,0,0,0,0,0,0,0,0,0,0,0,0,0,0,0,0,0,0,0,0,0,0,0,0,0,0,0,0,
0,0,0,0,0,0,0,0,0,0,0,0,0,0,0,0,0,0,0,0,0,0,0,0,0,0,0,0,0,0,0,0,
0,0,0,0,0,0,0,0,0,0,0,0,0,0,0,0,0,0,0,0,0,0,0,0,0,0,0,0,0,0,0,0,
0,0,0,0,0,0,0,0,0,0,0,0,0,0,0,0,0,0,0,0,0,0,0,0,0,0,0,0,0,0,0,0,
0,0,0,0,0,0,0,0,0,0,0,0,0,0,0,0,0,0,0,0,0,0,0,0,0,0,0,0,0,3682,0,0,
0,0,0,0,0,0,0,0,0,0,0,0,0,0,0,0,0,0,0,0,0,0,0,0,0,0,0,0,0,3682,0,0,
0,0,0,0,0,0,0,0,0,0,0,0,0,0,0,0,0,0,0,0,0,0,0,0,0,0,0,0,0,3682,0,0,
0,0,0,0,0,0,0,0,0,0,0,0,0,0,0,0,0,0,0,0,0,0,0,0,0,0,0,0,0,3682,0,0,
0,0,0,0,0,0,0,0,0,0,0,0,0,0,0,0,0,0,0,0,0,0,0,0,0,0,0,0,0,3682,0,0,
0,0,0,0,0,0,0,0,0,0,0,0,0,0,0,0,0,0,0,0,0,0,0,0,0,0,0,0,0,0,0,0,
0,0,0,3691,3691,3691,3691,3691,3622,0,3621,3691,0,0,0,0,0,0,0,0,0,0,0,0,0,0,0,0,0,0,0,0,
0,0,0,0,0,0,0,0,0,0,0,0,0,0,1389,0,0,0,0,0,0,0,0,0,0,0,0,0,0,0,0,0,
0,0,0,0,0,0,0,0,0,0,0,0,0,0,0,0,0,0,0,0,0,0,0,0,0,0,0,0,0,0,0,0,
0,0,0,0,0,0,0,0,0,0,0,0,0,0,0,0,0,0,0,0,0,0,0,0,0,0,0,0,0,0,0,0,
0,0,0,0,0,0,0,0,0,0,0,0,0,0,0,0,0,0,0,0,0,0,0,0,0,0,0,0,0,0,0,0,
0,0,0,0,0,0,0,0,0,0,0,0,0,0,0,0,0,0,0,0,0,0,0,0,0,0,0,0,0,0,0,0,
0,0,0,0,0,0,0,0,0,0,0,0,0,0,0,0,0,0,0,0,0,0,0,3759,3760,3760,3761,0,0,0,0,0,
0,0,0,0,0,0,0,0,0,0,0,0,0,0,0,0,0,0,0,0,0,0,0,0,0,0,0,0,0,0,0,0,
0,0,0,0,0,0,0,0,0,0,0,0,0,0,0,0,0,0,0,0,0,0,0,0,0,0,0,0,0,0,0,0,
0,0,0,0,0,0,0,0,0,0,0,0,0,0,0,0,0,0,0,0,0,0,0,0,0,0,0,0,0,0,0,0,
0,0,0,0,0,0,0,0,0,0,0,0,0,0,0,0,0,0,0,0,0,0,0,0,0,0,0,0,0,0,0,0
</data>
 </layer>
 <objectgroup id="6" name="Back"/>
 <objectgroup id="7" name="Buildings" visible="0">
  <object id="32" name="TileData" x="272" y="80" width="16" height="16">
   <properties>
    <property name="Action" value="Message MunicipalFlavor20"/>
   </properties>
  </object>
  <object id="33" name="TileData" x="272" y="208" width="16" height="16">
   <properties>
    <property name="Action" value="Message MunicipalFlavor24"/>
   </properties>
  </object>
  <object id="34" name="TileData" x="288" y="208" width="16" height="16">
   <properties>
    <property name="Action" value="Message MunicipalFlavor25"/>
   </properties>
  </object>
  <object id="39" name="TileData" x="368" y="192" width="16" height="16">
   <properties>
    <property name="Action" value="Message MunicipalFlavor26"/>
   </properties>
  </object>
  <object id="47" name="TileData" x="112" y="96" width="16" height="16">
   <properties>
    <property name="Action" value="Message MunicipalFlavor35"/>
   </properties>
  </object>
  <object id="40" name="TileData" x="176" y="96" width="16" height="78">
   <properties>
    <property name="Action" value="Message MunicipalFlavor27"/>
   </properties>
  </object>
  <object id="35" name="TileData" x="112" y="224" width="32" height="16">
   <properties>
    <property name="Action" value="Message MunicipalFlavor19"/>
   </properties>
  </object>
  <object id="36" name="TileData" x="224" y="208" width="48" height="16">
   <properties>
    <property name="Action" value="Message MunicipalFlavor21"/>
   </properties>
  </object>
  <object id="37" name="TileData" x="176" y="240" width="32" height="16">
   <properties>
    <property name="Action" value="Message MunicipalFlavor22"/>
   </properties>
  </object>
  <object id="38" name="TileData" x="144" y="96" width="32" height="16">
   <properties>
    <property name="Action" value="Message MunicipalFlavor23"/>
   </properties>
  </object>
  <object id="43" name="TileData" x="432" y="80" width="16" height="16">
   <properties>
    <property name="Action" value="Message MunicipalFlavor28"/>
   </properties>
  </object>
  <object id="45" name="TileData" x="384" y="96" width="16" height="16">
   <properties>
    <property name="Action" value="Message MunicipalFlavor33"/>
   </properties>
  </object>
  <object id="50" name="TileData" x="96" y="112" width="16" height="16">
   <properties>
    <property name="Action" value="Message MunicipalFlavor48"/>
   </properties>
  </object>
  <object id="51" name="TileData" x="160" y="224" width="16" height="16">
   <properties>
    <property name="Action" value="Message MunicipalFlavor44"/>
   </properties>
  </object>
  <object id="48" name="TileData" x="400" y="224" width="16" height="16">
   <properties>
    <property name="Action" value="Message MunicipalFlavor34"/>
   </properties>
  </object>
  <object id="44" name="TileData" x="144" y="208" width="16" height="16">
   <properties>
    <property name="Action" value="Door MV.Municipal_SheriffBill"/>
   </properties>
  </object>
 </objectgroup>
 <objectgroup id="8" name="Front"/>
 <objectgroup id="9" name="Front2"/>
 <objectgroup id="10" name="Paths"/>
</map>
