<?xml version="1.0" encoding="UTF-8"?>
<map version="1.10" tiledversion="1.11.2" orientation="orthogonal" renderorder="right-down" compressionlevel="0" width="16" height="20" tilewidth="16" tileheight="16" infinite="0" nextlayerid="19" nextobjectid="71">
 <tileset firstgid="1" name="v16_landscape2" tilewidth="16" tileheight="16" tilecount="1120" columns="16">
  <image source="spring_outdoorsTileSheet2.png" width="256" height="1120"/>
  <tile id="568">
   <animation>
    <frame tileid="568" duration="1000"/>
    <frame tileid="572" duration="1000"/>
   </animation>
  </tile>
  <tile id="570">
   <animation>
    <frame tileid="570" duration="1000"/>
    <frame tileid="574" duration="1000"/>
   </animation>
  </tile>
  <tile id="736">
   <properties>
    <property name="Type" value="Wood"/>
   </properties>
  </tile>
  <tile id="737">
   <properties>
    <property name="Type" value="Wood"/>
   </properties>
  </tile>
  <tile id="738">
   <properties>
    <property name="Type" value="Wood"/>
   </properties>
  </tile>
  <tile id="739">
   <properties>
    <property name="Type" value="Wood"/>
   </properties>
  </tile>
  <tile id="740">
   <properties>
    <property name="Type" value="Grass"/>
   </properties>
  </tile>
  <tile id="741">
   <properties>
    <property name="Type" value="Grass"/>
   </properties>
  </tile>
  <tile id="752">
   <properties>
    <property name="Type" value="Wood"/>
   </properties>
  </tile>
  <tile id="753">
   <properties>
    <property name="Type" value="Wood"/>
   </properties>
  </tile>
  <tile id="754">
   <properties>
    <property name="Type" value="Wood"/>
   </properties>
  </tile>
  <tile id="755">
   <properties>
    <property name="Type" value="Wood"/>
   </properties>
  </tile>
  <tile id="756">
   <properties>
    <property name="Type" value="Grass"/>
   </properties>
  </tile>
  <tile id="757">
   <properties>
    <property name="Type" value="Grass"/>
   </properties>
  </tile>
  <tile id="772">
   <properties>
    <property name="Type" value="Grass"/>
   </properties>
  </tile>
  <tile id="773">
   <properties>
    <property name="Type" value="Grass"/>
   </properties>
  </tile>
  <tile id="816">
   <properties>
    <property name="Water" value="T"/>
   </properties>
  </tile>
  <tile id="817">
   <properties>
    <property name="Water" value="T"/>
   </properties>
  </tile>
  <tile id="820">
   <properties>
    <property name="Water" value="T"/>
   </properties>
  </tile>
  <tile id="821">
   <properties>
    <property name="Water" value="T"/>
   </properties>
  </tile>
  <tile id="822">
   <properties>
    <property name="Water" value="T"/>
   </properties>
  </tile>
  <tile id="832">
   <properties>
    <property name="Water" value="T"/>
   </properties>
  </tile>
  <tile id="833">
   <properties>
    <property name="Water" value="T"/>
   </properties>
  </tile>
  <tile id="834">
   <properties>
    <property name="Water" value="T"/>
   </properties>
  </tile>
  <tile id="835">
   <properties>
    <property name="Water" value="T"/>
   </properties>
  </tile>
  <tile id="836">
   <properties>
    <property name="Water" value="T"/>
   </properties>
  </tile>
  <tile id="837">
   <properties>
    <property name="Water" value="T"/>
   </properties>
  </tile>
  <tile id="838">
   <properties>
    <property name="Water" value="T"/>
   </properties>
  </tile>
  <tile id="848">
   <properties>
    <property name="Water" value="T"/>
   </properties>
  </tile>
  <tile id="849">
   <properties>
    <property name="Water" value="T"/>
   </properties>
  </tile>
  <tile id="850">
   <properties>
    <property name="Water" value="T"/>
   </properties>
  </tile>
  <tile id="851">
   <properties>
    <property name="Water" value="T"/>
   </properties>
  </tile>
  <tile id="852">
   <properties>
    <property name="Water" value="T"/>
   </properties>
  </tile>
  <tile id="853">
   <properties>
    <property name="Water" value="T"/>
   </properties>
  </tile>
  <tile id="854">
   <properties>
    <property name="Water" value="T"/>
   </properties>
  </tile>
  <tile id="864">
   <properties>
    <property name="Water" value="T"/>
   </properties>
  </tile>
  <tile id="865">
   <properties>
    <property name="Water" value="T"/>
   </properties>
  </tile>
  <tile id="866">
   <properties>
    <property name="Water" value="T"/>
   </properties>
  </tile>
  <tile id="867">
   <properties>
    <property name="Water" value="T"/>
   </properties>
  </tile>
  <tile id="868">
   <properties>
    <property name="Water" value="T"/>
   </properties>
  </tile>
  <tile id="869">
   <properties>
    <property name="Water" value="T"/>
   </properties>
  </tile>
  <tile id="870">
   <properties>
    <property name="Water" value="T"/>
   </properties>
  </tile>
  <tile id="880">
   <properties>
    <property name="Water" value="T"/>
   </properties>
  </tile>
  <tile id="881">
   <properties>
    <property name="Water" value="T"/>
   </properties>
  </tile>
  <tile id="882">
   <properties>
    <property name="Water" value="T"/>
   </properties>
  </tile>
  <tile id="883">
   <properties>
    <property name="Water" value="T"/>
   </properties>
  </tile>
  <tile id="897">
   <animation>
    <frame tileid="897" duration="1000"/>
    <frame tileid="929" duration="1000"/>
   </animation>
  </tile>
  <tile id="913">
   <animation>
    <frame tileid="913" duration="1000"/>
    <frame tileid="945" duration="1000"/>
   </animation>
  </tile>
  <tile id="914">
   <animation>
    <frame tileid="914" duration="1000"/>
    <frame tileid="915" duration="1000"/>
   </animation>
  </tile>
  <tile id="930">
   <animation>
    <frame tileid="930" duration="1000"/>
    <frame tileid="931" duration="1000"/>
   </animation>
  </tile>
  <tile id="960">
   <animation>
    <frame tileid="960" duration="1000"/>
    <frame tileid="992" duration="1000"/>
   </animation>
  </tile>
  <tile id="962">
   <animation>
    <frame tileid="962" duration="1000"/>
    <frame tileid="963" duration="1000"/>
   </animation>
  </tile>
  <tile id="976">
   <animation>
    <frame tileid="976" duration="1000"/>
    <frame tileid="1008" duration="1000"/>
   </animation>
  </tile>
  <tile id="977">
   <animation>
    <frame tileid="977" duration="1000"/>
    <frame tileid="1009" duration="1000"/>
   </animation>
  </tile>
  <tile id="978">
   <animation>
    <frame tileid="978" duration="1000"/>
    <frame tileid="979" duration="1000"/>
   </animation>
  </tile>
  <tile id="1056">
   <animation>
    <frame tileid="1056" duration="1000"/>
    <frame tileid="1057" duration="1000"/>
   </animation>
  </tile>
  <tile id="1058">
   <animation>
    <frame tileid="1058" duration="1000"/>
    <frame tileid="1059" duration="1000"/>
   </animation>
  </tile>
 </tileset>
 <tileset firstgid="1121" name="Town" tilewidth="16" tileheight="16" tilecount="2304" columns="32">
  <image source="spring_town.png" width="512" height="1152"/>
  <tile id="45">
   <animation>
    <frame tileid="45" duration="1000"/>
    <frame tileid="45" duration="1000"/>
    <frame tileid="45" duration="1000"/>
    <frame tileid="45" duration="1000"/>
    <frame tileid="45" duration="1000"/>
    <frame tileid="45" duration="1000"/>
    <frame tileid="45" duration="1000"/>
    <frame tileid="45" duration="1000"/>
    <frame tileid="45" duration="1000"/>
    <frame tileid="45" duration="1000"/>
    <frame tileid="45" duration="1000"/>
    <frame tileid="45" duration="1000"/>
    <frame tileid="45" duration="1000"/>
    <frame tileid="45" duration="1000"/>
    <frame tileid="45" duration="1000"/>
    <frame tileid="45" duration="1000"/>
    <frame tileid="45" duration="1000"/>
    <frame tileid="12" duration="1000"/>
   </animation>
  </tile>
  <tile id="159">
   <properties>
    <property name="Passable" value="T"/>
   </properties>
  </tile>
  <tile id="191">
   <properties>
    <property name="Passable" value="T"/>
   </properties>
  </tile>
  <tile id="223">
   <properties>
    <property name="Passable" value="T"/>
   </properties>
  </tile>
  <tile id="608">
   <properties>
    <property name="Type" value="Grass"/>
   </properties>
  </tile>
  <tile id="609">
   <properties>
    <property name="Type" value="Grass"/>
   </properties>
  </tile>
  <tile id="610">
   <properties>
    <property name="Type" value="Grass"/>
   </properties>
  </tile>
  <tile id="611">
   <properties>
    <property name="Type" value="Grass"/>
   </properties>
  </tile>
  <tile id="612">
   <properties>
    <property name="Type" value="Grass"/>
   </properties>
  </tile>
  <tile id="641">
   <properties>
    <property name="Type" value="Stone"/>
   </properties>
  </tile>
  <tile id="644">
   <properties>
    <property name="Type" value="Grass"/>
   </properties>
  </tile>
  <tile id="645">
   <properties>
    <property name="Type" value="Grass"/>
   </properties>
  </tile>
  <tile id="646">
   <properties>
    <property name="Type" value="Stone"/>
   </properties>
  </tile>
  <tile id="672">
   <properties>
    <property name="Type" value="Grass"/>
   </properties>
  </tile>
  <tile id="674">
   <properties>
    <property name="Type" value="Grass"/>
   </properties>
  </tile>
  <tile id="676">
   <properties>
    <property name="Type" value="Stone"/>
   </properties>
  </tile>
  <tile id="736">
   <properties>
    <property name="Type" value="Stone"/>
   </properties>
  </tile>
  <tile id="737">
   <properties>
    <property name="Type" value="Stone"/>
   </properties>
  </tile>
  <tile id="768">
   <properties>
    <property name="Type" value="Stone"/>
   </properties>
  </tile>
  <tile id="769">
   <properties>
    <property name="Type" value="Stone"/>
   </properties>
  </tile>
  <tile id="770">
   <properties>
    <property name="Type" value="Stone"/>
   </properties>
  </tile>
  <tile id="909">
   <properties>
    <property name="Type" value="Stone"/>
   </properties>
  </tile>
  <tile id="916">
   <properties>
    <property name="Water" value="T"/>
   </properties>
  </tile>
  <tile id="917">
   <properties>
    <property name="Water" value="T"/>
   </properties>
  </tile>
  <tile id="918">
   <properties>
    <property name="Water" value="T"/>
   </properties>
  </tile>
  <tile id="919">
   <properties>
    <property name="Water" value="T"/>
   </properties>
  </tile>
  <tile id="931">
   <properties>
    <property name="Type" value="Stone"/>
   </properties>
  </tile>
  <tile id="932">
   <properties>
    <property name="Type" value="Stone"/>
   </properties>
  </tile>
  <tile id="950">
   <properties>
    <property name="Water" value="T"/>
   </properties>
  </tile>
  <tile id="963">
   <properties>
    <property name="Type" value="Stone"/>
   </properties>
  </tile>
  <tile id="964">
   <properties>
    <property name="Type" value="Stone"/>
   </properties>
  </tile>
  <tile id="1007">
   <properties>
    <property name="Type" value="Stone"/>
   </properties>
  </tile>
  <tile id="1008">
   <properties>
    <property name="Type" value="Stone"/>
   </properties>
  </tile>
  <tile id="1031">
   <properties>
    <property name="Type" value="Dirt"/>
   </properties>
  </tile>
  <tile id="1032">
   <properties>
    <property name="Type" value="Dirt"/>
   </properties>
  </tile>
  <tile id="1033">
   <properties>
    <property name="Type" value="Dirt"/>
   </properties>
  </tile>
  <tile id="1037">
   <animation>
    <frame tileid="1037" duration="100"/>
    <frame tileid="1038" duration="100"/>
    <frame tileid="1039" duration="100"/>
    <frame tileid="1039" duration="100"/>
   </animation>
  </tile>
  <tile id="1063">
   <properties>
    <property name="Type" value="Dirt"/>
   </properties>
  </tile>
  <tile id="1064">
   <properties>
    <property name="Type" value="Dirt"/>
   </properties>
  </tile>
  <tile id="1065">
   <properties>
    <property name="Type" value="Dirt"/>
   </properties>
  </tile>
  <tile id="1070">
   <animation>
    <frame tileid="1070" duration="100"/>
    <frame tileid="1101" duration="100"/>
    <frame tileid="1102" duration="100"/>
    <frame tileid="1043" duration="100"/>
   </animation>
  </tile>
  <tile id="1095">
   <properties>
    <property name="Type" value="Dirt"/>
   </properties>
  </tile>
  <tile id="1096">
   <properties>
    <property name="Type" value="Dirt"/>
   </properties>
  </tile>
  <tile id="1097">
   <properties>
    <property name="Type" value="Dirt"/>
   </properties>
  </tile>
  <tile id="1201">
   <animation>
    <frame tileid="1201" duration="100"/>
    <frame tileid="1202" duration="100"/>
    <frame tileid="1203" duration="100"/>
    <frame tileid="1204" duration="100"/>
    <frame tileid="1205" duration="100"/>
    <frame tileid="1206" duration="100"/>
   </animation>
  </tile>
  <tile id="1233">
   <animation>
    <frame tileid="1233" duration="100"/>
    <frame tileid="1234" duration="100"/>
    <frame tileid="1235" duration="100"/>
    <frame tileid="1236" duration="100"/>
    <frame tileid="1237" duration="100"/>
    <frame tileid="1238" duration="100"/>
   </animation>
  </tile>
  <tile id="1249">
   <properties>
    <property name="Shadow" value="T"/>
   </properties>
  </tile>
  <tile id="1265">
   <animation>
    <frame tileid="1265" duration="100"/>
    <frame tileid="1266" duration="100"/>
    <frame tileid="1267" duration="100"/>
    <frame tileid="1268" duration="100"/>
    <frame tileid="1269" duration="100"/>
    <frame tileid="1270" duration="100"/>
   </animation>
  </tile>
  <tile id="1958">
   <properties>
    <property name="Shadow" value="T"/>
   </properties>
  </tile>
 </tileset>
 <tileset firstgid="3425" name="v16_Shadows" tilewidth="16" tileheight="16" tilecount="475" columns="19">
  <image source="spring_Shadows" width="304" height="400"/>
 </tileset>
 <tileset firstgid="3900" name="daisyextras" tilewidth="16" tileheight="16" tilecount="1800" columns="30">
  <image source="spring_daisyextras.png" width="480" height="960"/>
  <tile id="762">
   <properties>
    <property name="Type" value="Stone"/>
   </properties>
  </tile>
  <tile id="763">
   <properties>
    <property name="Type" value="Stone"/>
   </properties>
  </tile>
  <tile id="764">
   <properties>
    <property name="Type" value="Stone"/>
   </properties>
  </tile>
  <tile id="795">
   <properties>
    <property name="Type" value="Stone"/>
   </properties>
  </tile>
  <tile id="796">
   <properties>
    <property name="Type" value="Stone"/>
   </properties>
  </tile>
  <tile id="797">
   <properties>
    <property name="Type" value="Stone"/>
   </properties>
  </tile>
  <tile id="798">
   <properties>
    <property name="Type" value="Stone"/>
   </properties>
  </tile>
  <tile id="799">
   <properties>
    <property name="Type" value="Stone"/>
   </properties>
  </tile>
  <tile id="825">
   <properties>
    <property name="Type" value="Stone"/>
   </properties>
  </tile>
  <tile id="826">
   <properties>
    <property name="Type" value="Stone"/>
   </properties>
  </tile>
  <tile id="827">
   <properties>
    <property name="Type" value="Stone"/>
   </properties>
  </tile>
  <tile id="828">
   <properties>
    <property name="Type" value="Stone"/>
   </properties>
  </tile>
  <tile id="829">
   <properties>
    <property name="Type" value="Stone"/>
   </properties>
  </tile>
  <tile id="850">
   <properties>
    <property name="Type" value="Stone"/>
   </properties>
  </tile>
  <tile id="851">
   <properties>
    <property name="Type" value="Stone"/>
   </properties>
  </tile>
  <tile id="852">
   <properties>
    <property name="Type" value="Stone"/>
   </properties>
  </tile>
  <tile id="855">
   <properties>
    <property name="Type" value="Stone"/>
   </properties>
  </tile>
  <tile id="856">
   <properties>
    <property name="Type" value="Stone"/>
   </properties>
  </tile>
  <tile id="857">
   <properties>
    <property name="Type" value="Stone"/>
   </properties>
  </tile>
  <tile id="880">
   <properties>
    <property name="Type" value="Stone"/>
   </properties>
  </tile>
  <tile id="881">
   <properties>
    <property name="Type" value="Stone"/>
   </properties>
  </tile>
  <tile id="882">
   <properties>
    <property name="Type" value="Stone"/>
   </properties>
  </tile>
  <tile id="884">
   <properties>
    <property name="Type" value="Stone"/>
   </properties>
  </tile>
  <tile id="885">
   <properties>
    <property name="Type" value="Stone"/>
   </properties>
  </tile>
  <tile id="886">
   <properties>
    <property name="Type" value="Stone"/>
   </properties>
  </tile>
  <tile id="887">
   <properties>
    <property name="Type" value="Stone"/>
   </properties>
  </tile>
  <tile id="888">
   <properties>
    <property name="Type" value="Stone"/>
   </properties>
  </tile>
  <tile id="911">
   <properties>
    <property name="Type" value="Stone"/>
   </properties>
  </tile>
  <tile id="912">
   <properties>
    <property name="Type" value="Stone"/>
   </properties>
  </tile>
  <tile id="913">
   <properties>
    <property name="Type" value="Stone"/>
   </properties>
  </tile>
  <tile id="914">
   <properties>
    <property name="Type" value="Stone"/>
   </properties>
  </tile>
  <tile id="915">
   <properties>
    <property name="Type" value="Stone"/>
   </properties>
  </tile>
  <tile id="916">
   <properties>
    <property name="Type" value="Stone"/>
   </properties>
  </tile>
  <tile id="917">
   <properties>
    <property name="Type" value="Stone"/>
   </properties>
  </tile>
  <tile id="918">
   <properties>
    <property name="Type" value="Stone"/>
   </properties>
  </tile>
  <tile id="943">
   <properties>
    <property name="Type" value="Stone"/>
   </properties>
  </tile>
  <tile id="944">
   <properties>
    <property name="Type" value="Stone"/>
   </properties>
  </tile>
  <tile id="945">
   <properties>
    <property name="Type" value="Stone"/>
   </properties>
  </tile>
  <tile id="946">
   <properties>
    <property name="Type" value="Stone"/>
   </properties>
  </tile>
  <tile id="947">
   <properties>
    <property name="Type" value="Stone"/>
   </properties>
  </tile>
  <tile id="948">
   <properties>
    <property name="Type" value="Stone"/>
   </properties>
  </tile>
  <tile id="973">
   <properties>
    <property name="Type" value="Stone"/>
   </properties>
  </tile>
  <tile id="974">
   <properties>
    <property name="Type" value="Stone"/>
   </properties>
  </tile>
  <tile id="975">
   <properties>
    <property name="Type" value="Stone"/>
   </properties>
  </tile>
  <tile id="976">
   <properties>
    <property name="Type" value="Stone"/>
   </properties>
  </tile>
  <tile id="977">
   <properties>
    <property name="Type" value="Stone"/>
   </properties>
  </tile>
  <tile id="978">
   <properties>
    <property name="Type" value="Stone"/>
   </properties>
  </tile>
  <tile id="1003">
   <properties>
    <property name="Type" value="Stone"/>
   </properties>
  </tile>
  <tile id="1004">
   <properties>
    <property name="Type" value="Stone"/>
   </properties>
  </tile>
  <tile id="1005">
   <properties>
    <property name="Type" value="Stone"/>
   </properties>
  </tile>
  <tile id="1006">
   <properties>
    <property name="Type" value="Stone"/>
   </properties>
  </tile>
  <tile id="1007">
   <properties>
    <property name="Type" value="Stone"/>
   </properties>
  </tile>
  <tile id="1008">
   <properties>
    <property name="Type" value="Stone"/>
   </properties>
  </tile>
  <tile id="1033">
   <properties>
    <property name="Type" value="Stone"/>
   </properties>
  </tile>
  <tile id="1034">
   <properties>
    <property name="Type" value="Stone"/>
   </properties>
  </tile>
  <tile id="1035">
   <properties>
    <property name="Type" value="Stone"/>
   </properties>
  </tile>
  <tile id="1036">
   <properties>
    <property name="Type" value="Stone"/>
   </properties>
  </tile>
  <tile id="1037">
   <properties>
    <property name="Type" value="Stone"/>
   </properties>
  </tile>
  <tile id="1038">
   <properties>
    <property name="Type" value="Stone"/>
   </properties>
  </tile>
 </tileset>
 <tileset firstgid="5700" name="Paths" tilewidth="16" tileheight="16" tilecount="64" columns="4">
  <image source="paths" width="64" height="256"/>
  <tile id="35">
   <properties>
    <property name="GreenRain" value="??"/>
   </properties>
  </tile>
 </tileset>
 <tileset firstgid="5764" name="Landscape" tilewidth="16" tileheight="16" tilecount="1975" columns="25">
  <image source="spring_outdoorsTileSheet" width="400" height="1264"/>
  <tile id="150">
   <properties>
    <property name="Spawnable" value="T"/>
    <property name="Type" value="Grass"/>
   </properties>
   <animation>
    <frame tileid="150" duration="100"/>
    <frame tileid="420" duration="100"/>
    <frame tileid="421" duration="100"/>
    <frame tileid="422" duration="100"/>
    <frame tileid="423" duration="100"/>
    <frame tileid="420" duration="100"/>
    <frame tileid="150" duration="100"/>
    <frame tileid="150" duration="100"/>
    <frame tileid="150" duration="100"/>
    <frame tileid="150" duration="100"/>
    <frame tileid="150" duration="100"/>
    <frame tileid="150" duration="100"/>
    <frame tileid="150" duration="100"/>
    <frame tileid="150" duration="100"/>
    <frame tileid="150" duration="100"/>
    <frame tileid="150" duration="100"/>
    <frame tileid="150" duration="100"/>
    <frame tileid="150" duration="100"/>
    <frame tileid="150" duration="100"/>
    <frame tileid="150" duration="100"/>
    <frame tileid="150" duration="100"/>
    <frame tileid="150" duration="100"/>
    <frame tileid="150" duration="100"/>
    <frame tileid="150" duration="100"/>
    <frame tileid="150" duration="100"/>
    <frame tileid="150" duration="100"/>
    <frame tileid="150" duration="100"/>
    <frame tileid="150" duration="100"/>
    <frame tileid="150" duration="100"/>
    <frame tileid="150" duration="100"/>
    <frame tileid="150" duration="100"/>
   </animation>
  </tile>
  <tile id="151">
   <properties>
    <property name="Type" value="Grass"/>
   </properties>
   <animation>
    <frame tileid="151" duration="1000"/>
    <frame tileid="152" duration="1000"/>
   </animation>
  </tile>
  <tile id="152">
   <animation>
    <frame tileid="152" duration="1000"/>
    <frame tileid="151" duration="1000"/>
   </animation>
  </tile>
  <tile id="153">
   <properties>
    <property name="Diggable" value="T"/>
    <property name="Type" value="Dirt"/>
   </properties>
  </tile>
  <tile id="156">
   <properties>
    <property name="Spawnable" value="T"/>
    <property name="Type" value="Grass"/>
   </properties>
  </tile>
  <tile id="175">
   <properties>
    <property name="Spawnable" value="T"/>
    <property name="Type" value="Grass"/>
   </properties>
  </tile>
  <tile id="176">
   <properties>
    <property name="Diggable" value="T"/>
    <property name="Type" value="Dirt"/>
   </properties>
  </tile>
  <tile id="177">
   <properties>
    <property name="Type" value="Dirt"/>
   </properties>
  </tile>
  <tile id="178">
   <properties>
    <property name="Type" value="Dirt"/>
   </properties>
  </tile>
  <tile id="179">
   <properties>
    <property name="Type" value="Grass"/>
   </properties>
  </tile>
  <tile id="180">
   <properties>
    <property name="Spawnable" value="T"/>
    <property name="Type" value="Grass"/>
   </properties>
  </tile>
  <tile id="181">
   <properties>
    <property name="Type" value="Dirt"/>
   </properties>
  </tile>
  <tile id="182">
   <properties>
    <property name="Type" value="Dirt"/>
   </properties>
  </tile>
  <tile id="183">
   <animation>
    <frame tileid="183" duration="1000"/>
    <frame tileid="1182" duration="1000"/>
   </animation>
  </tile>
  <tile id="184">
   <animation>
    <frame tileid="184" duration="1000"/>
    <frame tileid="1183" duration="1000"/>
   </animation>
  </tile>
  <tile id="185">
   <animation>
    <frame tileid="185" duration="1000"/>
    <frame tileid="1184" duration="1000"/>
   </animation>
  </tile>
  <tile id="200">
   <properties>
    <property name="Spawnable" value="T"/>
    <property name="Type" value="Grass"/>
   </properties>
  </tile>
  <tile id="202">
   <properties>
    <property name="Type" value="Dirt"/>
   </properties>
  </tile>
  <tile id="203">
   <properties>
    <property name="Type" value="Grass"/>
   </properties>
  </tile>
  <tile id="204">
   <properties>
    <property name="Type" value="Grass"/>
   </properties>
  </tile>
  <tile id="205">
   <properties>
    <property name="Type" value="Grass"/>
   </properties>
  </tile>
  <tile id="206">
   <properties>
    <property name="Diggable" value="T"/>
    <property name="Type" value="Dirt"/>
   </properties>
  </tile>
  <tile id="207">
   <properties>
    <property name="Diggable" value="T"/>
    <property name="Type" value="Dirt"/>
   </properties>
  </tile>
  <tile id="208">
   <animation>
    <frame tileid="208" duration="1000"/>
    <frame tileid="1207" duration="1000"/>
   </animation>
  </tile>
  <tile id="209">
   <properties>
    <property name="Water" value="T"/>
   </properties>
   <animation>
    <frame tileid="209" duration="1000"/>
    <frame tileid="1208" duration="1000"/>
   </animation>
  </tile>
  <tile id="210">
   <animation>
    <frame tileid="210" duration="1000"/>
    <frame tileid="1209" duration="1000"/>
   </animation>
  </tile>
  <tile id="211">
   <animation>
    <frame tileid="211" duration="1000"/>
    <frame tileid="1210" duration="1000"/>
   </animation>
  </tile>
  <tile id="225">
   <properties>
    <property name="Type" value="Dirt"/>
   </properties>
  </tile>
  <tile id="226">
   <properties>
    <property name="Diggable" value="T"/>
    <property name="Type" value="Dirt"/>
   </properties>
  </tile>
  <tile id="227">
   <properties>
    <property name="Diggable" value="T"/>
    <property name="Type" value="Dirt"/>
   </properties>
  </tile>
  <tile id="228">
   <properties>
    <property name="Type" value="Dirt"/>
   </properties>
  </tile>
  <tile id="229">
   <properties>
    <property name="Type" value="Grass"/>
   </properties>
  </tile>
  <tile id="230">
   <properties>
    <property name="Type" value="Grass"/>
   </properties>
  </tile>
  <tile id="231">
   <properties>
    <property name="Diggable" value="T"/>
    <property name="Type" value="Dirt"/>
   </properties>
  </tile>
  <tile id="233">
   <animation>
    <frame tileid="233" duration="1000"/>
    <frame tileid="1232" duration="1000"/>
   </animation>
  </tile>
  <tile id="234">
   <properties>
    <property name="Water" value="T"/>
   </properties>
  </tile>
  <tile id="235">
   <animation>
    <frame tileid="235" duration="1000"/>
    <frame tileid="1290" duration="1000"/>
   </animation>
  </tile>
  <tile id="237">
   <animation>
    <frame tileid="237" duration="1000"/>
    <frame tileid="1291" duration="1000"/>
   </animation>
  </tile>
  <tile id="238">
   <animation>
    <frame tileid="238" duration="1000"/>
    <frame tileid="1292" duration="1000"/>
   </animation>
  </tile>
  <tile id="250">
   <properties>
    <property name="Type" value="Grass"/>
   </properties>
  </tile>
  <tile id="251">
   <properties>
    <property name="Type" value="Dirt"/>
   </properties>
  </tile>
  <tile id="252">
   <properties>
    <property name="Diggable" value="T"/>
    <property name="Type" value="Dirt"/>
   </properties>
  </tile>
  <tile id="253">
   <properties>
    <property name="Type" value="Grass"/>
   </properties>
  </tile>
  <tile id="254">
   <properties>
    <property name="Type" value="Grass"/>
   </properties>
  </tile>
  <tile id="255">
   <properties>
    <property name="Type" value="Grass"/>
   </properties>
  </tile>
  <tile id="256">
   <properties>
    <property name="Type" value="Grass"/>
   </properties>
  </tile>
  <tile id="258">
   <animation>
    <frame tileid="258" duration="1000"/>
    <frame tileid="1257" duration="1000"/>
   </animation>
  </tile>
  <tile id="260">
   <animation>
    <frame tileid="260" duration="1000"/>
    <frame tileid="1315" duration="1000"/>
   </animation>
  </tile>
  <tile id="261">
   <properties>
    <property name="Type" value="Grass"/>
   </properties>
  </tile>
  <tile id="265">
   <properties>
    <property name="Type" value="Dirt"/>
   </properties>
  </tile>
  <tile id="276">
   <properties>
    <property name="Type" value="Grass"/>
   </properties>
  </tile>
  <tile id="277">
   <properties>
    <property name="Type" value="Grass"/>
   </properties>
  </tile>
  <tile id="278">
   <properties>
    <property name="Type" value="Grass"/>
   </properties>
  </tile>
  <tile id="279">
   <properties>
    <property name="Type" value="Grass"/>
   </properties>
  </tile>
  <tile id="281">
   <properties>
    <property name="Type" value="Grass"/>
   </properties>
  </tile>
  <tile id="283">
   <animation>
    <frame tileid="283" duration="1000"/>
    <frame tileid="1312" duration="1000"/>
   </animation>
  </tile>
  <tile id="284">
   <animation>
    <frame tileid="284" duration="1000"/>
    <frame tileid="1313" duration="1000"/>
   </animation>
  </tile>
  <tile id="285">
   <properties>
    <property name="Water" value="T"/>
   </properties>
  </tile>
  <tile id="286">
   <properties>
    <property name="Type" value="Grass"/>
   </properties>
  </tile>
  <tile id="301">
   <properties>
    <property name="Type" value="Grass"/>
   </properties>
  </tile>
  <tile id="302">
   <properties>
    <property name="Type" value="Grass"/>
   </properties>
  </tile>
  <tile id="303">
   <properties>
    <property name="Type" value="Grass"/>
   </properties>
  </tile>
  <tile id="304">
   <properties>
    <property name="Type" value="Grass"/>
   </properties>
  </tile>
  <tile id="305">
   <properties>
    <property name="Type" value="Grass"/>
   </properties>
  </tile>
  <tile id="306">
   <properties>
    <property name="Type" value="Grass"/>
   </properties>
  </tile>
  <tile id="308">
   <properties>
    <property name="Water" value="T"/>
   </properties>
  </tile>
  <tile id="309">
   <properties>
    <property name="Water" value="T"/>
   </properties>
  </tile>
  <tile id="310">
   <properties>
    <property name="Water" value="T"/>
   </properties>
  </tile>
  <tile id="311">
   <properties>
    <property name="Type" value="Grass"/>
   </properties>
  </tile>
  <tile id="312">
   <properties>
    <property name="Type" value="Wood"/>
   </properties>
  </tile>
  <tile id="313">
   <properties>
    <property name="Type" value="Wood"/>
   </properties>
  </tile>
  <tile id="314">
   <properties>
    <property name="Type" value="Wood"/>
   </properties>
  </tile>
  <tile id="325">
   <properties>
    <property name="Type" value="Grass"/>
   </properties>
  </tile>
  <tile id="326">
   <properties>
    <property name="Type" value="Grass"/>
   </properties>
  </tile>
  <tile id="327">
   <properties>
    <property name="Type" value="Grass"/>
   </properties>
  </tile>
  <tile id="328">
   <properties>
    <property name="Type" value="Grass"/>
   </properties>
  </tile>
  <tile id="329">
   <properties>
    <property name="Type" value="Grass"/>
   </properties>
  </tile>
  <tile id="331">
   <properties>
    <property name="Type" value="Grass"/>
   </properties>
  </tile>
  <tile id="332">
   <properties>
    <property name="Type" value="Grass"/>
   </properties>
  </tile>
  <tile id="333">
   <properties>
    <property name="Water" value="T"/>
   </properties>
  </tile>
  <tile id="334">
   <properties>
    <property name="Water" value="T"/>
   </properties>
  </tile>
  <tile id="335">
   <properties>
    <property name="Water" value="T"/>
   </properties>
  </tile>
  <tile id="336">
   <properties>
    <property name="Water" value="T"/>
   </properties>
  </tile>
  <tile id="337">
   <properties>
    <property name="Type" value="Wood"/>
   </properties>
  </tile>
  <tile id="338">
   <properties>
    <property name="Type" value="Wood"/>
   </properties>
  </tile>
  <tile id="339">
   <properties>
    <property name="Type" value="Wood"/>
   </properties>
  </tile>
  <tile id="350">
   <properties>
    <property name="Type" value="Grass"/>
   </properties>
  </tile>
  <tile id="351">
   <properties>
    <property name="Spawnable" value="T"/>
    <property name="Type" value="Grass"/>
   </properties>
  </tile>
  <tile id="352">
   <properties>
    <property name="Type" value="Grass"/>
   </properties>
  </tile>
  <tile id="353">
   <properties>
    <property name="Type" value="Grass"/>
   </properties>
  </tile>
  <tile id="354">
   <properties>
    <property name="Type" value="Grass"/>
   </properties>
  </tile>
  <tile id="355">
   <properties>
    <property name="Type" value="Grass"/>
   </properties>
  </tile>
  <tile id="356">
   <properties>
    <property name="Type" value="Grass"/>
   </properties>
  </tile>
  <tile id="357">
   <properties>
    <property name="Type" value="Grass"/>
   </properties>
  </tile>
  <tile id="375">
   <properties>
    <property name="Type" value="Grass"/>
   </properties>
  </tile>
  <tile id="376">
   <properties>
    <property name="Type" value="Grass"/>
   </properties>
  </tile>
  <tile id="377">
   <properties>
    <property name="Type" value="Grass"/>
   </properties>
  </tile>
  <tile id="378">
   <properties>
    <property name="Type" value="Grass"/>
   </properties>
  </tile>
  <tile id="379">
   <properties>
    <property name="Type" value="Grass"/>
   </properties>
  </tile>
  <tile id="380">
   <properties>
    <property name="Spawnable" value="T"/>
    <property name="Type" value="Grass"/>
   </properties>
  </tile>
  <tile id="381">
   <properties>
    <property name="Type" value="Grass"/>
   </properties>
  </tile>
  <tile id="382">
   <properties>
    <property name="Type" value="Grass"/>
   </properties>
  </tile>
  <tile id="400">
   <properties>
    <property name="Type" value="Grass"/>
   </properties>
  </tile>
  <tile id="401">
   <properties>
    <property name="Type" value="Grass"/>
   </properties>
  </tile>
  <tile id="402">
   <properties>
    <property name="Type" value="Grass"/>
   </properties>
  </tile>
  <tile id="403">
   <properties>
    <property name="Spawnable" value="T"/>
    <property name="Type" value="Grass"/>
   </properties>
  </tile>
  <tile id="404">
   <properties>
    <property name="Type" value="Grass"/>
   </properties>
  </tile>
  <tile id="405">
   <properties>
    <property name="Type" value="Grass"/>
   </properties>
  </tile>
  <tile id="406">
   <properties>
    <property name="Type" value="Grass"/>
   </properties>
  </tile>
  <tile id="407">
   <properties>
    <property name="Type" value="Grass"/>
   </properties>
  </tile>
  <tile id="463">
   <properties>
    <property name="Type" value="Dirt"/>
   </properties>
  </tile>
  <tile id="488">
   <properties>
    <property name="Type" value="Dirt"/>
   </properties>
  </tile>
  <tile id="512">
   <properties>
    <property name="Type" value="Dirt"/>
   </properties>
  </tile>
  <tile id="513">
   <properties>
    <property name="Type" value="Dirt"/>
   </properties>
  </tile>
  <tile id="534">
   <properties>
    <property name="Type" value="Dirt"/>
   </properties>
  </tile>
  <tile id="536">
   <properties>
    <property name="Type" value="Dirt"/>
   </properties>
  </tile>
  <tile id="537">
   <properties>
    <property name="Type" value="Dirt"/>
   </properties>
  </tile>
  <tile id="538">
   <properties>
    <property name="Type" value="Dirt"/>
   </properties>
  </tile>
  <tile id="558">
   <properties>
    <property name="Diggable" value="T"/>
    <property name="Type" value="Dirt"/>
   </properties>
  </tile>
  <tile id="560">
   <properties>
    <property name="Diggable" value="T"/>
    <property name="Type" value="Dirt"/>
   </properties>
  </tile>
  <tile id="561">
   <properties>
    <property name="Type" value="Dirt"/>
   </properties>
  </tile>
  <tile id="562">
   <properties>
    <property name="Type" value="Dirt"/>
   </properties>
  </tile>
  <tile id="563">
   <properties>
    <property name="Type" value="Dirt"/>
   </properties>
  </tile>
  <tile id="564">
   <properties>
    <property name="Diggable" value="T"/>
    <property name="Type" value="Dirt"/>
   </properties>
  </tile>
  <tile id="565">
   <properties>
    <property name="Type" value="Dirt"/>
   </properties>
  </tile>
  <tile id="566">
   <properties>
    <property name="Type" value="Dirt"/>
   </properties>
  </tile>
  <tile id="567">
   <properties>
    <property name="Spawnable" value="T"/>
    <property name="Type" value="Grass"/>
   </properties>
  </tile>
  <tile id="568">
   <properties>
    <property name="Type" value="Grass"/>
   </properties>
  </tile>
  <tile id="569">
   <properties>
    <property name="Spawnable" value="T"/>
    <property name="Type" value="Grass"/>
   </properties>
  </tile>
  <tile id="570">
   <properties>
    <property name="Type" value="Grass"/>
   </properties>
  </tile>
  <tile id="583">
   <properties>
    <property name="Diggable" value="T"/>
    <property name="Type" value="Dirt"/>
   </properties>
  </tile>
  <tile id="585">
   <properties>
    <property name="Diggable" value="T"/>
    <property name="Type" value="Dirt"/>
   </properties>
  </tile>
  <tile id="586">
   <properties>
    <property name="Type" value="Dirt"/>
   </properties>
  </tile>
  <tile id="587">
   <properties>
    <property name="Diggable" value="T"/>
    <property name="Type" value="Dirt"/>
   </properties>
  </tile>
  <tile id="588">
   <properties>
    <property name="Type" value="Dirt"/>
   </properties>
  </tile>
  <tile id="589">
   <properties>
    <property name="Diggable" value="T"/>
    <property name="Type" value="Dirt"/>
   </properties>
  </tile>
  <tile id="590">
   <properties>
    <property name="Type" value="Dirt"/>
   </properties>
  </tile>
  <tile id="591">
   <properties>
    <property name="Type" value="Dirt"/>
   </properties>
  </tile>
  <tile id="592">
   <properties>
    <property name="Type" value="Grass"/>
   </properties>
  </tile>
  <tile id="593">
   <properties>
    <property name="Type" value="Grass"/>
   </properties>
  </tile>
  <tile id="594">
   <properties>
    <property name="Type" value="Grass"/>
   </properties>
  </tile>
  <tile id="595">
   <properties>
    <property name="Type" value="Grass"/>
   </properties>
  </tile>
  <tile id="596">
   <properties>
    <property name="Type" value="Dirt"/>
   </properties>
  </tile>
  <tile id="597">
   <properties>
    <property name="Type" value="Dirt"/>
   </properties>
  </tile>
  <tile id="598">
   <properties>
    <property name="Type" value="Stone"/>
   </properties>
  </tile>
  <tile id="599">
   <properties>
    <property name="Type" value="Stone"/>
   </properties>
  </tile>
  <tile id="606">
   <properties>
    <property name="Diggable" value="T"/>
    <property name="Type" value="Dirt"/>
   </properties>
  </tile>
  <tile id="607">
   <properties>
    <property name="Diggable" value="T"/>
    <property name="Type" value="Dirt"/>
   </properties>
  </tile>
  <tile id="608">
   <properties>
    <property name="Diggable" value="T"/>
    <property name="Type" value="Dirt"/>
   </properties>
  </tile>
  <tile id="610">
   <properties>
    <property name="Diggable" value="T"/>
    <property name="Type" value="Dirt"/>
   </properties>
  </tile>
  <tile id="611">
   <properties>
    <property name="Type" value="Dirt"/>
   </properties>
  </tile>
  <tile id="612">
   <properties>
    <property name="Type" value="Dirt"/>
   </properties>
  </tile>
  <tile id="613">
   <properties>
    <property name="Type" value="Dirt"/>
   </properties>
  </tile>
  <tile id="614">
   <properties>
    <property name="Diggable" value="T"/>
    <property name="Type" value="Dirt"/>
   </properties>
  </tile>
  <tile id="615">
   <properties>
    <property name="Type" value="Dirt"/>
   </properties>
  </tile>
  <tile id="616">
   <properties>
    <property name="Type" value="Dirt"/>
   </properties>
  </tile>
  <tile id="617">
   <properties>
    <property name="Type" value="Dirt"/>
   </properties>
  </tile>
  <tile id="618">
   <properties>
    <property name="Type" value="Dirt"/>
   </properties>
  </tile>
  <tile id="619">
   <properties>
    <property name="Type" value="Grass"/>
   </properties>
  </tile>
  <tile id="620">
   <properties>
    <property name="Type" value="Dirt"/>
   </properties>
  </tile>
  <tile id="621">
   <properties>
    <property name="Type" value="Dirt"/>
   </properties>
  </tile>
  <tile id="622">
   <properties>
    <property name="Type" value="Dirt"/>
   </properties>
  </tile>
  <tile id="623">
   <properties>
    <property name="Type" value="Stone"/>
   </properties>
  </tile>
  <tile id="628">
   <properties>
    <property name="Water" value="T"/>
   </properties>
  </tile>
  <tile id="629">
   <properties>
    <property name="Water" value="T"/>
   </properties>
  </tile>
  <tile id="630">
   <properties>
    <property name="Diggable" value="T"/>
    <property name="Type" value="Dirt"/>
   </properties>
  </tile>
  <tile id="631">
   <properties>
    <property name="Type" value="Dirt"/>
   </properties>
  </tile>
  <tile id="632">
   <properties>
    <property name="Diggable" value="T"/>
    <property name="Type" value="Dirt"/>
   </properties>
  </tile>
  <tile id="633">
   <properties>
    <property name="Type" value="Grass"/>
   </properties>
  </tile>
  <tile id="634">
   <properties>
    <property name="Spawnable" value="T"/>
    <property name="Type" value="Grass"/>
   </properties>
  </tile>
  <tile id="635">
   <properties>
    <property name="Type" value="Dirt"/>
   </properties>
  </tile>
  <tile id="636">
   <properties>
    <property name="Type" value="Dirt"/>
   </properties>
  </tile>
  <tile id="653">
   <properties>
    <property name="Water" value="T"/>
   </properties>
  </tile>
  <tile id="654">
   <properties>
    <property name="Type" value="Grass"/>
   </properties>
  </tile>
  <tile id="655">
   <properties>
    <property name="Type" value="Dirt"/>
   </properties>
  </tile>
  <tile id="656">
   <properties>
    <property name="Type" value="Dirt"/>
   </properties>
  </tile>
  <tile id="657">
   <properties>
    <property name="Type" value="Grass"/>
   </properties>
  </tile>
  <tile id="658">
   <properties>
    <property name="Type" value="Grass"/>
   </properties>
  </tile>
  <tile id="659">
   <properties>
    <property name="Type" value="Grass"/>
   </properties>
  </tile>
  <tile id="679">
   <properties>
    <property name="Type" value="Dirt"/>
   </properties>
  </tile>
  <tile id="680">
   <properties>
    <property name="Diggable" value="T"/>
    <property name="Type" value="Dirt"/>
   </properties>
  </tile>
  <tile id="681">
   <properties>
    <property name="Diggable" value="T"/>
    <property name="Type" value="Dirt"/>
   </properties>
  </tile>
  <tile id="682">
   <properties>
    <property name="Type" value="Dirt"/>
   </properties>
  </tile>
  <tile id="683">
   <properties>
    <property name="Type" value="Grass"/>
   </properties>
  </tile>
  <tile id="684">
   <properties>
    <property name="Type" value="Grass"/>
   </properties>
  </tile>
  <tile id="685">
   <properties>
    <property name="Diggable" value="T"/>
    <property name="Type" value="Dirt"/>
   </properties>
  </tile>
  <tile id="704">
   <properties>
    <property name="Type" value="Grass"/>
   </properties>
  </tile>
  <tile id="705">
   <properties>
    <property name="Type" value="Dirt"/>
   </properties>
  </tile>
  <tile id="706">
   <properties>
    <property name="Diggable" value="T"/>
    <property name="Type" value="Dirt"/>
   </properties>
  </tile>
  <tile id="707">
   <properties>
    <property name="Type" value="Grass"/>
   </properties>
  </tile>
  <tile id="729">
   <properties>
    <property name="Type" value="Wood"/>
   </properties>
  </tile>
  <tile id="730">
   <properties>
    <property name="Type" value="Wood"/>
   </properties>
  </tile>
  <tile id="734">
   <properties>
    <property name="Water" value="T"/>
   </properties>
  </tile>
  <tile id="754">
   <properties>
    <property name="Type" value="Wood"/>
   </properties>
  </tile>
  <tile id="755">
   <properties>
    <property name="Type" value="Wood"/>
   </properties>
  </tile>
  <tile id="759">
   <properties>
    <property name="Water" value="T"/>
   </properties>
  </tile>
  <tile id="779">
   <properties>
    <property name="Passable" value="T"/>
    <property name="Type" value="Wood"/>
   </properties>
  </tile>
  <tile id="780">
   <properties>
    <property name="Passable" value="T"/>
    <property name="Type" value="Wood"/>
   </properties>
  </tile>
  <tile id="781">
   <properties>
    <property name="Passable" value="T"/>
    <property name="Type" value="Wood"/>
   </properties>
  </tile>
  <tile id="782">
   <properties>
    <property name="Passable" value="T"/>
    <property name="Type" value="Wood"/>
   </properties>
  </tile>
  <tile id="809">
   <properties>
    <property name="Passable" value="T"/>
    <property name="Type" value="Wood"/>
   </properties>
  </tile>
  <tile id="812">
   <properties>
    <property name="Type" value="Stone"/>
   </properties>
  </tile>
  <tile id="813">
   <properties>
    <property name="Type" value="Stone"/>
   </properties>
  </tile>
  <tile id="834">
   <properties>
    <property name="Passable" value="T"/>
    <property name="Type" value="Wood"/>
   </properties>
  </tile>
  <tile id="838">
   <properties>
    <property name="Type" value="Stone"/>
   </properties>
  </tile>
  <tile id="859">
   <properties>
    <property name="Passable" value="T"/>
    <property name="Type" value="Wood"/>
   </properties>
  </tile>
  <tile id="884">
   <properties>
    <property name="Passable" value="T"/>
    <property name="Type" value="Wood"/>
   </properties>
  </tile>
  <tile id="947">
   <properties>
    <property name="Type" value="Stone"/>
   </properties>
  </tile>
  <tile id="948">
   <properties>
    <property name="Type" value="Stone"/>
   </properties>
  </tile>
  <tile id="949">
   <properties>
    <property name="Type" value="Stone"/>
   </properties>
  </tile>
  <tile id="972">
   <properties>
    <property name="Type" value="Stone"/>
   </properties>
  </tile>
  <tile id="973">
   <properties>
    <property name="Type" value="Stone"/>
   </properties>
  </tile>
  <tile id="974">
   <properties>
    <property name="Type" value="Stone"/>
   </properties>
  </tile>
  <tile id="998">
   <properties>
    <property name="Type" value="Stone"/>
   </properties>
  </tile>
  <tile id="999">
   <properties>
    <property name="Type" value="Stone"/>
   </properties>
  </tile>
  <tile id="1186">
   <properties>
    <property name="Water" value="T"/>
   </properties>
  </tile>
  <tile id="1187">
   <properties>
    <property name="Water" value="T"/>
   </properties>
  </tile>
  <tile id="1188">
   <properties>
    <property name="Water" value="T"/>
   </properties>
  </tile>
  <tile id="1211">
   <properties>
    <property name="Water" value="T"/>
   </properties>
  </tile>
  <tile id="1212">
   <properties>
    <property name="Water" value="T"/>
   </properties>
  </tile>
  <tile id="1213">
   <properties>
    <property name="Water" value="T"/>
   </properties>
  </tile>
  <tile id="1227">
   <properties>
    <property name="Water" value="T"/>
   </properties>
  </tile>
  <tile id="1228">
   <properties>
    <property name="Water" value="T"/>
   </properties>
  </tile>
  <tile id="1229">
   <properties>
    <property name="Water" value="T"/>
   </properties>
  </tile>
  <tile id="1230">
   <properties>
    <property name="Water" value="T"/>
   </properties>
  </tile>
  <tile id="1231">
   <properties>
    <property name="Water" value="T"/>
   </properties>
  </tile>
  <tile id="1237">
   <properties>
    <property name="Water" value="T"/>
   </properties>
  </tile>
  <tile id="1238">
   <properties>
    <property name="Water" value="T"/>
   </properties>
  </tile>
  <tile id="1239">
   <properties>
    <property name="Water" value="T"/>
   </properties>
  </tile>
  <tile id="1240">
   <properties>
    <property name="Water" value="T"/>
   </properties>
  </tile>
  <tile id="1241">
   <properties>
    <property name="Water" value="T"/>
   </properties>
  </tile>
  <tile id="1242">
   <properties>
    <property name="Water" value="T"/>
   </properties>
  </tile>
  <tile id="1243">
   <properties>
    <property name="Water" value="T"/>
   </properties>
  </tile>
  <tile id="1244">
   <properties>
    <property name="Water" value="T"/>
   </properties>
  </tile>
  <tile id="1245">
   <properties>
    <property name="Water" value="T"/>
   </properties>
  </tile>
  <tile id="1246">
   <properties>
    <property name="Passable" value="F"/>
    <property name="Water" value="T"/>
   </properties>
  </tile>
  <tile id="1247">
   <properties>
    <property name="Water" value="T"/>
   </properties>
  </tile>
  <tile id="1248">
   <properties>
    <property name="Water" value="T"/>
   </properties>
  </tile>
  <tile id="1249">
   <properties>
    <property name="Passable" value="F"/>
    <property name="Water" value="T"/>
   </properties>
  </tile>
  <tile id="1252">
   <properties>
    <property name="Water" value="T"/>
   </properties>
  </tile>
  <tile id="1253">
   <properties>
    <property name="Water" value="T"/>
   </properties>
  </tile>
  <tile id="1254">
   <properties>
    <property name="Water" value="T"/>
   </properties>
  </tile>
  <tile id="1255">
   <properties>
    <property name="Water" value="T"/>
   </properties>
  </tile>
  <tile id="1256">
   <properties>
    <property name="Water" value="T"/>
   </properties>
  </tile>
  <tile id="1263">
   <properties>
    <property name="Water" value="T"/>
   </properties>
  </tile>
  <tile id="1264">
   <properties>
    <property name="Water" value="T"/>
   </properties>
  </tile>
  <tile id="1265">
   <properties>
    <property name="Water" value="T"/>
   </properties>
  </tile>
  <tile id="1266">
   <properties>
    <property name="Passable" value="F"/>
    <property name="Water" value="T"/>
   </properties>
  </tile>
  <tile id="1267">
   <properties>
    <property name="Passable" value="F"/>
    <property name="Water" value="T"/>
   </properties>
  </tile>
  <tile id="1268">
   <properties>
    <property name="Water" value="T"/>
   </properties>
  </tile>
  <tile id="1269">
   <properties>
    <property name="Water" value="T"/>
   </properties>
  </tile>
  <tile id="1270">
   <properties>
    <property name="Water" value="T"/>
   </properties>
  </tile>
  <tile id="1271">
   <properties>
    <property name="Passable" value="F"/>
    <property name="Water" value="T"/>
   </properties>
  </tile>
  <tile id="1272">
   <properties>
    <property name="Water" value="T"/>
   </properties>
  </tile>
  <tile id="1273">
   <properties>
    <property name="Water" value="T"/>
   </properties>
  </tile>
  <tile id="1274">
   <properties>
    <property name="Water" value="T"/>
   </properties>
  </tile>
  <tile id="1277">
   <properties>
    <property name="Water" value="T"/>
   </properties>
  </tile>
  <tile id="1278">
   <properties>
    <property name="Water" value="T"/>
   </properties>
  </tile>
  <tile id="1279">
   <properties>
    <property name="Water" value="T"/>
   </properties>
  </tile>
  <tile id="1280">
   <properties>
    <property name="Water" value="T"/>
   </properties>
  </tile>
  <tile id="1281">
   <properties>
    <property name="Water" value="T"/>
   </properties>
  </tile>
  <tile id="1297">
   <properties>
    <property name="Water" value="T"/>
   </properties>
  </tile>
  <tile id="1298">
   <properties>
    <property name="Water" value="T"/>
   </properties>
  </tile>
  <tile id="1299">
   <properties>
    <property name="Passable" value="F"/>
    <property name="Water" value="T"/>
   </properties>
  </tile>
  <tile id="1302">
   <properties>
    <property name="Water" value="T"/>
   </properties>
  </tile>
  <tile id="1303">
   <properties>
    <property name="Water" value="T"/>
   </properties>
  </tile>
  <tile id="1304">
   <properties>
    <property name="Water" value="T"/>
   </properties>
  </tile>
  <tile id="1305">
   <properties>
    <property name="Water" value="T"/>
   </properties>
  </tile>
  <tile id="1306">
   <properties>
    <property name="Water" value="T"/>
   </properties>
  </tile>
  <tile id="1322">
   <properties>
    <property name="Water" value="T"/>
   </properties>
  </tile>
  <tile id="1323">
   <properties>
    <property name="Water" value="T"/>
   </properties>
  </tile>
  <tile id="1324">
   <properties>
    <property name="Water" value="T"/>
   </properties>
  </tile>
 </tileset>
 <tileset firstgid="7739" name="z_municipalbuilding_tiles" tilewidth="16" tileheight="16" tilecount="112" columns="8">
  <image source="spring_municipalbuilding_tiles.png" width="128" height="224"/>
  <tile id="89">
   <properties>
    <property name="Type" value="Stone"/>
   </properties>
  </tile>
 </tileset>
 <tileset firstgid="7851" name="z_SDSfurniture3" tilewidth="16" tileheight="16" tilecount="6944" columns="31">
  <image source="SDSfurniture3.png" width="496" height="3584"/>
  <tile id="1701">
   <animation>
    <frame tileid="1701" duration="500"/>
    <frame tileid="1702" duration="500"/>
    <frame tileid="1703" duration="500"/>
    <frame tileid="1704" duration="500"/>
   </animation>
  </tile>
  <tile id="1732">
   <animation>
    <frame tileid="1732" duration="500"/>
    <frame tileid="1733" duration="500"/>
    <frame tileid="1734" duration="500"/>
    <frame tileid="1735" duration="500"/>
   </animation>
  </tile>
 </tileset>
 <tileset firstgid="14795" name="z_SDSmap" tilewidth="16" tileheight="16" tilecount="8649" columns="93">
  <image source="spring_SDSmap" width="1500" height="1500"/>
  <tile id="284">
   <properties>
    <property name="Passable" value="T"/>
   </properties>
  </tile>
  <tile id="1581">
   <properties>
    <property name="Type" value="Stone"/>
   </properties>
  </tile>
  <tile id="1582">
   <properties>
    <property name="Type" value="Stone"/>
   </properties>
  </tile>
  <tile id="1583">
   <properties>
    <property name="Type" value="Stone"/>
   </properties>
  </tile>
  <tile id="1584">
   <properties>
    <property name="Type" value="Stone"/>
   </properties>
  </tile>
  <tile id="1585">
   <properties>
    <property name="Type" value="Stone"/>
   </properties>
  </tile>
  <tile id="1674">
   <properties>
    <property name="Type" value="Stone"/>
   </properties>
  </tile>
  <tile id="1675">
   <properties>
    <property name="Type" value="Stone"/>
   </properties>
  </tile>
  <tile id="1676">
   <properties>
    <property name="Type" value="Stone"/>
   </properties>
  </tile>
  <tile id="1677">
   <properties>
    <property name="Type" value="Stone"/>
   </properties>
  </tile>
  <tile id="1678">
   <properties>
    <property name="Type" value="Stone"/>
   </properties>
  </tile>
  <tile id="1767">
   <properties>
    <property name="Type" value="Stone"/>
   </properties>
  </tile>
  <tile id="1768">
   <properties>
    <property name="Type" value="Stone"/>
   </properties>
  </tile>
  <tile id="1769">
   <properties>
    <property name="Type" value="Stone"/>
   </properties>
  </tile>
  <tile id="1770">
   <properties>
    <property name="Type" value="Stone"/>
   </properties>
  </tile>
  <tile id="1771">
   <properties>
    <property name="Type" value="Stone"/>
   </properties>
  </tile>
  <tile id="1860">
   <properties>
    <property name="Passable" value="T"/>
    <property name="Type" value="Stone"/>
   </properties>
  </tile>
  <tile id="1861">
   <properties>
    <property name="Passable" value="T"/>
    <property name="Type" value="Stone"/>
   </properties>
  </tile>
  <tile id="1862">
   <properties>
    <property name="Passable" value="T"/>
    <property name="Type" value="Stone"/>
   </properties>
  </tile>
  <tile id="1863">
   <properties>
    <property name="Passable" value="T"/>
    <property name="Type" value="Stone"/>
   </properties>
  </tile>
  <tile id="1864">
   <properties>
    <property name="Passable" value="T"/>
    <property name="Type" value="Stone"/>
   </properties>
  </tile>
  <tile id="2527">
   <animation>
    <frame tileid="2527" duration="200"/>
    <frame tileid="2528" duration="200"/>
    <frame tileid="2529" duration="200"/>
    <frame tileid="2530" duration="200"/>
    <frame tileid="2531" duration="200"/>
    <frame tileid="2532" duration="200"/>
   </animation>
  </tile>
  <tile id="2541">
   <properties>
    <property name="Passable" value="T"/>
    <property name="Type" value="Stone"/>
   </properties>
  </tile>
  <tile id="2542">
   <properties>
    <property name="Passable" value="T"/>
    <property name="Type" value="Stone"/>
   </properties>
  </tile>
  <tile id="2543">
   <properties>
    <property name="Passable" value="T"/>
    <property name="Type" value="Stone"/>
   </properties>
  </tile>
  <tile id="2620">
   <animation>
    <frame tileid="2620" duration="200"/>
    <frame tileid="2621" duration="200"/>
    <frame tileid="2622" duration="200"/>
    <frame tileid="2623" duration="200"/>
    <frame tileid="2624" duration="200"/>
    <frame tileid="2625" duration="200"/>
   </animation>
  </tile>
  <tile id="2634">
   <properties>
    <property name="Passable" value="T"/>
    <property name="Type" value="Stone"/>
   </properties>
  </tile>
  <tile id="2635">
   <properties>
    <property name="Passable" value="T"/>
    <property name="Type" value="Stone"/>
   </properties>
  </tile>
  <tile id="2636">
   <properties>
    <property name="Passable" value="T"/>
    <property name="Type" value="Stone"/>
   </properties>
  </tile>
  <tile id="2713">
   <animation>
    <frame tileid="2713" duration="200"/>
    <frame tileid="2714" duration="200"/>
    <frame tileid="2715" duration="200"/>
    <frame tileid="2716" duration="200"/>
    <frame tileid="2717" duration="200"/>
    <frame tileid="2718" duration="200"/>
   </animation>
  </tile>
  <tile id="2727">
   <properties>
    <property name="Passable" value="T"/>
    <property name="Type" value="Stone"/>
   </properties>
  </tile>
  <tile id="2728">
   <properties>
    <property name="Passable" value="T"/>
    <property name="Type" value="Stone"/>
   </properties>
  </tile>
  <tile id="2729">
   <properties>
    <property name="Passable" value="T"/>
    <property name="Type" value="Stone"/>
   </properties>
  </tile>
  <tile id="2820">
   <properties>
    <property name="Passable" value="T"/>
    <property name="Type" value="Stone"/>
   </properties>
  </tile>
  <tile id="2821">
   <properties>
    <property name="Passable" value="T"/>
    <property name="Type" value="Stone"/>
   </properties>
  </tile>
  <tile id="2822">
   <properties>
    <property name="Passable" value="T"/>
    <property name="Type" value="Stone"/>
   </properties>
  </tile>
  <tile id="2913">
   <properties>
    <property name="Passable" value="T"/>
    <property name="Type" value="Stone"/>
   </properties>
  </tile>
  <tile id="2914">
   <properties>
    <property name="Passable" value="T"/>
    <property name="Type" value="Stone"/>
   </properties>
  </tile>
  <tile id="2915">
   <properties>
    <property name="Passable" value="T"/>
    <property name="Type" value="Stone"/>
   </properties>
  </tile>
  <tile id="2930">
   <animation>
    <frame tileid="2930" duration="300"/>
    <frame tileid="2933" duration="300"/>
    <frame tileid="2936" duration="300"/>
    <frame tileid="2939" duration="300"/>
   </animation>
  </tile>
  <tile id="2931">
   <animation>
    <frame tileid="2931" duration="300"/>
    <frame tileid="2934" duration="300"/>
    <frame tileid="2937" duration="300"/>
    <frame tileid="2940" duration="300"/>
   </animation>
  </tile>
  <tile id="2932">
   <animation>
    <frame tileid="2932" duration="300"/>
    <frame tileid="2935" duration="300"/>
    <frame tileid="2938" duration="300"/>
    <frame tileid="2941" duration="300"/>
   </animation>
  </tile>
  <tile id="3023">
   <animation>
    <frame tileid="3023" duration="300"/>
    <frame tileid="3026" duration="300"/>
    <frame tileid="3029" duration="300"/>
    <frame tileid="3032" duration="300"/>
   </animation>
  </tile>
  <tile id="3024">
   <animation>
    <frame tileid="3024" duration="300"/>
    <frame tileid="3027" duration="300"/>
    <frame tileid="3030" duration="300"/>
    <frame tileid="3033" duration="300"/>
   </animation>
  </tile>
  <tile id="3025">
   <animation>
    <frame tileid="3025" duration="300"/>
    <frame tileid="3028" duration="300"/>
    <frame tileid="3031" duration="300"/>
    <frame tileid="3034" duration="300"/>
   </animation>
  </tile>
  <tile id="3116">
   <animation>
    <frame tileid="3116" duration="300"/>
    <frame tileid="3119" duration="300"/>
    <frame tileid="3122" duration="300"/>
    <frame tileid="3125" duration="300"/>
   </animation>
  </tile>
  <tile id="3117">
   <animation>
    <frame tileid="3117" duration="300"/>
    <frame tileid="3120" duration="300"/>
    <frame tileid="3123" duration="300"/>
    <frame tileid="3126" duration="300"/>
   </animation>
  </tile>
  <tile id="3118">
   <animation>
    <frame tileid="3118" duration="300"/>
    <frame tileid="3121" duration="300"/>
    <frame tileid="3124" duration="300"/>
    <frame tileid="3127" duration="300"/>
   </animation>
  </tile>
  <tile id="5522">
   <properties>
    <property name="Passable" value="T"/>
   </properties>
  </tile>
  <tile id="5608">
   <properties>
    <property name="Passable" value="T"/>
   </properties>
  </tile>
  <tile id="5701">
   <properties>
    <property name="Passable" value="T"/>
   </properties>
  </tile>
  <tile id="5702">
   <properties>
    <property name="Passable" value="T"/>
   </properties>
  </tile>
  <tile id="5707">
   <properties>
    <property name="Passable" value="T"/>
   </properties>
  </tile>
  <tile id="6605">
   <properties>
    <property name="Passable" value="T"/>
   </properties>
  </tile>
  <tile id="6606">
   <properties>
    <property name="Passable" value="T"/>
   </properties>
  </tile>
  <tile id="6607">
   <properties>
    <property name="Passable" value="T"/>
   </properties>
  </tile>
  <tile id="6608">
   <properties>
    <property name="Passable" value="T"/>
   </properties>
  </tile>
  <tile id="6609">
   <properties>
    <property name="Passable" value="T"/>
   </properties>
  </tile>
  <tile id="6610">
   <properties>
    <property name="Passable" value="T"/>
   </properties>
  </tile>
  <tile id="6611">
   <properties>
    <property name="Passable" value="T"/>
    <property name="Type" value="Stone"/>
   </properties>
  </tile>
  <tile id="6612">
   <properties>
    <property name="Passable" value="T"/>
    <property name="Type" value="Stone"/>
   </properties>
  </tile>
  <tile id="6613">
   <properties>
    <property name="Passable" value="T"/>
    <property name="Type" value="Stone"/>
   </properties>
  </tile>
  <tile id="6614">
   <properties>
    <property name="Passable" value="T"/>
    <property name="Type" value="Stone"/>
   </properties>
  </tile>
  <tile id="6615">
   <properties>
    <property name="Passable" value="T"/>
    <property name="Type" value="Stone"/>
   </properties>
  </tile>
  <tile id="6616">
   <properties>
    <property name="Passable" value="T"/>
    <property name="Type" value="Stone"/>
   </properties>
  </tile>
  <tile id="6617">
   <properties>
    <property name="Passable" value="T"/>
    <property name="Type" value="Stone"/>
   </properties>
  </tile>
  <tile id="6618">
   <properties>
    <property name="Passable" value="T"/>
    <property name="Type" value="Stone"/>
   </properties>
  </tile>
  <tile id="6619">
   <properties>
    <property name="Passable" value="T"/>
    <property name="Type" value="Stone"/>
   </properties>
  </tile>
  <tile id="6620">
   <properties>
    <property name="Passable" value="T"/>
    <property name="Type" value="Stone"/>
   </properties>
  </tile>
  <tile id="6621">
   <properties>
    <property name="Passable" value="T"/>
    <property name="Type" value="Stone"/>
   </properties>
  </tile>
  <tile id="6622">
   <properties>
    <property name="Passable" value="T"/>
    <property name="Type" value="Stone"/>
   </properties>
  </tile>
  <tile id="6623">
   <properties>
    <property name="Passable" value="T"/>
    <property name="Type" value="Stone"/>
   </properties>
  </tile>
  <tile id="6624">
   <properties>
    <property name="Passable" value="T"/>
    <property name="Type" value="Stone"/>
   </properties>
  </tile>
  <tile id="6625">
   <properties>
    <property name="Passable" value="T"/>
   </properties>
  </tile>
  <tile id="6626">
   <properties>
    <property name="Passable" value="T"/>
   </properties>
  </tile>
  <tile id="6627">
   <properties>
    <property name="Passable" value="T"/>
   </properties>
  </tile>
  <tile id="6628">
   <properties>
    <property name="Passable" value="T"/>
   </properties>
  </tile>
  <tile id="6629">
   <properties>
    <property name="Passable" value="T"/>
   </properties>
  </tile>
  <tile id="6630">
   <properties>
    <property name="Passable" value="T"/>
   </properties>
  </tile>
  <tile id="6703">
   <properties>
    <property name="Passable" value="T"/>
   </properties>
  </tile>
  <tile id="6704">
   <properties>
    <property name="Passable" value="T"/>
    <property name="Type" value="Stone"/>
   </properties>
  </tile>
  <tile id="6705">
   <properties>
    <property name="Passable" value="T"/>
    <property name="Type" value="Stone"/>
   </properties>
  </tile>
  <tile id="6706">
   <properties>
    <property name="Passable" value="T"/>
    <property name="Type" value="Stone"/>
   </properties>
  </tile>
  <tile id="6707">
   <properties>
    <property name="Passable" value="T"/>
    <property name="Type" value="Stone"/>
   </properties>
  </tile>
  <tile id="6708">
   <properties>
    <property name="Passable" value="T"/>
    <property name="Type" value="Stone"/>
   </properties>
  </tile>
  <tile id="6709">
   <properties>
    <property name="Passable" value="T"/>
    <property name="Type" value="Stone"/>
   </properties>
  </tile>
  <tile id="6710">
   <properties>
    <property name="Passable" value="T"/>
    <property name="Type" value="Stone"/>
   </properties>
  </tile>
  <tile id="6711">
   <properties>
    <property name="Passable" value="T"/>
    <property name="Type" value="Stone"/>
   </properties>
  </tile>
  <tile id="6712">
   <properties>
    <property name="Passable" value="T"/>
    <property name="Type" value="Stone"/>
   </properties>
  </tile>
  <tile id="6713">
   <properties>
    <property name="Passable" value="T"/>
    <property name="Type" value="Stone"/>
   </properties>
  </tile>
  <tile id="6714">
   <properties>
    <property name="Passable" value="T"/>
    <property name="Type" value="Stone"/>
   </properties>
  </tile>
  <tile id="6715">
   <properties>
    <property name="Passable" value="T"/>
    <property name="Type" value="Stone"/>
   </properties>
  </tile>
  <tile id="6716">
   <properties>
    <property name="Passable" value="T"/>
    <property name="Type" value="Stone"/>
   </properties>
  </tile>
  <tile id="6717">
   <properties>
    <property name="Passable" value="T"/>
    <property name="Type" value="Stone"/>
   </properties>
  </tile>
  <tile id="6718">
   <properties>
    <property name="Passable" value="T"/>
   </properties>
  </tile>
 </tileset>
 <layer id="1" name="Back" width="16" height="20">
  <data encoding="csv">
1730,1731,5939,6114,6168,6169,6169,6170,6115,6117,6140,6140,6140,6167,6168,6169,
2052,2053,5939,6139,6140,6040,6041,6042,6140,6141,5914,5939,5915,6139,6140,6167,
2084,2085,6089,6091,5939,5939,5939,5939,5939,5939,5939,5939,5939,5939,5939,6139,
2120,1859,5915,6114,6118,6119,6119,6120,6115,6115,5939,5939,5939,5939,5939,5939,
1858,1763,5939,6114,6168,6169,6169,6170,6115,6115,6090,6090,6090,6090,6090,6090,
1890,1763,5939,6139,6140,6040,6041,6042,6115,6115,6115,6119,6119,6144,6119,6119,
1857,1763,6089,6091,5939,5939,5939,5939,6115,6115,6118,6144,6144,6144,6144,6144,
1890,1764,6114,6116,5939,5939,5939,5939,6115,6115,6143,6144,6144,6144,6144,5920,
1858,1763,6089,6142,6090,6090,6090,6090,6115,6115,6143,6144,6144,6144,6144,6144,
2025,1763,6114,6115,6118,6119,6119,6119,6115,6115,6143,6144,6144,6144,6144,6144,
1857,1763,6039,1761,1889,1889,1890,1890,1763,6114,6168,6144,6144,6144,6144,6144,
1890,1764,6039,1793,1827,1889,1890,1859,1795,6114,6115,6064,6143,6144,6144,6144,
1762,1763,6039,6039,1796,1762,1857,1764,6089,6092,6115,6115,6168,6144,6144,6144,
2025,1764,5914,6039,1796,1889,1890,1764,6114,6115,6115,6115,6115,6144,6144,6144,
1891,1763,6039,6039,1796,1889,1890,1764,6114,6115,6115,6069,6115,6144,6144,6144,
2025,1825,1732,1732,1826,1857,1857,1764,6114,6068,6115,6064,6115,6144,6144,6144,
1857,1889,1890,1858,1889,1891,1858,1764,5939,5939,6139,6167,6115,6115,5939,5939,
1767,1857,1762,1858,1857,1889,1890,1764,5914,5939,5939,6139,6140,6115,1761,1762,
1828,1794,1794,1827,1858,1857,1762,1825,1732,1732,1732,1732,1765,1732,1826,1762,
5939,5939,5915,1796,1890,1857,1857,1762,1858,1857,1857,1858,1890,1762,1890,1857
</data>
 </layer>
 <layer id="17" name="Back1" width="16" height="20">
  <data encoding="csv">
0,0,0,0,0,0,0,0,0,0,0,0,0,0,0,0,
0,0,0,0,0,0,0,0,0,0,0,0,0,0,0,0,
0,0,0,0,0,0,0,0,0,0,0,0,0,0,0,0,
0,0,0,0,0,0,0,0,0,0,0,0,0,0,0,0,
0,0,0,0,0,0,0,0,0,0,0,0,0,0,0,0,
0,0,0,0,0,0,0,0,0,0,4751,0,0,0,0,0,
0,0,0,0,0,0,0,0,0,0,4812,0,0,0,0,0,
0,0,0,0,0,0,0,0,0,0,4751,0,0,0,0,0,
0,0,0,0,0,0,0,0,0,0,2147488428,0,0,0,0,0,
0,0,0,0,0,0,0,0,0,0,4751,0,0,0,0,0,
0,0,0,0,0,0,0,0,0,0,4812,0,0,0,0,0,
0,0,0,0,0,0,0,0,2147488430,4780,4782,0,0,0,0,0,
0,0,0,0,0,0,0,0,0,0,0,0,0,0,0,0,
0,0,0,0,0,0,0,0,0,0,0,0,0,0,0,0,
0,0,0,0,0,0,0,0,0,0,0,0,0,0,0,0,
0,0,0,0,0,0,0,0,0,0,0,0,0,0,0,0,
0,0,0,0,0,0,0,0,0,0,0,0,0,0,0,0,
0,0,0,0,0,0,0,0,0,0,0,0,0,0,0,0,
0,0,0,0,0,0,0,0,0,0,0,0,0,0,0,0,
0,0,0,0,0,0,0,0,0,0,0,0,0,0,0,0
</data>
 </layer>
 <objectgroup id="2" name="Back"/>
 <layer id="3" name="Back2" width="16" height="20">
  <properties>
   <property name="Draw" value="Back"/>
  </properties>
  <data encoding="csv">
0,0,0,0,0,0,0,0,0,0,0,0,0,0,0,0,
0,0,0,0,0,0,0,0,0,0,0,0,0,0,0,0,
0,0,0,0,0,0,0,0,0,0,0,0,0,0,0,0,
0,0,0,0,0,0,0,0,0,0,0,0,0,0,0,0,
0,0,3617,0,0,0,0,0,0,0,0,0,0,0,0,0,
0,3427,3617,0,0,0,0,0,0,0,0,0,0,0,0,0,
0,3464,3617,0,0,0,0,0,0,4774,4775,0,0,0,0,0,
0,3464,3617,0,0,0,0,0,0,0,0,0,0,0,0,0,
0,3464,3617,0,0,0,0,0,0,0,0,0,0,0,0,0,
0,3464,3617,0,0,0,0,0,0,0,0,0,0,0,0,0,
0,3426,3636,3510,3640,3640,3640,3640,3492,3491,0,0,0,0,0,0,
0,0,0,0,0,0,0,0,0,0,0,5827,0,0,0,0,
0,0,0,0,0,0,0,0,0,0,0,0,0,0,0,0,
0,0,0,0,0,0,0,0,0,0,0,0,0,0,0,0,
0,0,0,0,0,0,0,0,0,0,0,3445,3520,3520,0,0,
0,0,0,0,0,0,0,0,0,19484,19485,19486,3520,3520,0,0,
0,0,0,0,0,0,0,0,0,19577,19578,19579,3520,0,0,0,
0,0,0,0,0,0,19667,0,0,0,0,3464,3520,0,0,0,
0,0,0,0,0,0,19760,0,0,0,0,3426,3471,3471,3471,3471,
0,0,0,0,0,0,0,0,0,19856,19857,19858,19859,0,0,0
</data>
 </layer>
 <objectgroup id="4" name="Back2"/>
 <layer id="5" name="Back3" width="16" height="20">
  <properties>
   <property name="Draw" value="Back"/>
  </properties>
  <data encoding="csv">
0,0,0,0,0,0,0,0,0,0,0,0,0,0,0,0,
0,0,0,0,0,0,0,0,0,0,0,0,0,0,0,0,
0,0,6231,0,0,0,0,0,0,6232,0,0,0,0,0,0,
0,0,6256,0,0,0,0,0,0,6257,0,0,0,0,0,0,
0,0,6281,0,0,0,0,0,0,6309,0,0,0,0,0,0,
0,0,6306,0,0,0,0,0,0,0,0,0,0,0,0,0,
0,0,0,0,0,0,0,0,0,0,0,0,0,0,0,0,
0,0,0,0,0,0,0,0,0,0,0,0,0,0,0,0,
0,0,0,0,0,0,0,0,0,0,0,0,0,0,0,0,
0,0,0,0,0,0,0,0,0,0,0,0,0,0,0,0,
0,0,0,0,0,0,0,0,0,0,0,0,0,0,0,0,
0,0,0,0,0,0,0,0,0,0,0,0,0,0,0,0,
0,0,0,0,0,0,0,0,0,0,0,0,0,0,0,0,
0,0,0,0,0,0,0,0,0,0,0,0,0,0,0,0,
0,0,0,0,0,0,0,0,0,0,0,0,0,0,0,0,
0,0,0,0,0,0,0,0,0,0,0,0,0,0,0,0,
0,0,0,0,0,0,0,0,0,0,0,0,0,0,0,0,
0,0,0,0,0,0,0,0,0,0,0,0,0,0,0,0,
0,0,0,0,0,0,0,0,0,0,0,0,0,0,0,0,
0,0,0,0,0,0,0,0,0,0,0,0,0,19860,19861,0
</data>
 </layer>
 <objectgroup id="6" name="Back3"/>
 <layer id="7" name="Buildings" width="16" height="20">
  <data encoding="csv">
1312,6180,5866,5877,5878,5866,5893,5866,5827,5828,5829,6021,5866,5866,6071,5866,
1312,6205,5996,5866,5866,5866,5866,6071,5866,5866,5866,0,5866,5866,5866,5866,
1312,6209,6231,6232,6231,6232,6210,6232,6231,6232,2147489780,6132,6231,6228,6204,5866,
1312,6255,7763,7764,7765,7766,7767,7768,7769,7770,6254,6157,6256,6253,6229,6232,
1344,6280,7771,7772,7773,7774,7775,7776,7777,7778,6310,2147489830,6281,6212,6281,6257,
0,6305,7779,7780,7781,7782,7783,7784,7785,7786,0,2147489854,6306,6307,6281,6282,
0,0,7787,7788,7789,7790,7791,7792,7793,7794,0,1199,0,0,6304,6307,
0,2124,7795,7796,7797,7798,7799,7800,7801,7802,0,0,0,0,0,0,
0,0,7803,7804,7805,7806,7807,7808,7809,7810,0,0,5907,5908,0,0,
0,0,7811,7812,7813,7814,7815,7816,7817,7818,0,0,5932,5933,0,0,
0,0,1443,1444,7821,0,0,7824,1443,1444,0,0,0,0,0,0,
0,0,0,0,0,0,0,0,0,0,0,0,5828,5829,0,0,
0,0,0,0,0,0,0,0,0,0,0,0,0,0,0,0,
0,0,0,0,0,0,0,0,0,0,0,0,1569,1570,1571,1572,
0,0,0,0,0,0,0,0,6147,6148,6148,6149,1601,1602,1603,1604,
0,0,0,2124,0,0,0,0,0,0,0,0,1633,1634,1635,1636,
0,0,0,0,0,0,0,0,19576,0,0,0,19580,1666,1667,1668,
0,0,0,0,0,0,0,19668,19669,0,0,0,19673,1698,1699,1700,
0,0,0,0,0,0,0,19761,19762,19763,19764,19765,19766,19767,19768,0,
0,0,0,0,0,0,0,19854,19855,0,0,0,0,0,0,0
</data>
 </layer>
 <objectgroup id="8" name="Buildings">
  <object id="12" name="TileData" x="240" y="272" width="16" height="16">
   <properties>
    <property name="Action" value="LockedDoorWarp 10 19 Hospital 900 1500"/>
   </properties>
  </object>
  <object id="64" name="TileData" x="144" y="80" width="16" height="16">
   <properties>
    <property name="Action" value="LockedDoorWarp 28 7 MunicipalFloor2 900 2200"/>
   </properties>
  </object>
  <object id="65" name="TileData" x="96" y="144" width="16" height="16">
   <properties>
    <property name="Action" value="LockedDoorWarp 10 19 MunicipalFloor1 900 1700"/>
   </properties>
  </object>
  <object id="66" name="TileData" x="80" y="144" width="16" height="16">
   <properties>
    <property name="Action" value="LockedDoorWarp 9 19 MunicipalFloor1 900 1700"/>
   </properties>
  </object>
  <object id="67" name="TileData" x="176" y="96" width="16" height="16">
   <properties>
    <property name="Action" value="Garbage MV.Municipal"/>
   </properties>
  </object>
  <object id="68" name="TileData" x="160" y="288" width="16" height="16">
   <properties>
    <property name="Action" value="OpenShop SDSeasonalS down 600 2600"/>
   </properties>
  </object>
  <object id="69" name="TileData" x="144" y="288" width="16" height="16">
   <properties>
    <property name="Action" value="OpenShop SDSeasonalS down 600 2600"/>
   </properties>
  </object>
  <object id="70" name="TileData" x="176" y="288" width="16" height="16">
   <properties>
    <property name="Action" value="OpenShop SDSeasonalS down 600 2600"/>
   </properties>
  </object>
 </objectgroup>
 <layer id="9" name="Buildings2" width="16" height="20">
  <properties>
   <property name="Draw" value="Buildings"/>
  </properties>
  <data encoding="csv">
0,0,0,0,0,0,0,0,0,0,0,0,0,0,0,0,
0,0,0,0,0,0,0,0,0,0,0,0,0,0,0,0,
0,0,7755,7756,7757,7758,7759,7760,7761,7762,0,0,0,0,0,0,
0,0,0,0,0,0,0,0,0,0,0,0,0,0,0,0,
0,0,0,0,0,0,0,0,0,0,0,0,0,0,0,0,
0,0,0,0,0,0,0,0,0,0,0,0,0,0,0,0,
0,0,0,0,0,0,0,0,0,0,0,0,0,0,0,0,
0,0,0,0,0,0,0,0,0,0,0,0,0,0,0,0,
0,0,0,0,0,0,0,0,0,0,0,0,0,0,0,0,
0,0,1411,1412,0,0,0,0,1411,1412,0,0,0,0,0,0,
0,0,0,0,0,0,0,0,0,0,0,0,0,0,0,0,
0,0,0,0,0,0,0,0,0,0,0,0,0,0,0,0,
0,0,0,0,0,0,0,0,0,0,0,0,0,0,0,0,
0,0,0,0,0,0,0,0,0,0,0,0,0,0,0,0,
0,0,0,0,0,0,0,0,0,0,0,0,0,0,0,0,
0,0,0,0,0,0,0,0,0,0,0,0,0,0,0,0,
0,0,0,0,0,0,0,0,0,0,0,0,0,0,0,0,
0,0,0,0,0,0,0,0,0,0,0,0,0,0,0,0,
0,0,0,0,0,0,0,0,0,0,0,0,0,0,0,0,
0,0,0,0,0,0,0,0,0,0,0,0,0,0,0,0
</data>
 </layer>
 <objectgroup id="10" name="Buildings2"/>
 <layer id="11" name="Paths" width="16" height="20">
  <data encoding="csv">
0,0,0,0,0,0,0,0,0,0,0,0,0,0,0,0,
0,0,0,0,0,0,0,0,0,0,0,0,0,0,0,0,
0,0,0,0,0,0,0,0,0,0,0,0,0,0,0,0,
0,0,0,0,0,0,0,0,0,0,0,0,0,0,0,0,
0,0,0,0,0,0,0,0,0,0,0,0,0,0,0,0,
0,0,0,0,0,0,0,0,0,0,0,0,0,0,0,0,
0,0,0,0,0,0,0,0,0,0,0,0,0,0,0,0,
0,0,0,0,0,0,0,0,0,0,0,0,0,0,0,0,
0,0,0,0,0,0,0,0,0,0,0,0,0,0,0,0,
0,0,0,0,0,0,0,0,0,0,0,0,0,0,0,0,
0,0,0,0,0,0,0,0,0,0,0,0,0,0,0,0,
0,0,0,0,5735,0,0,0,0,0,0,0,0,0,0,0,
0,0,0,0,0,0,0,0,5735,0,0,0,0,0,0,0,
0,0,0,0,0,0,0,0,0,0,0,0,0,0,0,0,
0,0,0,0,0,0,0,0,0,0,0,0,0,0,0,0,
0,0,0,0,0,0,0,0,0,0,0,0,0,0,0,0,
0,0,0,0,0,0,0,0,0,0,0,0,0,0,0,0,
0,0,0,0,0,0,0,0,0,0,0,0,0,0,0,0,
0,0,0,0,0,0,0,0,0,0,0,0,0,0,0,0,
0,0,0,0,0,0,0,0,0,0,0,0,0,0,0,0
</data>
 </layer>
 <objectgroup id="12" name="Paths"/>
 <layer id="13" name="Front" width="16" height="20">
  <data encoding="csv">
0,0,0,0,0,0,0,0,0,0,0,0,0,0,0,0,
0,0,0,0,0,0,0,0,0,0,0,0,0,0,0,0,
0,0,0,0,0,0,0,0,0,0,0,0,0,0,0,0,
0,0,0,0,0,0,0,0,0,0,0,0,0,0,0,5767,
0,2028,0,0,0,0,0,0,0,0,5805,0,0,0,0,5792,
0,2060,0,0,0,0,0,0,0,0,0,1167,0,0,0,5817,
0,2092,0,0,0,0,0,0,0,0,0,0,0,0,0,5842,
0,0,0,0,0,0,0,0,0,0,0,1130,5882,5883,0,0,
0,0,0,0,0,0,0,0,0,0,0,1162,0,0,0,0,
0,0,0,0,0,0,0,0,0,0,0,0,0,0,0,0,
0,0,0,0,0,0,0,0,0,0,0,5802,5803,5804,0,0,
0,0,0,0,0,0,0,0,0,0,0,0,0,0,0,0,
0,0,0,2028,0,0,0,0,0,0,0,0,1537,0,0,0,
0,0,0,2060,0,0,0,0,6122,6123,6123,6124,19301,0,0,0,
0,0,0,2092,0,0,0,0,19390,0,0,0,0,0,0,0,
0,0,0,0,0,0,0,0,0,0,0,0,0,0,0,0,
0,0,0,0,0,0,0,19575,0,0,0,0,0,19581,19582,0,
0,0,0,0,0,0,0,0,0,19670,19671,19672,0,19674,19675,0,
0,0,0,0,0,0,0,0,0,0,0,0,0,0,0,0,
0,0,0,0,0,0,0,0,0,0,0,0,0,0,0,0
</data>
 </layer>
 <objectgroup id="14" name="Front"/>
 <layer id="15" name="AlwaysFront" width="16" height="20">
  <data encoding="csv">
0,0,7739,7740,7741,7742,7743,7744,7745,7746,0,0,0,0,0,0,
0,0,7747,7748,7749,7750,7751,7752,7753,7754,0,0,0,0,0,0,
0,0,0,0,0,0,0,0,0,0,0,0,0,0,0,0,
0,0,0,0,0,0,0,0,0,0,4715,5781,5782,5783,5784,5785,
0,2028,0,0,0,0,0,0,0,0,4745,5806,5807,5808,5809,5810,
0,2060,0,0,0,0,0,0,0,0,5830,5831,5832,5833,5834,5835,
0,0,0,0,0,0,0,0,0,0,5855,5856,5857,5858,5859,5860,
0,0,0,0,0,0,0,0,0,0,0,0,0,0,0,0,
0,0,0,0,7829,0,0,7829,0,0,0,0,0,0,1402,1403,
0,0,0,0,0,0,0,0,0,0,0,5777,5778,5779,1434,1435,
0,0,0,0,0,0,0,0,0,0,0,0,0,0,1475,1476,
0,0,0,0,0,0,0,0,0,19112,19113,19114,0,1506,1507,1508,
0,0,0,2028,0,0,0,0,19204,19205,19206,19207,19208,1538,1539,1540,
0,0,0,2060,0,0,0,0,19297,19298,19299,19300,0,19302,0,0,
0,0,0,0,0,0,0,0,19390,19391,19392,19393,19394,19395,0,0,
0,0,0,0,0,0,0,0,19483,19386,19387,19388,19487,19488,0,0,
0,0,0,0,0,0,0,0,0,19479,9552,19481,0,0,0,0,
0,0,0,0,0,0,0,0,0,0,9583,0,0,0,0,0,
0,0,0,0,0,0,0,0,0,0,0,0,0,0,0,0,
0,0,0,0,0,0,0,0,0,0,0,0,0,0,0,0
</data>
 </layer>
 <objectgroup id="16" name="AlwaysFront"/>
 <layer id="18" name="AlwaysFront2" width="16" height="20">
  <data encoding="csv">
0,0,0,0,0,0,0,0,0,0,0,0,0,0,0,0,
0,0,0,0,0,0,0,0,0,0,0,0,0,0,0,0,
0,0,0,0,0,0,0,0,0,0,0,0,0,0,0,0,
0,0,0,0,0,0,0,0,0,0,0,0,0,0,0,0,
0,0,0,0,0,0,0,0,0,0,0,0,0,0,0,0,
0,0,0,0,0,0,0,0,0,0,0,0,0,0,0,0,
0,0,0,0,0,0,0,0,0,0,0,0,0,0,0,0,
0,0,0,0,0,0,0,0,0,0,0,0,0,0,0,0,
0,0,0,0,0,0,0,0,0,0,0,0,0,0,0,0,
0,0,0,0,0,0,0,0,0,0,0,0,0,0,0,0,
0,0,0,0,0,0,0,0,0,0,0,0,0,0,0,0,
0,0,0,0,0,0,0,0,0,0,0,0,0,0,0,0,
0,0,0,0,0,0,0,0,0,0,0,0,0,0,0,0,
0,0,0,0,0,0,0,0,0,0,0,0,0,19302,0,0,
0,0,0,0,0,0,0,0,0,0,0,0,0,19395,0,0,
0,0,0,0,0,0,0,0,0,0,0,0,19487,19488,0,0,
0,0,0,0,0,0,0,0,0,0,0,0,0,0,0,0,
0,0,0,0,0,0,0,0,0,0,0,0,0,0,0,0,
0,0,0,0,0,0,0,0,0,0,0,0,0,0,0,0,
0,0,0,0,0,0,0,0,0,0,0,0,0,0,0,0
</data>
 </layer>
</map>
