<?xml version="1.0" encoding="UTF-8"?>
<map version="1.10" tiledversion="1.12.2" orientation="orthogonal" renderorder="right-down" compressionlevel="0" width="15" height="17" tilewidth="16" tileheight="16" infinite="0" nextlayerid="25" nextobjectid="53">
 <tileset firstgid="1" name="characters" tilewidth="16" tileheight="16" tilecount="144" columns="8">
  <image source="characterSheet" width="128" height="288"/>
 </tileset>
 <tileset firstgid="145" name="fest" tilewidth="16" tileheight="16" tilecount="1024" columns="32">
  <image source="Festivals" width="512" height="512"/>
  <tile id="960">
   <animation>
    <frame tileid="960" duration="100"/>
    <frame tileid="961" duration="100"/>
    <frame tileid="962" duration="100"/>
    <frame tileid="963" duration="100"/>
    <frame tileid="964" duration="100"/>
    <frame tileid="963" duration="100"/>
    <frame tileid="962" duration="100"/>
    <frame tileid="961" duration="100"/>
   </animation>
  </tile>
  <tile id="992">
   <animation>
    <frame tileid="992" duration="100"/>
    <frame tileid="993" duration="100"/>
    <frame tileid="994" duration="100"/>
    <frame tileid="995" duration="100"/>
    <frame tileid="996" duration="100"/>
    <frame tileid="995" duration="100"/>
    <frame tileid="994" duration="100"/>
    <frame tileid="993" duration="100"/>
   </animation>
  </tile>
 </tileset>
 <tileset firstgid="1169" name="Landscape" tilewidth="16" tileheight="16" tilecount="1975" columns="25">
  <image source="spring_outdoorsTileSheet" width="400" height="1264"/>
  <tile id="150">
   <properties>
    <property name="Spawnable" value="T"/>
    <property name="Type" value="Grass"/>
   </properties>
   <animation>
    <frame tileid="150" duration="100"/>
    <frame tileid="420" duration="100"/>
    <frame tileid="421" duration="100"/>
    <frame tileid="422" duration="100"/>
    <frame tileid="423" duration="100"/>
    <frame tileid="420" duration="100"/>
    <frame tileid="150" duration="100"/>
    <frame tileid="150" duration="100"/>
    <frame tileid="150" duration="100"/>
    <frame tileid="150" duration="100"/>
    <frame tileid="150" duration="100"/>
    <frame tileid="150" duration="100"/>
    <frame tileid="150" duration="100"/>
    <frame tileid="150" duration="100"/>
    <frame tileid="150" duration="100"/>
    <frame tileid="150" duration="100"/>
    <frame tileid="150" duration="100"/>
    <frame tileid="150" duration="100"/>
    <frame tileid="150" duration="100"/>
    <frame tileid="150" duration="100"/>
    <frame tileid="150" duration="100"/>
    <frame tileid="150" duration="100"/>
    <frame tileid="150" duration="100"/>
    <frame tileid="150" duration="100"/>
    <frame tileid="150" duration="100"/>
    <frame tileid="150" duration="100"/>
    <frame tileid="150" duration="100"/>
    <frame tileid="150" duration="100"/>
    <frame tileid="150" duration="100"/>
    <frame tileid="150" duration="100"/>
    <frame tileid="150" duration="100"/>
   </animation>
  </tile>
  <tile id="151">
   <properties>
    <property name="Type" value="Grass"/>
   </properties>
   <animation>
    <frame tileid="151" duration="1000"/>
    <frame tileid="152" duration="1000"/>
   </animation>
  </tile>
  <tile id="152">
   <animation>
    <frame tileid="152" duration="1000"/>
    <frame tileid="151" duration="1000"/>
   </animation>
  </tile>
  <tile id="153">
   <properties>
    <property name="Diggable" value="T"/>
    <property name="Type" value="Dirt"/>
   </properties>
  </tile>
  <tile id="156">
   <properties>
    <property name="Spawnable" value="T"/>
    <property name="Type" value="Grass"/>
   </properties>
  </tile>
  <tile id="175">
   <properties>
    <property name="Spawnable" value="T"/>
    <property name="Type" value="Grass"/>
   </properties>
  </tile>
  <tile id="176">
   <properties>
    <property name="Diggable" value="T"/>
    <property name="Type" value="Dirt"/>
   </properties>
  </tile>
  <tile id="177">
   <properties>
    <property name="Type" value="Dirt"/>
   </properties>
  </tile>
  <tile id="178">
   <properties>
    <property name="Type" value="Dirt"/>
   </properties>
  </tile>
  <tile id="179">
   <properties>
    <property name="Type" value="Grass"/>
   </properties>
  </tile>
  <tile id="180">
   <properties>
    <property name="Spawnable" value="T"/>
    <property name="Type" value="Grass"/>
   </properties>
  </tile>
  <tile id="181">
   <properties>
    <property name="Type" value="Dirt"/>
   </properties>
  </tile>
  <tile id="182">
   <properties>
    <property name="Type" value="Dirt"/>
   </properties>
  </tile>
  <tile id="183">
   <animation>
    <frame tileid="183" duration="1000"/>
    <frame tileid="1182" duration="1000"/>
   </animation>
  </tile>
  <tile id="184">
   <animation>
    <frame tileid="184" duration="1000"/>
    <frame tileid="1183" duration="1000"/>
   </animation>
  </tile>
  <tile id="185">
   <animation>
    <frame tileid="185" duration="1000"/>
    <frame tileid="1184" duration="1000"/>
   </animation>
  </tile>
  <tile id="200">
   <properties>
    <property name="Spawnable" value="T"/>
    <property name="Type" value="Grass"/>
   </properties>
  </tile>
  <tile id="202">
   <properties>
    <property name="Type" value="Dirt"/>
   </properties>
  </tile>
  <tile id="203">
   <properties>
    <property name="Type" value="Grass"/>
   </properties>
  </tile>
  <tile id="204">
   <properties>
    <property name="Type" value="Grass"/>
   </properties>
  </tile>
  <tile id="205">
   <properties>
    <property name="Type" value="Grass"/>
   </properties>
  </tile>
  <tile id="206">
   <properties>
    <property name="Diggable" value="T"/>
    <property name="Type" value="Dirt"/>
   </properties>
  </tile>
  <tile id="207">
   <properties>
    <property name="Diggable" value="T"/>
    <property name="Type" value="Dirt"/>
   </properties>
  </tile>
  <tile id="208">
   <animation>
    <frame tileid="208" duration="1000"/>
    <frame tileid="1207" duration="1000"/>
   </animation>
  </tile>
  <tile id="209">
   <properties>
    <property name="Water" value="T"/>
   </properties>
  </tile>
  <tile id="210">
   <animation>
    <frame tileid="210" duration="1000"/>
    <frame tileid="1209" duration="1000"/>
   </animation>
  </tile>
  <tile id="211">
   <animation>
    <frame tileid="211" duration="1000"/>
    <frame tileid="1210" duration="1000"/>
   </animation>
  </tile>
  <tile id="225">
   <properties>
    <property name="Type" value="Dirt"/>
   </properties>
  </tile>
  <tile id="226">
   <properties>
    <property name="Diggable" value="T"/>
    <property name="Type" value="Dirt"/>
   </properties>
  </tile>
  <tile id="227">
   <properties>
    <property name="Diggable" value="T"/>
    <property name="Type" value="Dirt"/>
   </properties>
  </tile>
  <tile id="228">
   <properties>
    <property name="Type" value="Dirt"/>
   </properties>
  </tile>
  <tile id="229">
   <properties>
    <property name="Type" value="Grass"/>
   </properties>
  </tile>
  <tile id="230">
   <properties>
    <property name="Type" value="Grass"/>
   </properties>
  </tile>
  <tile id="231">
   <properties>
    <property name="Diggable" value="T"/>
    <property name="Type" value="Dirt"/>
   </properties>
  </tile>
  <tile id="233">
   <animation>
    <frame tileid="233" duration="1000"/>
    <frame tileid="1232" duration="1000"/>
   </animation>
  </tile>
  <tile id="234">
   <properties>
    <property name="Water" value="T"/>
   </properties>
  </tile>
  <tile id="235">
   <animation>
    <frame tileid="235" duration="1000"/>
    <frame tileid="1290" duration="1000"/>
   </animation>
  </tile>
  <tile id="237">
   <animation>
    <frame tileid="237" duration="1000"/>
    <frame tileid="1291" duration="1000"/>
   </animation>
  </tile>
  <tile id="238">
   <animation>
    <frame tileid="238" duration="1000"/>
    <frame tileid="1292" duration="1000"/>
   </animation>
  </tile>
  <tile id="250">
   <properties>
    <property name="Type" value="Grass"/>
   </properties>
  </tile>
  <tile id="251">
   <properties>
    <property name="Type" value="Dirt"/>
   </properties>
  </tile>
  <tile id="252">
   <properties>
    <property name="Diggable" value="T"/>
    <property name="Type" value="Dirt"/>
   </properties>
  </tile>
  <tile id="253">
   <properties>
    <property name="Type" value="Grass"/>
   </properties>
  </tile>
  <tile id="254">
   <properties>
    <property name="Type" value="Grass"/>
   </properties>
  </tile>
  <tile id="255">
   <properties>
    <property name="Type" value="Grass"/>
   </properties>
  </tile>
  <tile id="256">
   <properties>
    <property name="Type" value="Grass"/>
   </properties>
  </tile>
  <tile id="258">
   <animation>
    <frame tileid="258" duration="1000"/>
    <frame tileid="1257" duration="1000"/>
   </animation>
  </tile>
  <tile id="260">
   <animation>
    <frame tileid="260" duration="1000"/>
    <frame tileid="1315" duration="1000"/>
   </animation>
  </tile>
  <tile id="261">
   <properties>
    <property name="Type" value="Grass"/>
   </properties>
  </tile>
  <tile id="265">
   <properties>
    <property name="Type" value="Dirt"/>
   </properties>
  </tile>
  <tile id="276">
   <properties>
    <property name="Type" value="Grass"/>
   </properties>
  </tile>
  <tile id="277">
   <properties>
    <property name="Type" value="Grass"/>
   </properties>
  </tile>
  <tile id="278">
   <properties>
    <property name="Type" value="Grass"/>
   </properties>
  </tile>
  <tile id="279">
   <properties>
    <property name="Type" value="Grass"/>
   </properties>
  </tile>
  <tile id="281">
   <properties>
    <property name="Type" value="Grass"/>
   </properties>
  </tile>
  <tile id="283">
   <animation>
    <frame tileid="283" duration="1000"/>
    <frame tileid="1312" duration="1000"/>
   </animation>
  </tile>
  <tile id="284">
   <animation>
    <frame tileid="284" duration="1000"/>
    <frame tileid="1313" duration="1000"/>
   </animation>
  </tile>
  <tile id="285">
   <properties>
    <property name="Water" value="T"/>
   </properties>
  </tile>
  <tile id="286">
   <properties>
    <property name="Type" value="Grass"/>
   </properties>
  </tile>
  <tile id="301">
   <properties>
    <property name="Type" value="Grass"/>
   </properties>
  </tile>
  <tile id="302">
   <properties>
    <property name="Type" value="Grass"/>
   </properties>
  </tile>
  <tile id="303">
   <properties>
    <property name="Type" value="Grass"/>
   </properties>
  </tile>
  <tile id="304">
   <properties>
    <property name="Type" value="Grass"/>
   </properties>
  </tile>
  <tile id="305">
   <properties>
    <property name="Type" value="Grass"/>
   </properties>
  </tile>
  <tile id="306">
   <properties>
    <property name="Type" value="Grass"/>
   </properties>
  </tile>
  <tile id="308">
   <properties>
    <property name="Water" value="T"/>
   </properties>
  </tile>
  <tile id="309">
   <properties>
    <property name="Water" value="T"/>
   </properties>
  </tile>
  <tile id="310">
   <properties>
    <property name="Water" value="T"/>
   </properties>
  </tile>
  <tile id="311">
   <properties>
    <property name="Type" value="Grass"/>
   </properties>
  </tile>
  <tile id="312">
   <properties>
    <property name="Type" value="Wood"/>
   </properties>
  </tile>
  <tile id="313">
   <properties>
    <property name="Type" value="Wood"/>
   </properties>
  </tile>
  <tile id="314">
   <properties>
    <property name="Type" value="Wood"/>
   </properties>
  </tile>
  <tile id="325">
   <properties>
    <property name="Type" value="Grass"/>
   </properties>
  </tile>
  <tile id="326">
   <properties>
    <property name="Type" value="Grass"/>
   </properties>
  </tile>
  <tile id="327">
   <properties>
    <property name="Type" value="Grass"/>
   </properties>
  </tile>
  <tile id="328">
   <properties>
    <property name="Type" value="Grass"/>
   </properties>
  </tile>
  <tile id="329">
   <properties>
    <property name="Type" value="Grass"/>
   </properties>
  </tile>
  <tile id="331">
   <properties>
    <property name="Type" value="Grass"/>
   </properties>
  </tile>
  <tile id="332">
   <properties>
    <property name="Type" value="Grass"/>
   </properties>
  </tile>
  <tile id="333">
   <properties>
    <property name="Water" value="T"/>
   </properties>
  </tile>
  <tile id="334">
   <properties>
    <property name="Water" value="T"/>
   </properties>
  </tile>
  <tile id="335">
   <properties>
    <property name="Water" value="T"/>
   </properties>
  </tile>
  <tile id="336">
   <properties>
    <property name="Water" value="T"/>
   </properties>
  </tile>
  <tile id="337">
   <properties>
    <property name="Type" value="Wood"/>
   </properties>
  </tile>
  <tile id="338">
   <properties>
    <property name="Type" value="Wood"/>
   </properties>
  </tile>
  <tile id="339">
   <properties>
    <property name="Type" value="Wood"/>
   </properties>
  </tile>
  <tile id="350">
   <properties>
    <property name="Type" value="Grass"/>
   </properties>
  </tile>
  <tile id="351">
   <properties>
    <property name="Spawnable" value="T"/>
    <property name="Type" value="Grass"/>
   </properties>
  </tile>
  <tile id="352">
   <properties>
    <property name="Type" value="Grass"/>
   </properties>
  </tile>
  <tile id="353">
   <properties>
    <property name="Type" value="Grass"/>
   </properties>
  </tile>
  <tile id="354">
   <properties>
    <property name="Type" value="Grass"/>
   </properties>
  </tile>
  <tile id="355">
   <properties>
    <property name="Type" value="Grass"/>
   </properties>
  </tile>
  <tile id="356">
   <properties>
    <property name="Type" value="Grass"/>
   </properties>
  </tile>
  <tile id="357">
   <properties>
    <property name="Type" value="Grass"/>
   </properties>
  </tile>
  <tile id="375">
   <properties>
    <property name="Type" value="Grass"/>
   </properties>
  </tile>
  <tile id="376">
   <properties>
    <property name="Type" value="Grass"/>
   </properties>
  </tile>
  <tile id="377">
   <properties>
    <property name="Type" value="Grass"/>
   </properties>
  </tile>
  <tile id="378">
   <properties>
    <property name="Type" value="Grass"/>
   </properties>
  </tile>
  <tile id="379">
   <properties>
    <property name="Type" value="Grass"/>
   </properties>
  </tile>
  <tile id="380">
   <properties>
    <property name="Spawnable" value="T"/>
    <property name="Type" value="Grass"/>
   </properties>
  </tile>
  <tile id="381">
   <properties>
    <property name="Type" value="Grass"/>
   </properties>
  </tile>
  <tile id="382">
   <properties>
    <property name="Type" value="Grass"/>
   </properties>
  </tile>
  <tile id="400">
   <properties>
    <property name="Type" value="Grass"/>
   </properties>
  </tile>
  <tile id="401">
   <properties>
    <property name="Type" value="Grass"/>
   </properties>
  </tile>
  <tile id="402">
   <properties>
    <property name="Type" value="Grass"/>
   </properties>
  </tile>
  <tile id="403">
   <properties>
    <property name="Spawnable" value="T"/>
    <property name="Type" value="Grass"/>
   </properties>
  </tile>
  <tile id="404">
   <properties>
    <property name="Type" value="Grass"/>
   </properties>
  </tile>
  <tile id="405">
   <properties>
    <property name="Type" value="Grass"/>
   </properties>
  </tile>
  <tile id="406">
   <properties>
    <property name="Type" value="Grass"/>
   </properties>
  </tile>
  <tile id="407">
   <properties>
    <property name="Type" value="Grass"/>
   </properties>
  </tile>
  <tile id="463">
   <properties>
    <property name="Type" value="Dirt"/>
   </properties>
  </tile>
  <tile id="488">
   <properties>
    <property name="Type" value="Dirt"/>
   </properties>
  </tile>
  <tile id="512">
   <properties>
    <property name="Type" value="Dirt"/>
   </properties>
  </tile>
  <tile id="513">
   <properties>
    <property name="Type" value="Dirt"/>
   </properties>
  </tile>
  <tile id="534">
   <properties>
    <property name="Type" value="Dirt"/>
   </properties>
  </tile>
  <tile id="536">
   <properties>
    <property name="Type" value="Dirt"/>
   </properties>
  </tile>
  <tile id="537">
   <properties>
    <property name="Type" value="Dirt"/>
   </properties>
  </tile>
  <tile id="538">
   <properties>
    <property name="Type" value="Dirt"/>
   </properties>
  </tile>
  <tile id="558">
   <properties>
    <property name="Diggable" value="T"/>
    <property name="Type" value="Dirt"/>
   </properties>
  </tile>
  <tile id="560">
   <properties>
    <property name="Diggable" value="T"/>
    <property name="Type" value="Dirt"/>
   </properties>
  </tile>
  <tile id="561">
   <properties>
    <property name="Type" value="Dirt"/>
   </properties>
  </tile>
  <tile id="562">
   <properties>
    <property name="Type" value="Dirt"/>
   </properties>
  </tile>
  <tile id="563">
   <properties>
    <property name="Type" value="Dirt"/>
   </properties>
  </tile>
  <tile id="564">
   <properties>
    <property name="Diggable" value="T"/>
    <property name="Type" value="Dirt"/>
   </properties>
  </tile>
  <tile id="565">
   <properties>
    <property name="Type" value="Dirt"/>
   </properties>
  </tile>
  <tile id="566">
   <properties>
    <property name="Type" value="Dirt"/>
   </properties>
  </tile>
  <tile id="567">
   <properties>
    <property name="Spawnable" value="T"/>
    <property name="Type" value="Grass"/>
   </properties>
  </tile>
  <tile id="568">
   <properties>
    <property name="Type" value="Grass"/>
   </properties>
  </tile>
  <tile id="569">
   <properties>
    <property name="Spawnable" value="T"/>
    <property name="Type" value="Grass"/>
   </properties>
  </tile>
  <tile id="570">
   <properties>
    <property name="Type" value="Grass"/>
   </properties>
  </tile>
  <tile id="583">
   <properties>
    <property name="Diggable" value="T"/>
    <property name="Type" value="Dirt"/>
   </properties>
  </tile>
  <tile id="585">
   <properties>
    <property name="Diggable" value="T"/>
    <property name="Type" value="Dirt"/>
   </properties>
  </tile>
  <tile id="586">
   <properties>
    <property name="Type" value="Dirt"/>
   </properties>
  </tile>
  <tile id="587">
   <properties>
    <property name="Diggable" value="T"/>
    <property name="Type" value="Dirt"/>
   </properties>
  </tile>
  <tile id="588">
   <properties>
    <property name="Type" value="Dirt"/>
   </properties>
  </tile>
  <tile id="589">
   <properties>
    <property name="Diggable" value="T"/>
    <property name="Type" value="Dirt"/>
   </properties>
  </tile>
  <tile id="590">
   <properties>
    <property name="Type" value="Dirt"/>
   </properties>
  </tile>
  <tile id="591">
   <properties>
    <property name="Type" value="Dirt"/>
   </properties>
  </tile>
  <tile id="592">
   <properties>
    <property name="Type" value="Grass"/>
   </properties>
  </tile>
  <tile id="593">
   <properties>
    <property name="Type" value="Grass"/>
   </properties>
  </tile>
  <tile id="594">
   <properties>
    <property name="Type" value="Grass"/>
   </properties>
  </tile>
  <tile id="595">
   <properties>
    <property name="Type" value="Grass"/>
   </properties>
  </tile>
  <tile id="596">
   <properties>
    <property name="Type" value="Dirt"/>
   </properties>
  </tile>
  <tile id="597">
   <properties>
    <property name="Type" value="Dirt"/>
   </properties>
  </tile>
  <tile id="598">
   <properties>
    <property name="Type" value="Stone"/>
   </properties>
  </tile>
  <tile id="599">
   <properties>
    <property name="Type" value="Stone"/>
   </properties>
  </tile>
  <tile id="606">
   <properties>
    <property name="Diggable" value="T"/>
    <property name="Type" value="Dirt"/>
   </properties>
  </tile>
  <tile id="607">
   <properties>
    <property name="Diggable" value="T"/>
    <property name="Type" value="Dirt"/>
   </properties>
  </tile>
  <tile id="608">
   <properties>
    <property name="Diggable" value="T"/>
    <property name="Type" value="Dirt"/>
   </properties>
  </tile>
  <tile id="610">
   <properties>
    <property name="Diggable" value="T"/>
    <property name="Type" value="Dirt"/>
   </properties>
  </tile>
  <tile id="611">
   <properties>
    <property name="Type" value="Dirt"/>
   </properties>
  </tile>
  <tile id="612">
   <properties>
    <property name="Type" value="Dirt"/>
   </properties>
  </tile>
  <tile id="613">
   <properties>
    <property name="Type" value="Dirt"/>
   </properties>
  </tile>
  <tile id="614">
   <properties>
    <property name="Diggable" value="T"/>
    <property name="Type" value="Dirt"/>
   </properties>
  </tile>
  <tile id="615">
   <properties>
    <property name="Type" value="Dirt"/>
   </properties>
  </tile>
  <tile id="616">
   <properties>
    <property name="Type" value="Dirt"/>
   </properties>
  </tile>
  <tile id="617">
   <properties>
    <property name="Type" value="Dirt"/>
   </properties>
  </tile>
  <tile id="618">
   <properties>
    <property name="Type" value="Dirt"/>
   </properties>
  </tile>
  <tile id="619">
   <properties>
    <property name="Type" value="Grass"/>
   </properties>
  </tile>
  <tile id="620">
   <properties>
    <property name="Type" value="Dirt"/>
   </properties>
  </tile>
  <tile id="621">
   <properties>
    <property name="Type" value="Dirt"/>
   </properties>
  </tile>
  <tile id="622">
   <properties>
    <property name="Type" value="Dirt"/>
   </properties>
  </tile>
  <tile id="623">
   <properties>
    <property name="Type" value="Stone"/>
   </properties>
  </tile>
  <tile id="628">
   <properties>
    <property name="Water" value="T"/>
   </properties>
  </tile>
  <tile id="629">
   <properties>
    <property name="Water" value="T"/>
   </properties>
  </tile>
  <tile id="630">
   <properties>
    <property name="Diggable" value="T"/>
    <property name="Type" value="Dirt"/>
   </properties>
  </tile>
  <tile id="631">
   <properties>
    <property name="Type" value="Dirt"/>
   </properties>
  </tile>
  <tile id="632">
   <properties>
    <property name="Diggable" value="T"/>
    <property name="Type" value="Dirt"/>
   </properties>
  </tile>
  <tile id="633">
   <properties>
    <property name="Type" value="Grass"/>
   </properties>
  </tile>
  <tile id="634">
   <properties>
    <property name="Spawnable" value="T"/>
    <property name="Type" value="Grass"/>
   </properties>
  </tile>
  <tile id="635">
   <properties>
    <property name="Type" value="Dirt"/>
   </properties>
  </tile>
  <tile id="636">
   <properties>
    <property name="Type" value="Dirt"/>
   </properties>
  </tile>
  <tile id="653">
   <properties>
    <property name="Water" value="T"/>
   </properties>
  </tile>
  <tile id="654">
   <properties>
    <property name="Type" value="Grass"/>
   </properties>
  </tile>
  <tile id="655">
   <properties>
    <property name="Type" value="Dirt"/>
   </properties>
  </tile>
  <tile id="656">
   <properties>
    <property name="Type" value="Dirt"/>
   </properties>
  </tile>
  <tile id="657">
   <properties>
    <property name="Type" value="Grass"/>
   </properties>
  </tile>
  <tile id="658">
   <properties>
    <property name="Type" value="Grass"/>
   </properties>
  </tile>
  <tile id="659">
   <properties>
    <property name="Type" value="Grass"/>
   </properties>
  </tile>
  <tile id="679">
   <properties>
    <property name="Type" value="Dirt"/>
   </properties>
  </tile>
  <tile id="680">
   <properties>
    <property name="Diggable" value="T"/>
    <property name="Type" value="Dirt"/>
   </properties>
  </tile>
  <tile id="681">
   <properties>
    <property name="Diggable" value="T"/>
    <property name="Type" value="Dirt"/>
   </properties>
  </tile>
  <tile id="682">
   <properties>
    <property name="Type" value="Dirt"/>
   </properties>
  </tile>
  <tile id="683">
   <properties>
    <property name="Type" value="Grass"/>
   </properties>
  </tile>
  <tile id="684">
   <properties>
    <property name="Type" value="Grass"/>
   </properties>
  </tile>
  <tile id="685">
   <properties>
    <property name="Diggable" value="T"/>
    <property name="Type" value="Dirt"/>
   </properties>
  </tile>
  <tile id="704">
   <properties>
    <property name="Type" value="Grass"/>
   </properties>
  </tile>
  <tile id="705">
   <properties>
    <property name="Type" value="Dirt"/>
   </properties>
  </tile>
  <tile id="706">
   <properties>
    <property name="Diggable" value="T"/>
    <property name="Type" value="Dirt"/>
   </properties>
  </tile>
  <tile id="707">
   <properties>
    <property name="Type" value="Grass"/>
   </properties>
  </tile>
  <tile id="729">
   <properties>
    <property name="Type" value="Wood"/>
   </properties>
  </tile>
  <tile id="730">
   <properties>
    <property name="Type" value="Wood"/>
   </properties>
  </tile>
  <tile id="734">
   <properties>
    <property name="Water" value="T"/>
   </properties>
  </tile>
  <tile id="754">
   <properties>
    <property name="Type" value="Wood"/>
   </properties>
  </tile>
  <tile id="755">
   <properties>
    <property name="Type" value="Wood"/>
   </properties>
  </tile>
  <tile id="759">
   <properties>
    <property name="Water" value="T"/>
   </properties>
  </tile>
  <tile id="779">
   <properties>
    <property name="Passable" value="T"/>
    <property name="Type" value="Wood"/>
   </properties>
  </tile>
  <tile id="780">
   <properties>
    <property name="Passable" value="T"/>
    <property name="Type" value="Wood"/>
   </properties>
  </tile>
  <tile id="781">
   <properties>
    <property name="Passable" value="T"/>
    <property name="Type" value="Wood"/>
   </properties>
  </tile>
  <tile id="782">
   <properties>
    <property name="Passable" value="T"/>
    <property name="Type" value="Wood"/>
   </properties>
  </tile>
  <tile id="809">
   <properties>
    <property name="Passable" value="T"/>
    <property name="Type" value="Wood"/>
   </properties>
  </tile>
  <tile id="812">
   <properties>
    <property name="Type" value="Stone"/>
   </properties>
  </tile>
  <tile id="813">
   <properties>
    <property name="Type" value="Stone"/>
   </properties>
  </tile>
  <tile id="834">
   <properties>
    <property name="Passable" value="T"/>
    <property name="Type" value="Wood"/>
   </properties>
  </tile>
  <tile id="838">
   <properties>
    <property name="Type" value="Stone"/>
   </properties>
  </tile>
  <tile id="859">
   <properties>
    <property name="Passable" value="T"/>
    <property name="Type" value="Wood"/>
   </properties>
  </tile>
  <tile id="884">
   <properties>
    <property name="Passable" value="T"/>
    <property name="Type" value="Wood"/>
   </properties>
  </tile>
  <tile id="947">
   <properties>
    <property name="Type" value="Stone"/>
   </properties>
  </tile>
  <tile id="948">
   <properties>
    <property name="Type" value="Stone"/>
   </properties>
  </tile>
  <tile id="949">
   <properties>
    <property name="Type" value="Stone"/>
   </properties>
  </tile>
  <tile id="972">
   <properties>
    <property name="Type" value="Stone"/>
   </properties>
  </tile>
  <tile id="973">
   <properties>
    <property name="Type" value="Stone"/>
   </properties>
  </tile>
  <tile id="974">
   <properties>
    <property name="Type" value="Stone"/>
   </properties>
  </tile>
  <tile id="998">
   <properties>
    <property name="Type" value="Stone"/>
   </properties>
  </tile>
  <tile id="999">
   <properties>
    <property name="Type" value="Stone"/>
   </properties>
  </tile>
  <tile id="1186">
   <properties>
    <property name="Water" value="T"/>
   </properties>
  </tile>
  <tile id="1187">
   <properties>
    <property name="Water" value="T"/>
   </properties>
  </tile>
  <tile id="1188">
   <properties>
    <property name="Water" value="T"/>
   </properties>
  </tile>
  <tile id="1211">
   <properties>
    <property name="Water" value="T"/>
   </properties>
  </tile>
  <tile id="1212">
   <properties>
    <property name="Water" value="T"/>
   </properties>
  </tile>
  <tile id="1213">
   <properties>
    <property name="Water" value="T"/>
   </properties>
  </tile>
  <tile id="1227">
   <properties>
    <property name="Water" value="T"/>
   </properties>
  </tile>
  <tile id="1228">
   <properties>
    <property name="Water" value="T"/>
   </properties>
  </tile>
  <tile id="1229">
   <properties>
    <property name="Water" value="T"/>
   </properties>
  </tile>
  <tile id="1230">
   <properties>
    <property name="Water" value="T"/>
   </properties>
  </tile>
  <tile id="1231">
   <properties>
    <property name="Water" value="T"/>
   </properties>
  </tile>
  <tile id="1237">
   <properties>
    <property name="Water" value="T"/>
   </properties>
  </tile>
  <tile id="1238">
   <properties>
    <property name="Water" value="T"/>
   </properties>
  </tile>
  <tile id="1239">
   <properties>
    <property name="Water" value="T"/>
   </properties>
  </tile>
  <tile id="1240">
   <properties>
    <property name="Water" value="T"/>
   </properties>
  </tile>
  <tile id="1241">
   <properties>
    <property name="Water" value="T"/>
   </properties>
  </tile>
  <tile id="1242">
   <properties>
    <property name="Water" value="T"/>
   </properties>
  </tile>
  <tile id="1243">
   <properties>
    <property name="Water" value="T"/>
   </properties>
  </tile>
  <tile id="1244">
   <properties>
    <property name="Water" value="T"/>
   </properties>
  </tile>
  <tile id="1245">
   <properties>
    <property name="Water" value="T"/>
   </properties>
  </tile>
  <tile id="1246">
   <properties>
    <property name="Passable" value="F"/>
    <property name="Water" value="T"/>
   </properties>
  </tile>
  <tile id="1247">
   <properties>
    <property name="Water" value="T"/>
   </properties>
  </tile>
  <tile id="1248">
   <properties>
    <property name="Water" value="T"/>
   </properties>
  </tile>
  <tile id="1249">
   <properties>
    <property name="Passable" value="F"/>
    <property name="Water" value="T"/>
   </properties>
  </tile>
  <tile id="1252">
   <properties>
    <property name="Water" value="T"/>
   </properties>
  </tile>
  <tile id="1253">
   <properties>
    <property name="Water" value="T"/>
   </properties>
  </tile>
  <tile id="1254">
   <properties>
    <property name="Water" value="T"/>
   </properties>
  </tile>
  <tile id="1255">
   <properties>
    <property name="Water" value="T"/>
   </properties>
  </tile>
  <tile id="1256">
   <properties>
    <property name="Water" value="T"/>
   </properties>
  </tile>
  <tile id="1263">
   <properties>
    <property name="Water" value="T"/>
   </properties>
  </tile>
  <tile id="1264">
   <properties>
    <property name="Water" value="T"/>
   </properties>
  </tile>
  <tile id="1265">
   <properties>
    <property name="Water" value="T"/>
   </properties>
  </tile>
  <tile id="1266">
   <properties>
    <property name="Passable" value="F"/>
    <property name="Water" value="T"/>
   </properties>
  </tile>
  <tile id="1267">
   <properties>
    <property name="Passable" value="F"/>
    <property name="Water" value="T"/>
   </properties>
  </tile>
  <tile id="1268">
   <properties>
    <property name="Water" value="T"/>
   </properties>
  </tile>
  <tile id="1269">
   <properties>
    <property name="Water" value="T"/>
   </properties>
  </tile>
  <tile id="1270">
   <properties>
    <property name="Water" value="T"/>
   </properties>
  </tile>
  <tile id="1271">
   <properties>
    <property name="Passable" value="F"/>
    <property name="Water" value="T"/>
   </properties>
  </tile>
  <tile id="1272">
   <properties>
    <property name="Water" value="T"/>
   </properties>
  </tile>
  <tile id="1273">
   <properties>
    <property name="Water" value="T"/>
   </properties>
  </tile>
  <tile id="1274">
   <properties>
    <property name="Water" value="T"/>
   </properties>
  </tile>
  <tile id="1277">
   <properties>
    <property name="Water" value="T"/>
   </properties>
  </tile>
  <tile id="1278">
   <properties>
    <property name="Water" value="T"/>
   </properties>
  </tile>
  <tile id="1279">
   <properties>
    <property name="Water" value="T"/>
   </properties>
  </tile>
  <tile id="1280">
   <properties>
    <property name="Water" value="T"/>
   </properties>
  </tile>
  <tile id="1281">
   <properties>
    <property name="Water" value="T"/>
   </properties>
  </tile>
  <tile id="1297">
   <properties>
    <property name="Water" value="T"/>
   </properties>
  </tile>
  <tile id="1298">
   <properties>
    <property name="Water" value="T"/>
   </properties>
  </tile>
  <tile id="1299">
   <properties>
    <property name="Passable" value="F"/>
    <property name="Water" value="T"/>
   </properties>
  </tile>
  <tile id="1302">
   <properties>
    <property name="Water" value="T"/>
   </properties>
  </tile>
  <tile id="1303">
   <properties>
    <property name="Water" value="T"/>
   </properties>
  </tile>
  <tile id="1304">
   <properties>
    <property name="Water" value="T"/>
   </properties>
  </tile>
  <tile id="1305">
   <properties>
    <property name="Water" value="T"/>
   </properties>
  </tile>
  <tile id="1306">
   <properties>
    <property name="Water" value="T"/>
   </properties>
  </tile>
  <tile id="1322">
   <properties>
    <property name="Water" value="T"/>
   </properties>
  </tile>
  <tile id="1323">
   <properties>
    <property name="Water" value="T"/>
   </properties>
  </tile>
  <tile id="1324">
   <properties>
    <property name="Water" value="T"/>
   </properties>
  </tile>
 </tileset>
 <tileset firstgid="3144" name="Paths" tilewidth="16" tileheight="16" tilecount="64" columns="4">
  <image source="paths" width="64" height="256"/>
  <tile id="35">
   <properties>
    <property name="GreenRain" value="??"/>
   </properties>
  </tile>
 </tileset>
 <tileset firstgid="3208" name="Town" tilewidth="16" tileheight="16" tilecount="2304" columns="32">
  <image source="spring_town" width="512" height="1152"/>
  <tile id="45">
   <animation>
    <frame tileid="45" duration="1000"/>
    <frame tileid="45" duration="1000"/>
    <frame tileid="45" duration="1000"/>
    <frame tileid="45" duration="1000"/>
    <frame tileid="45" duration="1000"/>
    <frame tileid="45" duration="1000"/>
    <frame tileid="45" duration="1000"/>
    <frame tileid="45" duration="1000"/>
    <frame tileid="45" duration="1000"/>
    <frame tileid="45" duration="1000"/>
    <frame tileid="45" duration="1000"/>
    <frame tileid="45" duration="1000"/>
    <frame tileid="45" duration="1000"/>
    <frame tileid="45" duration="1000"/>
    <frame tileid="45" duration="1000"/>
    <frame tileid="45" duration="1000"/>
    <frame tileid="45" duration="1000"/>
    <frame tileid="12" duration="1000"/>
   </animation>
  </tile>
  <tile id="159">
   <properties>
    <property name="Passable" value="T"/>
   </properties>
  </tile>
  <tile id="191">
   <properties>
    <property name="Passable" value="T"/>
   </properties>
  </tile>
  <tile id="223">
   <properties>
    <property name="Passable" value="T"/>
   </properties>
  </tile>
  <tile id="608">
   <properties>
    <property name="Type" value="Grass"/>
   </properties>
  </tile>
  <tile id="609">
   <properties>
    <property name="Type" value="Grass"/>
   </properties>
  </tile>
  <tile id="610">
   <properties>
    <property name="Type" value="Grass"/>
   </properties>
  </tile>
  <tile id="611">
   <properties>
    <property name="Type" value="Grass"/>
   </properties>
  </tile>
  <tile id="612">
   <properties>
    <property name="Type" value="Grass"/>
   </properties>
  </tile>
  <tile id="641">
   <properties>
    <property name="Type" value="Stone"/>
   </properties>
  </tile>
  <tile id="644">
   <properties>
    <property name="Type" value="Grass"/>
   </properties>
  </tile>
  <tile id="645">
   <properties>
    <property name="Type" value="Grass"/>
   </properties>
  </tile>
  <tile id="646">
   <properties>
    <property name="Type" value="Stone"/>
   </properties>
  </tile>
  <tile id="672">
   <properties>
    <property name="Type" value="Grass"/>
   </properties>
  </tile>
  <tile id="674">
   <properties>
    <property name="Type" value="Grass"/>
   </properties>
  </tile>
  <tile id="676">
   <properties>
    <property name="Type" value="Stone"/>
   </properties>
  </tile>
  <tile id="736">
   <properties>
    <property name="Type" value="Stone"/>
   </properties>
  </tile>
  <tile id="737">
   <properties>
    <property name="Type" value="Stone"/>
   </properties>
  </tile>
  <tile id="768">
   <properties>
    <property name="Type" value="Stone"/>
   </properties>
  </tile>
  <tile id="769">
   <properties>
    <property name="Type" value="Stone"/>
   </properties>
  </tile>
  <tile id="770">
   <properties>
    <property name="Type" value="Stone"/>
   </properties>
  </tile>
  <tile id="874">
   <properties>
    <property name="Type" value="Stone"/>
   </properties>
  </tile>
  <tile id="905">
   <properties>
    <property name="Passable" value="F"/>
   </properties>
  </tile>
  <tile id="909">
   <properties>
    <property name="Type" value="Stone"/>
   </properties>
  </tile>
  <tile id="916">
   <properties>
    <property name="Water" value="T"/>
   </properties>
  </tile>
  <tile id="917">
   <properties>
    <property name="Water" value="T"/>
   </properties>
  </tile>
  <tile id="918">
   <properties>
    <property name="Water" value="T"/>
   </properties>
  </tile>
  <tile id="919">
   <properties>
    <property name="Water" value="T"/>
   </properties>
  </tile>
  <tile id="931">
   <properties>
    <property name="Type" value="Stone"/>
   </properties>
  </tile>
  <tile id="932">
   <properties>
    <property name="Type" value="Stone"/>
   </properties>
  </tile>
  <tile id="950">
   <properties>
    <property name="Water" value="T"/>
   </properties>
  </tile>
  <tile id="963">
   <properties>
    <property name="Type" value="Stone"/>
   </properties>
  </tile>
  <tile id="964">
   <properties>
    <property name="Type" value="Stone"/>
   </properties>
  </tile>
  <tile id="1007">
   <properties>
    <property name="Type" value="Stone"/>
   </properties>
  </tile>
  <tile id="1008">
   <properties>
    <property name="Type" value="Stone"/>
   </properties>
  </tile>
  <tile id="1031">
   <properties>
    <property name="Type" value="Dirt"/>
   </properties>
  </tile>
  <tile id="1032">
   <properties>
    <property name="Type" value="Dirt"/>
   </properties>
  </tile>
  <tile id="1033">
   <properties>
    <property name="Type" value="Dirt"/>
   </properties>
  </tile>
  <tile id="1037">
   <animation>
    <frame tileid="1037" duration="100"/>
    <frame tileid="1038" duration="100"/>
    <frame tileid="1039" duration="100"/>
    <frame tileid="1039" duration="100"/>
   </animation>
  </tile>
  <tile id="1063">
   <properties>
    <property name="Type" value="Dirt"/>
   </properties>
  </tile>
  <tile id="1064">
   <properties>
    <property name="Type" value="Dirt"/>
   </properties>
  </tile>
  <tile id="1065">
   <properties>
    <property name="Type" value="Dirt"/>
   </properties>
  </tile>
  <tile id="1070">
   <animation>
    <frame tileid="1070" duration="100"/>
    <frame tileid="1101" duration="100"/>
    <frame tileid="1102" duration="100"/>
    <frame tileid="1043" duration="100"/>
   </animation>
  </tile>
  <tile id="1095">
   <properties>
    <property name="Type" value="Dirt"/>
   </properties>
  </tile>
  <tile id="1096">
   <properties>
    <property name="Type" value="Dirt"/>
   </properties>
  </tile>
  <tile id="1097">
   <properties>
    <property name="Type" value="Dirt"/>
   </properties>
  </tile>
  <tile id="1201">
   <animation>
    <frame tileid="1201" duration="100"/>
    <frame tileid="1202" duration="100"/>
    <frame tileid="1203" duration="100"/>
    <frame tileid="1204" duration="100"/>
    <frame tileid="1205" duration="100"/>
    <frame tileid="1206" duration="100"/>
   </animation>
  </tile>
  <tile id="1233">
   <animation>
    <frame tileid="1233" duration="100"/>
    <frame tileid="1234" duration="100"/>
    <frame tileid="1235" duration="100"/>
    <frame tileid="1236" duration="100"/>
    <frame tileid="1237" duration="100"/>
    <frame tileid="1238" duration="100"/>
   </animation>
  </tile>
  <tile id="1249">
   <properties>
    <property name="Shadow" value="T"/>
   </properties>
  </tile>
  <tile id="1265">
   <animation>
    <frame tileid="1265" duration="100"/>
    <frame tileid="1266" duration="100"/>
    <frame tileid="1267" duration="100"/>
    <frame tileid="1268" duration="100"/>
    <frame tileid="1269" duration="100"/>
    <frame tileid="1270" duration="100"/>
   </animation>
  </tile>
  <tile id="1573">
   <properties>
    <property name="Type" value="Stone"/>
   </properties>
  </tile>
  <tile id="1574">
   <properties>
    <property name="Type" value="Stone"/>
   </properties>
  </tile>
  <tile id="1585">
   <properties>
    <property name="Type" value="Stone"/>
   </properties>
  </tile>
  <tile id="1586">
   <properties>
    <property name="Type" value="Stone"/>
   </properties>
  </tile>
  <tile id="1958">
   <properties>
    <property name="Shadow" value="T"/>
   </properties>
  </tile>
 </tileset>
 <tileset firstgid="5512" name="v16_landscape2" tilewidth="16" tileheight="16" tilecount="1120" columns="16">
  <image source="spring_outdoorsTileSheet2" width="256" height="1120"/>
  <tile id="568">
   <animation>
    <frame tileid="568" duration="1000"/>
    <frame tileid="572" duration="1000"/>
   </animation>
  </tile>
  <tile id="570">
   <animation>
    <frame tileid="570" duration="1000"/>
    <frame tileid="574" duration="1000"/>
   </animation>
  </tile>
  <tile id="736">
   <properties>
    <property name="Type" value="Wood"/>
   </properties>
  </tile>
  <tile id="737">
   <properties>
    <property name="Type" value="Wood"/>
   </properties>
  </tile>
  <tile id="738">
   <properties>
    <property name="Type" value="Wood"/>
   </properties>
  </tile>
  <tile id="739">
   <properties>
    <property name="Type" value="Wood"/>
   </properties>
  </tile>
  <tile id="740">
   <properties>
    <property name="Type" value="Grass"/>
   </properties>
  </tile>
  <tile id="741">
   <properties>
    <property name="Type" value="Grass"/>
   </properties>
  </tile>
  <tile id="752">
   <properties>
    <property name="Type" value="Wood"/>
   </properties>
  </tile>
  <tile id="753">
   <properties>
    <property name="Type" value="Wood"/>
   </properties>
  </tile>
  <tile id="754">
   <properties>
    <property name="Type" value="Wood"/>
   </properties>
  </tile>
  <tile id="755">
   <properties>
    <property name="Type" value="Wood"/>
   </properties>
  </tile>
  <tile id="756">
   <properties>
    <property name="Type" value="Grass"/>
   </properties>
  </tile>
  <tile id="757">
   <properties>
    <property name="Type" value="Grass"/>
   </properties>
  </tile>
  <tile id="772">
   <properties>
    <property name="Type" value="Grass"/>
   </properties>
  </tile>
  <tile id="773">
   <properties>
    <property name="Type" value="Grass"/>
   </properties>
  </tile>
  <tile id="816">
   <properties>
    <property name="Water" value="T"/>
   </properties>
  </tile>
  <tile id="817">
   <properties>
    <property name="Water" value="T"/>
   </properties>
  </tile>
  <tile id="820">
   <properties>
    <property name="Water" value="T"/>
   </properties>
  </tile>
  <tile id="821">
   <properties>
    <property name="Water" value="T"/>
   </properties>
  </tile>
  <tile id="822">
   <properties>
    <property name="Water" value="T"/>
   </properties>
  </tile>
  <tile id="832">
   <properties>
    <property name="Water" value="T"/>
   </properties>
  </tile>
  <tile id="833">
   <properties>
    <property name="Water" value="T"/>
   </properties>
  </tile>
  <tile id="834">
   <properties>
    <property name="Water" value="T"/>
   </properties>
  </tile>
  <tile id="835">
   <properties>
    <property name="Water" value="T"/>
   </properties>
  </tile>
  <tile id="836">
   <properties>
    <property name="Water" value="T"/>
   </properties>
  </tile>
  <tile id="837">
   <properties>
    <property name="Water" value="T"/>
   </properties>
  </tile>
  <tile id="838">
   <properties>
    <property name="Water" value="T"/>
   </properties>
  </tile>
  <tile id="848">
   <properties>
    <property name="Water" value="T"/>
   </properties>
  </tile>
  <tile id="849">
   <properties>
    <property name="Water" value="T"/>
   </properties>
  </tile>
  <tile id="850">
   <properties>
    <property name="Water" value="T"/>
   </properties>
  </tile>
  <tile id="851">
   <properties>
    <property name="Water" value="T"/>
   </properties>
  </tile>
  <tile id="852">
   <properties>
    <property name="Water" value="T"/>
   </properties>
  </tile>
  <tile id="853">
   <properties>
    <property name="Water" value="T"/>
   </properties>
  </tile>
  <tile id="854">
   <properties>
    <property name="Water" value="T"/>
   </properties>
  </tile>
  <tile id="864">
   <properties>
    <property name="Water" value="T"/>
   </properties>
  </tile>
  <tile id="865">
   <properties>
    <property name="Water" value="T"/>
   </properties>
  </tile>
  <tile id="866">
   <properties>
    <property name="Water" value="T"/>
   </properties>
  </tile>
  <tile id="867">
   <properties>
    <property name="Water" value="T"/>
   </properties>
  </tile>
  <tile id="868">
   <properties>
    <property name="Water" value="T"/>
   </properties>
  </tile>
  <tile id="869">
   <properties>
    <property name="Water" value="T"/>
   </properties>
  </tile>
  <tile id="870">
   <properties>
    <property name="Water" value="T"/>
   </properties>
  </tile>
  <tile id="880">
   <properties>
    <property name="Water" value="T"/>
   </properties>
  </tile>
  <tile id="881">
   <properties>
    <property name="Water" value="T"/>
   </properties>
  </tile>
  <tile id="882">
   <properties>
    <property name="Water" value="T"/>
   </properties>
  </tile>
  <tile id="883">
   <properties>
    <property name="Water" value="T"/>
   </properties>
  </tile>
  <tile id="897">
   <animation>
    <frame tileid="897" duration="1000"/>
    <frame tileid="929" duration="1000"/>
   </animation>
  </tile>
  <tile id="912">
   <animation>
    <frame tileid="912" duration="1000"/>
    <frame tileid="944" duration="1000"/>
   </animation>
  </tile>
  <tile id="913">
   <animation>
    <frame tileid="913" duration="1000"/>
    <frame tileid="945" duration="1000"/>
   </animation>
  </tile>
  <tile id="914">
   <animation>
    <frame tileid="914" duration="1000"/>
    <frame tileid="915" duration="1000"/>
   </animation>
  </tile>
  <tile id="930">
   <animation>
    <frame tileid="930" duration="1000"/>
    <frame tileid="931" duration="1000"/>
   </animation>
  </tile>
  <tile id="960">
   <animation>
    <frame tileid="960" duration="1000"/>
    <frame tileid="992" duration="1000"/>
   </animation>
  </tile>
  <tile id="962">
   <animation>
    <frame tileid="962" duration="1000"/>
    <frame tileid="963" duration="1000"/>
   </animation>
  </tile>
  <tile id="976">
   <animation>
    <frame tileid="976" duration="1000"/>
    <frame tileid="1008" duration="1000"/>
   </animation>
  </tile>
  <tile id="977">
   <animation>
    <frame tileid="977" duration="1000"/>
    <frame tileid="1009" duration="1000"/>
   </animation>
  </tile>
  <tile id="978">
   <animation>
    <frame tileid="978" duration="1000"/>
    <frame tileid="979" duration="1000"/>
   </animation>
  </tile>
  <tile id="1056">
   <animation>
    <frame tileid="1056" duration="1000"/>
    <frame tileid="1057" duration="1000"/>
   </animation>
  </tile>
  <tile id="1058">
   <animation>
    <frame tileid="1058" duration="1000"/>
    <frame tileid="1059" duration="1000"/>
   </animation>
  </tile>
 </tileset>
 <tileset firstgid="6632" name="v16_Shadows" tilewidth="16" tileheight="16" tilecount="475" columns="19">
  <image source="spring_Shadows" width="304" height="400"/>
 </tileset>
 <tileset firstgid="7107" name="spring_daisyextras" tilewidth="16" tileheight="16" tilecount="1800" columns="30">
  <image source="spring_daisyextras.png" width="480" height="960"/>
  <tile id="457">
   <animation>
    <frame tileid="457" duration="1000"/>
    <frame tileid="460" duration="1000"/>
   </animation>
  </tile>
  <tile id="458">
   <animation>
    <frame tileid="458" duration="1000"/>
    <frame tileid="461" duration="1000"/>
   </animation>
  </tile>
  <tile id="459">
   <animation>
    <frame tileid="459" duration="1000"/>
    <frame tileid="462" duration="1000"/>
   </animation>
  </tile>
  <tile id="487">
   <animation>
    <frame tileid="487" duration="1000"/>
    <frame tileid="490" duration="1000"/>
   </animation>
  </tile>
  <tile id="488">
   <animation>
    <frame tileid="488" duration="1000"/>
    <frame tileid="491" duration="1000"/>
   </animation>
  </tile>
  <tile id="489">
   <animation>
    <frame tileid="489" duration="1000"/>
    <frame tileid="492" duration="1000"/>
   </animation>
  </tile>
  <tile id="804">
   <animation>
    <frame tileid="804" duration="100"/>
    <frame tileid="804" duration="100"/>
    <frame tileid="804" duration="100"/>
    <frame tileid="804" duration="100"/>
    <frame tileid="804" duration="100"/>
    <frame tileid="804" duration="100"/>
    <frame tileid="804" duration="100"/>
    <frame tileid="804" duration="100"/>
    <frame tileid="804" duration="100"/>
    <frame tileid="804" duration="100"/>
    <frame tileid="805" duration="100"/>
    <frame tileid="805" duration="100"/>
    <frame tileid="806" duration="100"/>
    <frame tileid="806" duration="100"/>
    <frame tileid="806" duration="100"/>
    <frame tileid="806" duration="100"/>
    <frame tileid="806" duration="100"/>
    <frame tileid="806" duration="100"/>
    <frame tileid="804" duration="100"/>
    <frame tileid="804" duration="100"/>
    <frame tileid="804" duration="100"/>
    <frame tileid="804" duration="100"/>
    <frame tileid="804" duration="100"/>
   </animation>
  </tile>
  <tile id="864">
   <animation>
    <frame tileid="864" duration="100"/>
    <frame tileid="864" duration="100"/>
    <frame tileid="864" duration="100"/>
    <frame tileid="864" duration="100"/>
    <frame tileid="864" duration="100"/>
    <frame tileid="864" duration="100"/>
    <frame tileid="864" duration="100"/>
    <frame tileid="864" duration="100"/>
    <frame tileid="864" duration="100"/>
    <frame tileid="864" duration="100"/>
    <frame tileid="864" duration="100"/>
    <frame tileid="864" duration="100"/>
    <frame tileid="864" duration="100"/>
    <frame tileid="864" duration="100"/>
    <frame tileid="864" duration="100"/>
    <frame tileid="864" duration="100"/>
    <frame tileid="864" duration="100"/>
    <frame tileid="864" duration="100"/>
    <frame tileid="864" duration="100"/>
    <frame tileid="864" duration="100"/>
    <frame tileid="864" duration="100"/>
    <frame tileid="864" duration="100"/>
    <frame tileid="864" duration="100"/>
    <frame tileid="864" duration="100"/>
    <frame tileid="864" duration="100"/>
    <frame tileid="864" duration="100"/>
    <frame tileid="864" duration="100"/>
    <frame tileid="864" duration="100"/>
    <frame tileid="864" duration="100"/>
    <frame tileid="864" duration="100"/>
    <frame tileid="869" duration="100"/>
    <frame tileid="869" duration="100"/>
    <frame tileid="869" duration="100"/>
    <frame tileid="869" duration="100"/>
    <frame tileid="864" duration="100"/>
    <frame tileid="869" duration="100"/>
    <frame tileid="869" duration="100"/>
    <frame tileid="865" duration="100"/>
    <frame tileid="865" duration="100"/>
   </animation>
  </tile>
  <tile id="865">
   <animation>
    <frame tileid="864" duration="100"/>
    <frame tileid="864" duration="100"/>
    <frame tileid="864" duration="100"/>
    <frame tileid="864" duration="100"/>
    <frame tileid="864" duration="100"/>
    <frame tileid="864" duration="100"/>
    <frame tileid="864" duration="100"/>
    <frame tileid="864" duration="100"/>
    <frame tileid="864" duration="100"/>
    <frame tileid="864" duration="100"/>
    <frame tileid="865" duration="100"/>
    <frame tileid="865" duration="100"/>
    <frame tileid="865" duration="100"/>
   </animation>
  </tile>
  <tile id="866">
   <animation>
    <frame tileid="864" duration="100"/>
    <frame tileid="864" duration="100"/>
    <frame tileid="864" duration="100"/>
    <frame tileid="864" duration="100"/>
    <frame tileid="864" duration="100"/>
    <frame tileid="864" duration="100"/>
    <frame tileid="864" duration="100"/>
    <frame tileid="864" duration="100"/>
    <frame tileid="864" duration="100"/>
    <frame tileid="864" duration="100"/>
    <frame tileid="864" duration="100"/>
    <frame tileid="864" duration="100"/>
    <frame tileid="864" duration="100"/>
    <frame tileid="864" duration="100"/>
    <frame tileid="864" duration="100"/>
    <frame tileid="864" duration="100"/>
    <frame tileid="864" duration="100"/>
    <frame tileid="864" duration="100"/>
    <frame tileid="864" duration="100"/>
    <frame tileid="864" duration="100"/>
    <frame tileid="866" duration="100"/>
    <frame tileid="867" duration="100"/>
    <frame tileid="867" duration="100"/>
    <frame tileid="868" duration="100"/>
    <frame tileid="868" duration="100"/>
    <frame tileid="867" duration="100"/>
    <frame tileid="867" duration="100"/>
    <frame tileid="868" duration="100"/>
    <frame tileid="868" duration="100"/>
    <frame tileid="866" duration="100"/>
    <frame tileid="864" duration="100"/>
   </animation>
  </tile>
  <tile id="867">
   <animation>
    <frame tileid="864" duration="100"/>
    <frame tileid="864" duration="100"/>
    <frame tileid="864" duration="100"/>
    <frame tileid="864" duration="100"/>
    <frame tileid="864" duration="100"/>
    <frame tileid="864" duration="100"/>
    <frame tileid="864" duration="100"/>
    <frame tileid="864" duration="100"/>
    <frame tileid="864" duration="100"/>
    <frame tileid="864" duration="100"/>
    <frame tileid="864" duration="100"/>
    <frame tileid="864" duration="100"/>
    <frame tileid="864" duration="100"/>
    <frame tileid="864" duration="100"/>
    <frame tileid="864" duration="100"/>
    <frame tileid="869" duration="100"/>
    <frame tileid="869" duration="100"/>
    <frame tileid="869" duration="100"/>
    <frame tileid="869" duration="100"/>
    <frame tileid="869" duration="100"/>
    <frame tileid="869" duration="100"/>
    <frame tileid="869" duration="100"/>
    <frame tileid="869" duration="100"/>
    <frame tileid="869" duration="100"/>
    <frame tileid="869" duration="100"/>
    <frame tileid="869" duration="100"/>
    <frame tileid="869" duration="100"/>
    <frame tileid="869" duration="100"/>
    <frame tileid="869" duration="100"/>
    <frame tileid="869" duration="100"/>
    <frame tileid="869" duration="100"/>
    <frame tileid="869" duration="100"/>
    <frame tileid="869" duration="100"/>
    <frame tileid="869" duration="100"/>
    <frame tileid="869" duration="100"/>
    <frame tileid="869" duration="100"/>
    <frame tileid="869" duration="100"/>
    <frame tileid="869" duration="100"/>
    <frame tileid="869" duration="100"/>
    <frame tileid="869" duration="100"/>
    <frame tileid="869" duration="100"/>
    <frame tileid="869" duration="100"/>
    <frame tileid="869" duration="100"/>
    <frame tileid="869" duration="100"/>
    <frame tileid="869" duration="100"/>
   </animation>
  </tile>
 </tileset>
 <tileset firstgid="8907" name="zPC tiles" tilewidth="16" tileheight="16" tilecount="4000" columns="40">
  <image source="spring_zCLOutdoors.png" width="640" height="1600"/>
  <tile id="881">
   <properties>
    <property name="Water" value="T"/>
   </properties>
  </tile>
  <tile id="882">
   <properties>
    <property name="Water" value="T"/>
   </properties>
  </tile>
  <tile id="883">
   <properties>
    <property name="Water" value="T"/>
   </properties>
  </tile>
  <tile id="920">
   <properties>
    <property name="Water" value="T"/>
   </properties>
  </tile>
  <tile id="921">
   <properties>
    <property name="Water" value="T"/>
   </properties>
  </tile>
  <tile id="922">
   <properties>
    <property name="Water" value="T"/>
   </properties>
  </tile>
  <tile id="923">
   <properties>
    <property name="Water" value="T"/>
   </properties>
  </tile>
  <tile id="924">
   <properties>
    <property name="Water" value="T"/>
   </properties>
  </tile>
  <tile id="960">
   <properties>
    <property name="Water" value="T"/>
   </properties>
  </tile>
  <tile id="961">
   <properties>
    <property name="Water" value="T"/>
   </properties>
  </tile>
  <tile id="962">
   <properties>
    <property name="Water" value="T"/>
   </properties>
  </tile>
  <tile id="963">
   <properties>
    <property name="Water" value="T"/>
   </properties>
  </tile>
  <tile id="964">
   <properties>
    <property name="Water" value="T"/>
   </properties>
  </tile>
  <tile id="1000">
   <properties>
    <property name="Water" value="T"/>
   </properties>
  </tile>
  <tile id="1001">
   <properties>
    <property name="Water" value="T"/>
   </properties>
  </tile>
  <tile id="1002">
   <properties>
    <property name="Water" value="T"/>
   </properties>
  </tile>
  <tile id="1003">
   <properties>
    <property name="Water" value="T"/>
   </properties>
  </tile>
  <tile id="1004">
   <properties>
    <property name="Water" value="T"/>
   </properties>
  </tile>
  <tile id="1041">
   <properties>
    <property name="Water" value="T"/>
   </properties>
  </tile>
  <tile id="1042">
   <properties>
    <property name="Water" value="T"/>
   </properties>
  </tile>
  <tile id="1043">
   <properties>
    <property name="Water" value="T"/>
   </properties>
  </tile>
  <tile id="1092">
   <properties>
    <property name="Water" value="T"/>
   </properties>
  </tile>
  <tile id="1093">
   <properties>
    <property name="Water" value="T"/>
   </properties>
  </tile>
  <tile id="1094">
   <properties>
    <property name="Water" value="T"/>
   </properties>
  </tile>
  <tile id="1095">
   <properties>
    <property name="Water" value="T"/>
   </properties>
  </tile>
  <tile id="1096">
   <properties>
    <property name="Water" value="T"/>
   </properties>
  </tile>
  <tile id="1097">
   <properties>
    <property name="Water" value="T"/>
   </properties>
  </tile>
  <tile id="1098">
   <properties>
    <property name="Water" value="T"/>
   </properties>
  </tile>
  <tile id="1099">
   <properties>
    <property name="Water" value="T"/>
   </properties>
  </tile>
  <tile id="1100">
   <properties>
    <property name="Water" value="T"/>
   </properties>
  </tile>
  <tile id="1101">
   <properties>
    <property name="Water" value="T"/>
   </properties>
  </tile>
  <tile id="1102">
   <properties>
    <property name="Water" value="T"/>
   </properties>
  </tile>
  <tile id="1103">
   <properties>
    <property name="Water" value="T"/>
   </properties>
  </tile>
  <tile id="1104">
   <properties>
    <property name="Water" value="T"/>
   </properties>
  </tile>
  <tile id="1105">
   <properties>
    <property name="Water" value="T"/>
   </properties>
  </tile>
  <tile id="1106">
   <properties>
    <property name="Water" value="T"/>
   </properties>
  </tile>
  <tile id="1107">
   <properties>
    <property name="Water" value="T"/>
   </properties>
  </tile>
  <tile id="1132">
   <properties>
    <property name="Water" value="T"/>
   </properties>
  </tile>
  <tile id="1133">
   <properties>
    <property name="Water" value="T"/>
   </properties>
  </tile>
  <tile id="1134">
   <properties>
    <property name="Water" value="T"/>
   </properties>
  </tile>
  <tile id="1135">
   <properties>
    <property name="Water" value="T"/>
   </properties>
  </tile>
  <tile id="1136">
   <properties>
    <property name="Water" value="T"/>
   </properties>
  </tile>
  <tile id="1137">
   <properties>
    <property name="Water" value="T"/>
   </properties>
  </tile>
  <tile id="1138">
   <properties>
    <property name="Water" value="T"/>
   </properties>
  </tile>
  <tile id="1139">
   <properties>
    <property name="Water" value="T"/>
   </properties>
  </tile>
  <tile id="1140">
   <properties>
    <property name="Water" value="T"/>
   </properties>
  </tile>
  <tile id="1141">
   <properties>
    <property name="Water" value="T"/>
   </properties>
  </tile>
  <tile id="1142">
   <properties>
    <property name="Water" value="T"/>
   </properties>
  </tile>
  <tile id="1143">
   <properties>
    <property name="Water" value="T"/>
   </properties>
  </tile>
  <tile id="1144">
   <properties>
    <property name="Water" value="T"/>
   </properties>
  </tile>
  <tile id="1145">
   <properties>
    <property name="Water" value="T"/>
   </properties>
  </tile>
  <tile id="1146">
   <properties>
    <property name="Water" value="T"/>
   </properties>
  </tile>
  <tile id="1147">
   <properties>
    <property name="Water" value="T"/>
   </properties>
  </tile>
  <tile id="1172">
   <properties>
    <property name="Water" value="T"/>
   </properties>
  </tile>
  <tile id="1173">
   <properties>
    <property name="Water" value="T"/>
   </properties>
  </tile>
  <tile id="1174">
   <properties>
    <property name="Water" value="T"/>
   </properties>
  </tile>
  <tile id="1175">
   <properties>
    <property name="Water" value="T"/>
   </properties>
  </tile>
  <tile id="1176">
   <properties>
    <property name="Water" value="T"/>
   </properties>
  </tile>
  <tile id="1177">
   <properties>
    <property name="Water" value="T"/>
   </properties>
  </tile>
  <tile id="1178">
   <properties>
    <property name="Water" value="T"/>
   </properties>
  </tile>
  <tile id="1179">
   <properties>
    <property name="Water" value="T"/>
   </properties>
  </tile>
  <tile id="1180">
   <properties>
    <property name="Water" value="T"/>
   </properties>
  </tile>
  <tile id="1181">
   <properties>
    <property name="Water" value="T"/>
   </properties>
  </tile>
  <tile id="1182">
   <properties>
    <property name="Water" value="T"/>
   </properties>
  </tile>
  <tile id="1183">
   <properties>
    <property name="Water" value="T"/>
   </properties>
  </tile>
  <tile id="1184">
   <properties>
    <property name="Water" value="T"/>
   </properties>
  </tile>
  <tile id="1185">
   <properties>
    <property name="Water" value="T"/>
   </properties>
  </tile>
  <tile id="1186">
   <properties>
    <property name="Water" value="T"/>
   </properties>
  </tile>
  <tile id="1187">
   <properties>
    <property name="Water" value="T"/>
   </properties>
  </tile>
  <tile id="1212">
   <properties>
    <property name="Water" value="T"/>
   </properties>
  </tile>
  <tile id="1213">
   <properties>
    <property name="Water" value="T"/>
   </properties>
  </tile>
  <tile id="1214">
   <properties>
    <property name="Water" value="T"/>
   </properties>
  </tile>
  <tile id="1215">
   <properties>
    <property name="Water" value="T"/>
   </properties>
  </tile>
  <tile id="1216">
   <properties>
    <property name="Water" value="T"/>
   </properties>
  </tile>
  <tile id="1217">
   <properties>
    <property name="Water" value="T"/>
   </properties>
  </tile>
  <tile id="1218">
   <properties>
    <property name="Water" value="T"/>
   </properties>
  </tile>
  <tile id="1219">
   <properties>
    <property name="Water" value="T"/>
   </properties>
  </tile>
  <tile id="1220">
   <properties>
    <property name="Water" value="T"/>
   </properties>
  </tile>
  <tile id="1221">
   <properties>
    <property name="Water" value="T"/>
   </properties>
  </tile>
  <tile id="1222">
   <properties>
    <property name="Water" value="T"/>
   </properties>
  </tile>
  <tile id="1223">
   <properties>
    <property name="Water" value="T"/>
   </properties>
  </tile>
  <tile id="1224">
   <properties>
    <property name="Water" value="T"/>
   </properties>
  </tile>
  <tile id="1225">
   <properties>
    <property name="Water" value="T"/>
   </properties>
  </tile>
  <tile id="1226">
   <properties>
    <property name="Water" value="T"/>
   </properties>
  </tile>
  <tile id="1227">
   <properties>
    <property name="Water" value="T"/>
   </properties>
  </tile>
  <tile id="1253">
   <properties>
    <property name="Water" value="T"/>
   </properties>
  </tile>
  <tile id="1254">
   <properties>
    <property name="Water" value="T"/>
   </properties>
  </tile>
  <tile id="1255">
   <properties>
    <property name="Water" value="T"/>
   </properties>
  </tile>
  <tile id="1256">
   <properties>
    <property name="Water" value="T"/>
   </properties>
  </tile>
  <tile id="1257">
   <properties>
    <property name="Water" value="T"/>
   </properties>
  </tile>
  <tile id="1258">
   <properties>
    <property name="Water" value="T"/>
   </properties>
  </tile>
  <tile id="1259">
   <properties>
    <property name="Water" value="T"/>
   </properties>
  </tile>
  <tile id="1261">
   <properties>
    <property name="Water" value="T"/>
   </properties>
  </tile>
  <tile id="1262">
   <properties>
    <property name="Water" value="T"/>
   </properties>
  </tile>
  <tile id="1263">
   <properties>
    <property name="Water" value="T"/>
   </properties>
  </tile>
  <tile id="1264">
   <properties>
    <property name="Water" value="T"/>
   </properties>
  </tile>
  <tile id="1293">
   <properties>
    <property name="Water" value="T"/>
   </properties>
  </tile>
  <tile id="1294">
   <properties>
    <property name="Water" value="T"/>
   </properties>
  </tile>
  <tile id="1295">
   <properties>
    <property name="Water" value="T"/>
   </properties>
  </tile>
  <tile id="1296">
   <properties>
    <property name="Water" value="T"/>
   </properties>
  </tile>
  <tile id="1297">
   <properties>
    <property name="Water" value="T"/>
   </properties>
  </tile>
  <tile id="1298">
   <properties>
    <property name="Water" value="T"/>
   </properties>
  </tile>
  <tile id="1299">
   <properties>
    <property name="Water" value="T"/>
   </properties>
  </tile>
  <tile id="1333">
   <properties>
    <property name="Water" value="T"/>
   </properties>
  </tile>
  <tile id="1334">
   <properties>
    <property name="Water" value="T"/>
   </properties>
  </tile>
  <tile id="1335">
   <properties>
    <property name="Water" value="T"/>
   </properties>
  </tile>
  <tile id="1336">
   <properties>
    <property name="Water" value="T"/>
   </properties>
  </tile>
  <tile id="1337">
   <properties>
    <property name="Water" value="T"/>
   </properties>
  </tile>
  <tile id="1338">
   <properties>
    <property name="Water" value="T"/>
   </properties>
  </tile>
  <tile id="1339">
   <properties>
    <property name="Water" value="T"/>
   </properties>
  </tile>
  <tile id="1373">
   <properties>
    <property name="Water" value="T"/>
   </properties>
  </tile>
  <tile id="1374">
   <properties>
    <property name="Water" value="T"/>
   </properties>
  </tile>
  <tile id="1375">
   <properties>
    <property name="Water" value="T"/>
   </properties>
  </tile>
  <tile id="1376">
   <properties>
    <property name="Water" value="T"/>
   </properties>
  </tile>
  <tile id="1377">
   <properties>
    <property name="Water" value="T"/>
   </properties>
  </tile>
  <tile id="1378">
   <properties>
    <property name="Water" value="T"/>
   </properties>
  </tile>
  <tile id="1379">
   <properties>
    <property name="Water" value="T"/>
   </properties>
  </tile>
 </tileset>
 <tileset firstgid="12907" name="z_municipalbuilding_tiles" tilewidth="16" tileheight="16" tilecount="112" columns="8">
  <image source="spring_municipalbuilding_tiles.png" width="128" height="224"/>
  <tile id="89">
   <properties>
    <property name="Type" value="Stone"/>
   </properties>
  </tile>
 </tileset>
 <tileset firstgid="13019" name="MidnightsMiscExt2" tilewidth="16" tileheight="16" tilecount="50" columns="25">
  <image source="spring_MidnightsMiscExt2.png" width="400" height="32"/>
 </tileset>
 <layer id="1" name="Back" width="15" height="17">
  <data encoding="csv">
1572,1473,1520,1522,1545,1545,1546,1344,1444,1344,1519,1520,1520,1547,1496,
1544,1545,1572,1547,1495,1495,1495,1496,1344,1319,1519,1520,1520,1520,1521,
1319,1494,1497,1520,1520,1520,1520,1547,1495,1495,1497,1520,1520,1520,1547,
1372,1544,1545,1572,1520,1520,1520,1520,1520,1520,1520,1520,1520,1520,1520,
1346,1372,1320,1519,1523,1524,1524,1525,1520,1520,1520,1520,1520,1520,1523,
6302,1610619036,1344,1519,1573,1574,1574,1575,1520,1520,1520,1545,1545,1572,1573,
4140,2684358379,1344,1544,1545,1445,1446,1447,1520,1520,1520,1344,1571,1544,1545,
4172,2684358379,1494,1496,1344,1344,1344,1344,1520,1520,1523,1524,1524,1344,1344,
4207,3851,1519,1521,1344,1344,1344,1344,1520,1520,1548,1549,1549,1344,1344,
3945,3850,1494,1547,1495,1495,1495,1495,1520,1520,1548,1549,1549,1495,1495,
3977,3850,1519,1520,1523,1524,1524,1524,1520,1524,1548,1549,1549,1524,1524,
3944,3850,1444,3848,3976,3976,3977,3977,3850,1519,1573,1574,1574,1574,1574,
3977,3851,1444,3880,3914,3976,3977,3946,3882,1519,1520,1469,1474,1520,1525,
3849,3850,1444,1444,3883,3849,3944,3851,1494,1497,1520,1520,1520,1520,1520,
3977,3851,1319,1444,3883,3976,3977,3851,1519,1520,1520,1520,1520,1520,1520,
3978,3850,1444,1444,3883,3976,3977,3851,1519,1520,1520,1474,1520,1520,1520,
3977,3912,3819,3819,3913,3944,3944,3851,1519,1473,1520,1469,1520,1520,1520
</data>
 </layer>
 <layer id="24" name="Back1" width="15" height="17">
  <data encoding="csv">
0,0,0,0,0,0,0,0,0,0,0,0,0,0,0,
0,0,0,0,0,0,0,0,0,0,0,0,0,0,0,
0,0,0,0,0,0,0,0,0,0,0,0,0,0,0,
0,0,0,0,0,0,0,0,0,0,0,0,0,0,0,
0,0,0,0,0,0,0,0,0,0,0,0,0,0,0,
0,0,0,0,0,0,0,0,0,0,0,0,0,0,0,
0,0,0,0,0,0,0,0,0,0,7958,0,0,0,0,
0,0,0,0,0,0,0,0,0,0,8019,0,0,0,0,
0,0,0,0,0,0,0,0,0,0,7958,0,0,0,0,
0,0,0,0,0,0,0,0,0,0,2147491635,0,0,0,0,
0,0,0,0,0,0,0,0,0,0,7958,0,0,0,0,
0,0,0,0,0,0,0,0,0,0,8019,0,0,0,0,
0,0,0,0,0,0,0,0,2147491637,7987,7989,0,0,0,0,
0,0,0,0,0,0,0,0,0,0,0,0,0,0,0,
0,0,0,0,0,0,0,0,0,0,0,0,0,0,0,
0,0,0,0,0,0,0,0,0,0,0,0,0,0,0,
0,0,0,0,0,0,0,0,0,0,0,0,0,0,0
</data>
 </layer>
 <layer id="2" name="Back2" width="15" height="17">
  <properties>
   <property name="Draw" value="Back"/>
  </properties>
  <data encoding="csv">
0,0,0,0,0,0,0,0,0,0,0,0,0,0,0,
0,0,0,0,0,0,0,0,0,0,0,0,0,0,0,
0,0,0,0,0,0,0,0,0,0,0,0,0,0,0,
0,0,0,0,0,0,0,0,0,0,0,0,0,0,0,
0,0,0,0,0,0,0,0,0,0,0,0,0,0,0,
0,6652,6824,0,0,0,0,0,0,0,0,0,0,0,0,
0,6671,6824,0,0,0,0,0,0,0,0,6652,6824,0,0,
0,6671,6824,0,0,0,0,0,0,7981,7982,6671,6824,0,0,
0,6671,6824,0,0,0,0,0,0,0,0,6671,6824,0,0,
0,6671,6824,0,0,0,0,0,0,0,0,6671,6824,0,0,
0,6671,6824,0,0,0,0,0,0,0,0,6633,6689,6824,0,
0,6633,6843,6717,6847,6847,6847,6847,6699,6698,0,0,0,6633,6689,
0,0,0,0,0,0,0,0,0,0,0,0,0,0,0,
0,0,0,0,0,0,0,0,0,0,0,0,0,0,0,
0,0,0,0,0,0,0,0,0,0,0,0,0,0,0,
0,0,0,0,0,0,0,0,0,0,0,6652,6690,6727,6727,
0,0,0,0,0,0,0,0,0,0,0,6671,6727,6727,6727
</data>
 </layer>
 <layer id="3" name="Back3" width="15" height="17">
  <properties>
   <property name="Draw" value="Back"/>
  </properties>
  <data encoding="csv">
0,0,0,0,0,0,0,0,0,0,0,0,0,0,0,
0,0,0,0,0,0,0,0,0,0,0,0,0,0,0,
0,0,0,0,0,0,0,0,0,0,0,0,0,0,0,
0,0,0,0,0,0,0,0,0,0,0,0,0,0,0,
0,0,0,0,0,0,0,0,0,0,0,0,0,0,0,
0,0,0,0,0,0,0,0,0,0,0,0,0,0,0,
0,0,0,0,0,0,0,0,0,0,0,0,0,0,0,
0,0,0,0,0,0,0,0,0,0,0,0,0,0,0,
0,0,0,0,0,0,0,0,0,0,0,0,0,0,0,
0,0,0,0,0,0,0,0,0,0,0,0,0,0,0,
0,0,0,0,0,0,0,0,0,0,0,0,0,0,0,
0,0,0,0,0,0,0,0,0,0,0,0,0,0,0,
0,0,0,0,0,0,0,0,0,0,0,0,0,0,0,
0,0,0,0,0,0,0,0,0,0,0,0,0,0,0,
0,0,0,0,0,0,0,0,0,0,0,0,0,0,0,
0,0,0,0,0,0,0,0,0,0,0,0,0,0,0,
0,0,0,0,0,0,0,0,0,0,0,0,0,0,0
</data>
 </layer>
 <layer id="4" name="Buildings" width="15" height="17">
  <data encoding="csv">
0,0,0,0,0,0,0,0,0,0,0,4291,4292,4293,0,
0,0,0,0,0,0,0,0,0,0,0,4323,4324,4325,0,
0,0,0,0,0,0,0,0,0,0,0,0,0,0,0,
0,1552,1553,1553,1553,1553,1552,1553,1553,1603,1553,1553,1554,1553,1552,
0,0,12931,12932,12933,12934,12935,12936,12937,12938,1520,1282,1283,1271,1271,
0,0,12939,12940,12941,12942,12943,12944,12945,12946,7411,7412,1426,1271,1476,
0,0,12947,12948,12949,12950,12951,12952,12953,12954,0,3286,1610,1271,1271,
0,0,12955,12956,12957,12958,12959,12960,12961,12962,0,3296,1635,1633,1609,
0,4211,12963,12964,12965,12966,12967,12968,12969,12970,0,13022,1660,1658,1634,
0,0,12971,12972,12973,12974,12975,12976,12977,12978,0,13047,1685,1683,1659,
2690,0,12979,12980,12981,12982,12983,12984,12985,12986,0,0,1710,1708,1684,
1437,2691,3530,3531,12989,0,0,12992,3530,3531,0,0,0,0,1709,
0,0,0,0,0,0,0,0,0,0,0,0,0,0,0,
0,0,0,0,0,0,0,0,0,0,0,0,0,0,3626,
0,0,0,0,0,0,0,0,0,0,0,216,3656,3657,3658,
0,0,0,0,0,0,0,0,0,0,0,0,3688,3689,3690,
286,287,180,4211,181,182,182,182,182,182,182,183,3720,3721,3722
</data>
 </layer>
 <layer id="21" name="Buildings1" width="15" height="17">
  <data encoding="csv">
0,0,0,0,0,0,0,0,0,0,0,0,0,0,0,
0,0,0,0,0,0,0,0,0,0,0,0,0,0,0,
0,0,0,0,0,0,0,0,0,0,0,0,0,0,0,
0,0,0,0,0,0,0,0,0,0,0,0,0,0,0,
0,0,0,0,0,0,0,0,0,0,0,0,0,0,0,
0,0,0,0,0,0,0,0,0,0,0,0,0,0,0,
0,0,0,0,0,0,0,0,0,0,0,0,0,0,0,
0,0,0,0,0,0,0,0,0,0,0,0,0,0,0,
0,0,0,0,0,0,0,0,0,0,0,0,0,7342,7343,
0,0,0,0,0,0,0,0,0,0,0,0,0,7372,7373,
0,0,0,0,0,0,0,0,0,0,0,0,0,7402,7403,
0,0,0,0,0,0,0,0,0,0,0,0,0,0,0,
0,0,0,0,0,0,0,0,0,0,0,0,0,0,0,
0,0,0,0,0,0,0,0,0,0,0,0,0,0,0,
0,0,0,0,0,0,0,0,0,0,0,0,0,0,0,
0,0,0,0,0,0,0,0,0,0,0,0,0,0,0,
0,0,0,0,0,0,0,0,0,0,0,0,0,0,0
</data>
 </layer>
 <layer id="5" name="Buildings2" width="15" height="17">
  <properties>
   <property name="Draw" value="Buildings"/>
  </properties>
  <data encoding="csv">
0,0,0,0,0,0,0,0,0,0,0,0,0,0,0,
0,0,0,0,0,0,0,0,0,0,0,0,0,0,0,
0,0,0,0,0,0,0,0,0,0,0,0,0,0,0,
0,0,12923,12924,12925,12926,12927,12928,12929,12930,0,0,0,0,0,
0,0,0,0,0,0,0,0,0,0,0,0,0,0,0,
0,0,0,0,0,0,0,0,0,0,0,0,0,0,0,
0,0,0,0,0,0,0,0,0,0,0,3264,0,0,0,
0,0,0,0,0,0,0,0,0,0,0,0,0,0,0,
0,0,0,0,0,0,0,0,0,0,0,0,0,0,0,
0,0,0,0,0,0,0,0,0,0,0,0,0,0,0,
0,0,3498,3499,0,0,0,0,3498,3499,0,0,0,0,0,
0,0,0,0,0,0,0,0,0,0,0,0,0,0,0,
0,0,0,0,0,0,0,0,0,0,0,0,0,0,0,
0,0,0,0,0,0,0,0,0,0,0,0,0,0,0,
0,0,0,0,0,0,0,0,0,0,0,0,0,0,0,
0,0,0,0,0,0,0,0,0,0,0,0,0,0,0,
0,0,0,0,0,0,0,0,0,0,0,0,0,0,0
</data>
 </layer>
 <layer id="6" name="Paths" width="15" height="17">
  <data encoding="csv">
0,3169,0,0,0,0,0,0,0,0,0,0,0,0,0,
0,0,0,0,0,0,0,0,0,0,0,0,0,0,0,
0,0,0,3166,3166,3166,3166,3166,3166,3166,3166,3166,3166,3166,3166,
0,0,0,0,0,0,0,0,0,0,0,0,0,0,0,
0,0,0,0,0,0,0,0,0,0,0,0,0,3166,3166,
0,0,0,0,0,0,0,0,0,0,0,0,0,3166,0,
0,0,0,0,0,0,0,0,0,0,0,0,0,0,0,
0,0,0,0,0,0,0,0,0,0,0,0,0,0,0,
0,0,0,0,0,0,0,0,0,0,0,0,0,0,0,
0,0,0,0,0,0,0,0,0,0,0,0,0,0,0,
0,0,0,0,0,0,0,0,0,0,0,0,0,0,0,
0,0,0,0,0,0,0,0,0,0,0,0,0,3170,0,
0,213,0,0,0,0,0,0,0,0,0,0,3166,3166,0,
0,0,0,0,0,0,0,0,0,0,0,3166,3166,0,0,
0,0,0,0,0,0,0,0,0,0,0,0,0,0,0,
0,0,0,0,0,0,0,0,0,0,0,0,0,0,0,
0,0,0,0,0,0,0,0,0,0,0,0,0,0,0
</data>
 </layer>
 <layer id="7" name="Front" width="15" height="17">
  <data encoding="csv">
0,0,0,0,0,0,0,0,0,0,0,0,9351,0,0,
0,0,0,0,0,0,0,0,0,0,0,0,0,0,0,
0,1527,1528,1528,1528,1528,1527,1528,1528,1578,1528,1528,1529,1528,1527,
0,0,0,0,0,0,0,0,0,0,0,1257,1258,0,0,
0,0,0,0,0,0,0,0,0,0,7381,7382,0,9085,9086,
0,0,0,0,0,0,0,0,0,0,0,3254,0,0,0,
0,0,0,0,0,0,0,0,0,0,0,0,0,0,0,
0,4179,0,0,0,0,0,0,0,0,0,0,0,0,0,
0,0,0,0,0,0,0,0,0,0,0,0,0,0,0,
2665,0,0,0,0,0,0,0,0,0,0,0,0,0,0,
1412,2666,0,0,0,0,0,0,0,0,0,0,0,0,0,
0,0,0,0,0,0,0,0,0,0,0,0,0,3561,3562,
0,0,0,0,0,0,0,0,0,0,0,0,0,3593,3594,
0,0,0,0,0,0,0,0,0,0,0,0,3624,3625,3626,
0,0,0,0,0,0,0,0,0,0,0,0,0,0,0,
254,255,0,4179,149,150,150,150,150,0,0,0,0,0,0,
0,0,0,0,0,0,9085,9086,9087,9088,9089,9090,9091,9092,0
</data>
 </layer>
 <layer id="22" name="Front1" width="15" height="17">
  <data encoding="csv">
0,0,0,0,0,0,0,0,0,0,0,0,0,0,0,
0,0,0,0,0,0,0,0,0,0,0,0,0,0,0,
0,0,0,0,0,0,0,0,0,0,0,0,0,0,0,
0,0,0,0,0,0,0,0,0,0,0,0,0,0,0,
0,0,0,0,0,0,0,0,0,0,0,0,0,0,0,
0,0,0,0,0,0,0,0,0,0,0,0,0,0,0,
0,0,0,0,0,0,0,0,0,0,0,0,0,0,0,
0,0,0,0,0,0,0,0,0,0,0,0,0,0,0,
0,0,0,0,0,0,0,0,0,0,0,0,0,0,0,
0,0,0,0,0,0,0,0,0,0,0,0,0,0,0,
0,0,0,0,0,0,0,0,0,0,0,0,0,0,0,
0,0,0,0,0,0,0,0,0,0,0,0,0,0,0,
0,0,0,0,0,0,0,0,0,0,0,0,0,0,0,
0,0,0,0,0,0,0,0,0,0,0,0,0,0,0,
0,0,0,0,0,0,0,0,0,0,0,0,0,0,0,
0,0,0,0,0,0,0,0,0,0,0,0,0,0,0,
0,0,0,0,0,0,0,0,0,0,0,0,0,0,0
</data>
 </layer>
 <layer id="8" name="AlwaysFront" width="15" height="17">
  <data encoding="csv">
0,0,0,0,0,0,0,0,0,0,0,0,0,8925,8926,
0,0,12907,12908,12909,12910,12911,12912,12913,12914,0,0,0,8965,8966,
0,0,12915,12916,12917,12918,12919,12920,12921,12922,0,0,0,9005,9006,
0,0,0,0,0,0,0,0,0,0,0,0,0,9045,9046,
0,0,0,0,0,0,0,0,0,0,7922,0,0,0,0,
0,4115,0,0,0,0,0,0,0,0,7952,0,0,0,0,
0,4147,0,0,0,0,0,0,0,0,0,0,0,0,0,
0,0,0,0,0,0,0,0,0,0,0,0,0,0,0,
0,0,0,0,0,0,0,0,0,0,0,0,0,0,0,
0,0,0,0,12997,0,0,12997,0,0,0,0,0,0,3489,
0,0,0,0,0,0,0,0,0,0,0,0,0,0,3521,
0,0,0,0,0,0,0,0,0,0,0,0,0,0,3562,
158,1137,0,0,0,0,8925,8926,8927,8928,8929,8930,8931,3593,3594,
190,191,0,4115,0,0,8965,8966,8967,8968,8969,8970,8971,3625,3626,
222,223,0,4147,0,0,9005,9006,9007,9008,9009,9010,9011,9012,0,
0,0,0,0,0,0,9045,9046,9047,9048,9049,9050,9051,9052,0,
0,0,0,0,0,0,0,0,0,0,0,0,4115,0,0
</data>
 </layer>
 <layer id="23" name="AlwaysFront1" width="15" height="17">
  <data encoding="csv">
0,0,0,0,0,0,0,0,0,0,0,0,0,0,0,
0,0,0,0,0,0,0,0,0,0,0,0,0,0,0,
0,0,0,0,0,0,0,0,0,0,0,0,0,0,0,
0,0,0,0,0,0,0,0,0,0,0,0,0,0,0,
0,0,0,0,0,0,0,0,0,0,0,0,0,0,0,
0,0,0,0,0,0,0,0,0,0,0,0,0,0,0,
0,0,0,0,0,0,0,0,0,0,0,0,0,0,0,
0,0,0,0,0,0,0,0,0,0,0,0,0,0,0,
0,0,0,0,0,0,0,0,0,0,0,0,0,0,0,
0,0,0,0,0,0,0,0,0,0,0,0,0,0,0,
0,0,0,0,0,0,0,0,0,0,0,0,0,0,0,
0,0,0,0,0,0,0,0,0,0,0,0,0,0,0,
0,0,0,0,0,0,0,0,0,0,0,0,0,0,0,
0,0,0,0,0,0,0,0,0,0,0,0,0,0,0,
0,0,0,0,0,0,0,0,0,0,0,0,0,0,0,
0,0,0,0,0,0,0,0,0,0,0,0,0,0,0,
0,0,0,0,0,0,0,0,0,0,0,0,0,0,0
</data>
 </layer>
 <layer id="9" name="Set-Up" width="15" height="17">
  <data encoding="csv">
0,0,0,0,0,0,0,0,0,0,0,0,0,0,0,
0,0,0,0,0,0,0,0,0,0,0,0,0,0,0,
0,0,0,0,0,0,0,0,0,0,0,0,0,0,0,
0,0,0,0,0,0,0,0,0,0,0,0,0,0,0,
0,0,0,0,0,0,0,0,0,0,0,0,0,0,0,
0,0,0,0,0,0,0,0,0,0,0,0,0,0,0,
0,0,0,0,0,0,0,0,0,0,0,0,0,0,0,
0,0,0,0,0,0,0,0,0,0,0,0,0,0,0,
0,0,0,0,0,0,0,0,0,0,0,0,0,0,0,
0,0,0,0,0,0,0,0,0,0,0,0,0,0,0,
0,0,0,0,0,0,0,0,0,0,0,0,0,0,0,
0,0,0,0,0,0,0,0,0,0,0,0,0,0,0,
0,0,0,0,0,0,0,0,0,0,0,0,0,0,0,
0,0,0,0,0,0,0,0,0,0,0,0,0,0,0,
0,0,0,0,0,0,0,0,0,0,0,0,0,0,0,
0,0,0,0,0,0,0,0,0,0,0,0,0,0,0,
0,0,0,0,0,0,0,0,0,0,0,0,0,0,0
</data>
 </layer>
 <layer id="10" name="MainEvent" width="15" height="17">
  <data encoding="csv">
0,0,0,0,0,0,0,0,0,0,0,0,0,0,0,
0,0,0,0,0,0,0,0,0,0,0,0,0,0,0,
0,0,0,0,0,0,0,0,0,0,0,0,0,0,0,
0,0,0,0,0,0,0,0,0,0,0,0,0,0,0,
0,0,0,0,0,0,0,0,0,0,0,0,0,0,0,
0,0,0,0,0,0,0,0,0,0,0,0,0,0,0,
0,0,0,0,0,0,0,0,0,0,0,0,0,0,0,
0,0,0,0,0,0,0,0,0,0,0,0,0,0,0,
0,0,0,0,0,0,0,0,0,0,0,0,0,0,0,
0,0,0,0,0,0,0,0,0,0,0,0,0,0,0,
0,0,0,0,0,0,0,0,0,0,0,0,0,0,0,
0,0,0,0,0,0,0,0,0,0,0,0,0,0,0,
0,0,0,0,0,0,0,0,0,0,0,0,0,0,0,
0,0,0,0,0,0,0,0,0,0,0,0,0,0,0,
0,0,0,0,0,0,0,0,0,0,0,0,0,0,0,
0,0,0,0,0,0,0,0,0,0,0,0,0,0,0,
0,0,0,0,0,0,0,0,0,0,0,0,0,0,0
</data>
 </layer>
 <objectgroup id="11" name="Back"/>
 <objectgroup id="12" name="Back2"/>
 <objectgroup id="13" name="Back3"/>
 <objectgroup id="14" name="Buildings">
  <object id="10" name="TileData" x="0" y="256" width="16" height="16">
   <properties>
    <property name="Action" value="Shop Festival_EggFestival_Pierre"/>
   </properties>
  </object>
  <object id="48" name="TileData" x="80" y="160" width="16" height="16">
   <properties>
    <property name="Action" value="LockedDoorWarp 9 19 MunicipalFloor1 900 1700"/>
   </properties>
  </object>
  <object id="49" name="TileData" x="96" y="160" width="16" height="16">
   <properties>
    <property name="Action" value="LockedDoorWarp 10 19 MunicipalFloor1 900 1700"/>
   </properties>
  </object>
  <object id="50" name="TileData" x="176" y="96" width="16" height="16">
   <properties>
    <property name="Action" value="Garbage MV.Municipal"/>
   </properties>
  </object>
  <object id="51" name="TileData" x="176" y="144" width="16" height="16">
   <properties>
    <property name="Action" value="Message MunicipalFlavor55"/>
   </properties>
  </object>
  <object id="52" name="TileData" x="144" y="96" width="16" height="16">
   <properties>
    <property name="Action" value="LockedDoorWarp 28 7 MunicipalFloor2 900 2200"/>
   </properties>
  </object>
 </objectgroup>
 <objectgroup id="15" name="Buildings2"/>
 <objectgroup id="16" name="Paths"/>
 <objectgroup id="17" name="Front"/>
 <objectgroup id="18" name="AlwaysFront"/>
 <objectgroup id="19" name="Set-Up"/>
 <objectgroup id="20" name="MainEvent"/>
</map>
