<?xml version="1.0" encoding="UTF-8"?>
<map version="1.10" tiledversion="1.11.2" orientation="orthogonal" renderorder="right-down" compressionlevel="0" width="17" height="12" tilewidth="16" tileheight="16" infinite="0" nextlayerid="15" nextobjectid="11">
 <tileset firstgid="1" name="1" tilewidth="16" tileheight="16" tilecount="2176" columns="32">
  <image source="townInterior" width="512" height="1088"/>
  <tile id="220">
   <animation>
    <frame tileid="220" duration="500"/>
    <frame tileid="220" duration="500"/>
    <frame tileid="220" duration="500"/>
    <frame tileid="220" duration="500"/>
    <frame tileid="220" duration="500"/>
    <frame tileid="222" duration="500"/>
    <frame tileid="220" duration="500"/>
    <frame tileid="222" duration="500"/>
    <frame tileid="220" duration="500"/>
    <frame tileid="220" duration="500"/>
    <frame tileid="220" duration="500"/>
    <frame tileid="220" duration="500"/>
    <frame tileid="222" duration="500"/>
    <frame tileid="220" duration="500"/>
    <frame tileid="220" duration="500"/>
    <frame tileid="220" duration="500"/>
    <frame tileid="220" duration="500"/>
    <frame tileid="222" duration="500"/>
    <frame tileid="220" duration="500"/>
    <frame tileid="222" duration="500"/>
    <frame tileid="222" duration="500"/>
    <frame tileid="222" duration="500"/>
    <frame tileid="222" duration="500"/>
   </animation>
  </tile>
  <tile id="221">
   <animation>
    <frame tileid="221" duration="500"/>
    <frame tileid="221" duration="500"/>
    <frame tileid="221" duration="500"/>
    <frame tileid="221" duration="500"/>
    <frame tileid="221" duration="500"/>
    <frame tileid="223" duration="500"/>
    <frame tileid="221" duration="500"/>
    <frame tileid="223" duration="500"/>
    <frame tileid="221" duration="500"/>
    <frame tileid="223" duration="500"/>
    <frame tileid="221" duration="500"/>
    <frame tileid="221" duration="500"/>
    <frame tileid="221" duration="500"/>
    <frame tileid="221" duration="500"/>
    <frame tileid="223" duration="500"/>
    <frame tileid="221" duration="500"/>
    <frame tileid="221" duration="500"/>
    <frame tileid="223" duration="500"/>
    <frame tileid="221" duration="500"/>
    <frame tileid="223" duration="500"/>
    <frame tileid="221" duration="500"/>
    <frame tileid="221" duration="500"/>
    <frame tileid="221" duration="500"/>
    <frame tileid="221" duration="500"/>
    <frame tileid="223" duration="500"/>
    <frame tileid="223" duration="500"/>
    <frame tileid="223" duration="500"/>
   </animation>
  </tile>
  <tile id="581">
   <animation>
    <frame tileid="581" duration="1000"/>
    <frame tileid="550" duration="1000"/>
    <frame tileid="581" duration="1000"/>
    <frame tileid="582" duration="1000"/>
   </animation>
  </tile>
 </tileset>
 <tileset firstgid="2177" name="p" tilewidth="16" tileheight="16" tilecount="64" columns="4">
  <image source="paths" width="64" height="256"/>
 </tileset>
 <tileset firstgid="2241" name="untitled tile sheet2" tilewidth="16" tileheight="16" tilecount="1312" columns="32">
  <image source="townInterior_2" width="512" height="656"/>
  <tile id="52">
   <animation>
    <frame tileid="52" duration="50"/>
    <frame tileid="112" duration="50"/>
    <frame tileid="113" duration="50"/>
    <frame tileid="47" duration="50"/>
    <frame tileid="47" duration="50"/>
    <frame tileid="47" duration="50"/>
    <frame tileid="47" duration="50"/>
    <frame tileid="47" duration="50"/>
    <frame tileid="47" duration="50"/>
    <frame tileid="47" duration="50"/>
    <frame tileid="47" duration="50"/>
    <frame tileid="47" duration="50"/>
    <frame tileid="47" duration="50"/>
    <frame tileid="47" duration="50"/>
    <frame tileid="47" duration="50"/>
    <frame tileid="47" duration="50"/>
    <frame tileid="47" duration="50"/>
    <frame tileid="47" duration="50"/>
    <frame tileid="113" duration="50"/>
    <frame tileid="112" duration="50"/>
    <frame tileid="52" duration="50"/>
    <frame tileid="52" duration="50"/>
    <frame tileid="52" duration="50"/>
    <frame tileid="52" duration="50"/>
    <frame tileid="52" duration="50"/>
    <frame tileid="52" duration="50"/>
    <frame tileid="52" duration="50"/>
    <frame tileid="52" duration="50"/>
    <frame tileid="52" duration="50"/>
    <frame tileid="52" duration="50"/>
    <frame tileid="52" duration="50"/>
    <frame tileid="52" duration="50"/>
    <frame tileid="52" duration="50"/>
    <frame tileid="52" duration="50"/>
    <frame tileid="52" duration="50"/>
    <frame tileid="52" duration="50"/>
    <frame tileid="52" duration="50"/>
    <frame tileid="52" duration="50"/>
    <frame tileid="52" duration="50"/>
    <frame tileid="52" duration="50"/>
    <frame tileid="52" duration="50"/>
    <frame tileid="52" duration="50"/>
    <frame tileid="52" duration="50"/>
   </animation>
  </tile>
 </tileset>
 <tileset firstgid="3553" name="MidnightsMisc" tilewidth="16" tileheight="16" tilecount="456" columns="12">
  <image source="MidnightsMisc.png" width="192" height="608"/>
  <tile id="291">
   <animation>
    <frame tileid="291" duration="50"/>
    <frame tileid="326" duration="50"/>
    <frame tileid="327" duration="50"/>
    <frame tileid="290" duration="50"/>
    <frame tileid="290" duration="50"/>
    <frame tileid="290" duration="50"/>
    <frame tileid="290" duration="50"/>
    <frame tileid="290" duration="50"/>
    <frame tileid="290" duration="50"/>
    <frame tileid="290" duration="50"/>
    <frame tileid="290" duration="50"/>
    <frame tileid="290" duration="50"/>
    <frame tileid="290" duration="50"/>
    <frame tileid="290" duration="50"/>
    <frame tileid="290" duration="50"/>
    <frame tileid="290" duration="50"/>
    <frame tileid="290" duration="50"/>
    <frame tileid="290" duration="50"/>
    <frame tileid="327" duration="50"/>
    <frame tileid="326" duration="50"/>
    <frame tileid="291" duration="50"/>
    <frame tileid="291" duration="50"/>
    <frame tileid="291" duration="50"/>
    <frame tileid="291" duration="50"/>
    <frame tileid="291" duration="50"/>
    <frame tileid="291" duration="50"/>
    <frame tileid="291" duration="50"/>
    <frame tileid="291" duration="50"/>
    <frame tileid="291" duration="50"/>
    <frame tileid="291" duration="50"/>
    <frame tileid="291" duration="50"/>
    <frame tileid="291" duration="50"/>
    <frame tileid="291" duration="50"/>
    <frame tileid="291" duration="50"/>
    <frame tileid="291" duration="50"/>
    <frame tileid="291" duration="50"/>
    <frame tileid="291" duration="50"/>
    <frame tileid="291" duration="50"/>
    <frame tileid="291" duration="50"/>
    <frame tileid="291" duration="50"/>
   </animation>
  </tile>
  <tile id="292">
   <animation>
    <frame tileid="292" duration="250"/>
    <frame tileid="294" duration="250"/>
    <frame tileid="292" duration="250"/>
    <frame tileid="318" duration="250"/>
   </animation>
  </tile>
  <tile id="293">
   <animation>
    <frame tileid="293" duration="250"/>
    <frame tileid="295" duration="250"/>
    <frame tileid="293" duration="250"/>
    <frame tileid="319" duration="250"/>
   </animation>
  </tile>
  <tile id="304">
   <animation>
    <frame tileid="304" duration="250"/>
    <frame tileid="306" duration="250"/>
    <frame tileid="304" duration="250"/>
    <frame tileid="330" duration="250"/>
   </animation>
  </tile>
  <tile id="305">
   <animation>
    <frame tileid="305" duration="250"/>
    <frame tileid="307" duration="250"/>
    <frame tileid="305" duration="250"/>
    <frame tileid="331" duration="250"/>
   </animation>
  </tile>
  <tile id="312">
   <animation>
    <frame tileid="312" duration="800"/>
    <frame tileid="308" duration="800"/>
   </animation>
  </tile>
  <tile id="313">
   <animation>
    <frame tileid="313" duration="800"/>
    <frame tileid="309" duration="800"/>
   </animation>
  </tile>
 </tileset>
 <layer id="1" name="Back" width="17" height="12">
  <data encoding="csv">
0,1,1,1,1,1,1,1,1,1,1,1,1,1,1,1,0,
0,3219,3220,3220,3220,3220,3220,3220,3220,3220,3220,3220,3220,3220,3221,1,0,
0,3251,3252,3252,3252,3252,3252,3252,3252,3252,3252,3252,3252,3252,3253,1,0,
0,3283,3284,3284,3284,3284,3284,3284,3284,3284,3284,3284,3284,3284,3285,1,0,
0,126,93,93,95,93,93,93,605,605,605,605,605,605,573,1,0,
0,125,125,125,127,125,125,125,604,636,604,636,636,604,3139,1,0,
0,125,125,125,125,125,125,125,636,636,604,636,636,636,3139,1,0,
0,125,125,125,125,125,125,125,636,604,636,636,636,636,3107,3191,3191,
0,125,125,125,125,125,125,125,604,604,604,636,636,636,3139,3223,3223,
0,125,125,125,125,125,125,125,604,636,636,636,636,604,3107,604,636,
0,125,125,125,125,125,125,125,636,636,604,636,604,636,3171,605,605,
0,1,1,1,1,0,125,125,1,1,1,1,1,1,1,1,1
</data>
 </layer>
 <layer id="2" name="Back2" width="17" height="12">
  <properties>
   <property name="Draw" value="Back"/>
  </properties>
  <data encoding="csv">
0,0,0,0,0,0,0,0,0,0,0,0,0,0,0,0,0,
0,0,0,0,0,0,0,0,0,0,0,0,0,0,0,0,0,
0,0,0,0,0,0,0,0,0,0,0,0,0,0,0,0,0,
0,0,0,0,0,0,0,0,0,0,0,0,0,0,0,0,0,
0,0,0,0,0,0,0,0,0,0,0,0,0,0,0,0,0,
0,0,0,0,0,0,0,0,0,0,0,0,0,0,0,0,0,
0,0,0,0,0,0,0,0,0,0,0,0,0,0,0,0,0,
0,0,0,0,0,0,0,0,0,0,0,0,0,0,0,0,0,
0,0,0,0,0,0,0,0,0,0,0,0,0,0,0,0,0,
0,0,0,0,0,0,2442,2443,0,0,0,0,0,0,0,0,0,
0,0,0,0,0,0,2474,2475,0,0,0,0,0,0,0,0,0,
0,0,0,0,0,0,2506,2507,0,0,0,0,0,0,0,0,0
</data>
 </layer>
 <layer id="3" name="Buildings" width="17" height="12">
  <data encoding="csv">
1,1,1,1,1,1,0,1,1,1,1,1,1,1,1,1,1,
0,0,155,0,0,0,0,0,0,0,0,0,0,156,0,1,1,
0,80,187,81,81,81,81,81,81,81,81,81,81,188,82,1,1,
0,112,113,113,113,113,113,113,113,113,113,113,113,113,114,1,1,
0,144,3333,3334,3013,3334,3012,2501,582,521,3910,3911,3912,521,146,1,1,
0,496,0,0,0,0,0,0,0,0,0,0,0,0,3612,1,1,
0,0,0,0,0,0,0,0,0,0,656,657,658,0,898,1,1,
0,0,522,522,522,0,0,0,0,0,688,689,690,0,962,155,156,
0,393,426,427,428,457,0,0,0,0,0,0,0,0,0,187,188,
0,393,458,459,460,457,0,0,0,0,0,0,0,0,0,219,220,
0,0,523,523,523,0,0,0,2829,0,0,0,0,0,0,0,0,
1,1,1,1,1,0,0,0,1,1,1,1,1,1,1,1,1
</data>
 </layer>
 <layer id="4" name="Front" width="17" height="12">
  <data encoding="csv">
0,2,3,3,3,3,3,3,3,11,3,3,3,11,4,1,0,
33,42,2915,2916,257,2915,2916,2405,0,901,933,0,0,0,44,37,0,
65,0,2947,2948,289,2947,2948,2437,177,0,903,0,0,0,3576,69,0,
65,0,3301,3302,2981,3302,2980,2469,550,489,3898,3899,3900,489,3588,69,0,
65,3641,0,0,0,0,0,0,0,0,0,0,0,0,3600,69,0,
65,0,0,0,0,0,0,0,0,0,624,625,626,0,866,69,0,
65,0,490,490,490,0,0,0,0,0,0,0,0,0,930,194,11,
65,361,394,395,396,425,0,0,0,0,0,0,0,0,0,0,0,
65,361,0,536,0,425,0,0,2765,0,0,0,0,0,0,216,0,
65,0,491,491,491,0,0,0,2797,0,0,0,0,0,0,0,0,
161,162,166,166,166,163,0,0,164,166,166,166,166,166,166,166,166,
0,1,1,1,0,65,0,0,69,1,1,1,1,1,1,1,1
</data>
 </layer>
 <layer id="5" name="Front2" width="17" height="12">
  <properties>
   <property name="Draw" value="Front"/>
  </properties>
  <data encoding="csv">
0,0,0,0,0,0,0,0,0,0,0,0,0,0,0,0,0,
0,0,0,0,0,0,0,1345,0,0,0,214,1345,0,0,0,0,
0,1345,0,0,0,0,0,0,0,758,0,182,216,0,0,0,0,
0,0,0,3895,0,0,0,0,0,3644,0,0,0,434,0,0,0,
0,464,0,0,0,0,0,0,0,0,0,0,0,0,0,0,0,
0,0,0,0,0,0,0,0,0,0,0,3639,3640,0,0,0,0,
0,0,0,0,0,0,0,0,0,0,835,3651,3652,0,0,0,0,
0,0,0,504,0,0,0,0,0,0,0,0,0,0,0,0,0,
0,0,0,0,0,0,0,0,0,0,0,0,0,0,0,0,0,
0,0,0,0,0,0,0,0,0,0,0,0,0,0,0,0,0,
0,0,0,0,0,0,0,0,0,0,0,0,0,0,0,0,0,
0,0,0,0,0,0,0,0,0,0,0,0,0,0,0,0,0
</data>
 </layer>
 <layer id="6" name="Front3" width="17" height="12">
  <properties>
   <property name="Draw" value="Front"/>
  </properties>
  <data encoding="csv">
0,0,0,0,0,0,0,0,0,0,0,0,0,0,0,0,0,
0,0,0,0,0,0,0,0,899,0,0,0,0,0,0,0,0,
0,0,0,0,0,0,0,0,0,0,0,0,0,0,0,0,0,
0,0,0,0,0,0,0,0,0,0,0,0,0,0,0,0,0,
0,0,0,0,0,0,0,0,0,0,0,0,0,0,0,0,0,
0,0,0,0,0,0,0,0,0,0,0,0,0,0,0,0,0,
0,0,0,0,0,0,0,0,0,0,0,0,0,0,0,0,0,
0,0,0,0,0,0,0,0,0,0,0,0,0,0,0,0,0,
0,0,0,0,0,0,0,0,0,0,0,0,0,0,0,0,0,
0,0,0,0,0,0,0,0,0,0,0,0,0,0,0,0,0,
0,0,0,0,0,0,0,0,0,0,0,0,0,0,0,0,0,
0,0,0,0,0,0,0,0,0,0,0,0,0,0,0,0,0
</data>
 </layer>
 <layer id="7" name="Paths" width="17" height="12">
  <data encoding="csv">
0,0,0,0,0,0,0,0,0,0,0,0,0,0,0,0,0,
0,0,0,0,0,0,0,2185,0,0,0,0,2185,0,0,0,0,
0,2185,0,0,2185,0,0,0,0,0,0,0,0,0,0,0,0,
0,0,0,0,0,0,0,0,2185,0,0,0,0,0,0,0,0,
0,0,0,0,0,0,0,0,0,0,0,0,0,0,0,0,0,
0,0,0,0,0,0,0,0,0,0,0,0,0,0,0,0,0,
0,0,0,0,0,0,0,0,0,0,0,0,2185,0,0,0,0,
0,0,0,0,0,0,0,2185,0,0,0,0,0,0,0,0,0,
0,0,0,2185,0,0,0,0,0,0,0,0,0,0,0,0,0,
0,0,0,0,0,0,0,0,0,0,0,0,0,0,0,2185,0,
0,0,0,0,0,0,0,0,0,0,0,0,0,0,0,0,0,
0,0,0,0,0,0,0,0,0,0,0,0,0,0,0,0,0
</data>
 </layer>
 <objectgroup id="8" name="Back"/>
 <objectgroup id="9" name="Back2"/>
 <objectgroup id="10" name="Buildings"/>
 <objectgroup id="11" name="Front"/>
 <objectgroup id="12" name="Front2"/>
 <objectgroup id="13" name="Front3"/>
 <objectgroup id="14" name="Paths"/>
</map>
