<?xml version="1.0" encoding="UTF-8"?>
<map version="1.10" tiledversion="1.12.1" orientation="orthogonal" renderorder="right-down" compressionlevel="0" width="1" height="2" tilewidth="16" tileheight="16" infinite="0" nextlayerid="15" nextobjectid="4">
 <tileset firstgid="1" name="untitled tile sheet" tilewidth="16" tileheight="16" tilecount="2176" columns="32">
  <image source="townInterior" width="512" height="1088"/>
 </tileset>
 <tileset firstgid="2177" name="z_municipalbuilding_interior_tiles" tilewidth="16" tileheight="16" tilecount="200" columns="10">
  <image source="z_municipalbuilding_interior_tiles.png" width="160" height="320"/>
 </tileset>
 <tileset firstgid="2377" name="Paths" tilewidth="16" tileheight="16" tilecount="64" columns="4">
  <image source="paths" width="64" height="256"/>
  <tile id="35">
   <properties>
    <property name="GreenRain" value="??"/>
   </properties>
  </tile>
 </tileset>
 <layer id="1" name="Back" width="1" height="2">
  <data encoding="csv">
2171,
703
</data>
 </layer>
 <layer id="2" name="Back2" width="1" height="2">
  <properties>
   <property name="Draw" value="Back"/>
  </properties>
  <data encoding="csv">
0,
0
</data>
 </layer>
 <layer id="3" name="Buildings" width="1" height="2">
  <data encoding="csv">
0,
2334
</data>
 </layer>
 <layer id="4" name="Front" width="1" height="2">
  <data encoding="csv">
2324,
0
</data>
 </layer>
 <layer id="5" name="Front2" width="1" height="2">
  <properties>
   <property name="Draw" value="Front"/>
  </properties>
  <data encoding="csv">
0,
0
</data>
 </layer>
 <layer id="6" name="Front3" width="1" height="2">
  <properties>
   <property name="Draw" value="Front"/>
  </properties>
  <data encoding="csv">
0,
0
</data>
 </layer>
 <layer id="7" name="Paths" width="1" height="2">
  <data encoding="csv">
2385,
0
</data>
 </layer>
 <objectgroup id="8" name="Back"/>
 <objectgroup id="9" name="Back2"/>
 <objectgroup id="10" name="Buildings">
  <object id="3" name="TileData" x="0" y="16" width="16" height="16">
   <properties>
    <property name="Action" value="Message MunicipalFlavorWizard"/>
   </properties>
  </object>
 </objectgroup>
 <objectgroup id="11" name="Front"/>
 <objectgroup id="12" name="Front2"/>
 <objectgroup id="13" name="Front3"/>
 <objectgroup id="14" name="Paths"/>
</map>
