<?xml version="1.0" encoding="UTF-8"?>
<map version="1.10" tiledversion="1.11.2" orientation="orthogonal" renderorder="right-down" compressionlevel="0" width="3" height="3" tilewidth="16" tileheight="16" infinite="0" nextlayerid="15" nextobjectid="56">
 <tileset firstgid="1" name="indoors" tilewidth="16" tileheight="16" tilecount="2176" columns="32">
  <image source="townInterior" width="512" height="1088"/>
 </tileset>
 <tileset firstgid="2177" name="indoors2" tilewidth="16" tileheight="16" tilecount="1312" columns="32">
  <image source="townInterior_2" width="512" height="656"/>
 </tileset>
 <tileset firstgid="3489" name="z_municipalbuilding_interior_tiles" tilewidth="16" tileheight="16" tilecount="170" columns="10">
  <image source="z_municipalbuilding_interior_tiles.png" width="160" height="272"/>
  <tile id="10">
   <animation>
    <frame tileid="10" duration="400"/>
    <frame tileid="12" duration="400"/>
    <frame tileid="14" duration="400"/>
    <frame tileid="16" duration="400"/>
   </animation>
  </tile>
  <tile id="11">
   <animation>
    <frame tileid="11" duration="400"/>
    <frame tileid="13" duration="400"/>
    <frame tileid="15" duration="400"/>
    <frame tileid="17" duration="400"/>
   </animation>
  </tile>
  <tile id="20">
   <animation>
    <frame tileid="20" duration="400"/>
    <frame tileid="22" duration="400"/>
    <frame tileid="24" duration="400"/>
    <frame tileid="26" duration="400"/>
   </animation>
  </tile>
  <tile id="21">
   <animation>
    <frame tileid="21" duration="400"/>
    <frame tileid="23" duration="400"/>
    <frame tileid="25" duration="400"/>
    <frame tileid="27" duration="400"/>
   </animation>
  </tile>
  <tile id="104">
   <animation>
    <frame tileid="104" duration="50"/>
    <frame tileid="104" duration="50"/>
    <frame tileid="104" duration="50"/>
    <frame tileid="104" duration="50"/>
    <frame tileid="104" duration="50"/>
    <frame tileid="104" duration="50"/>
    <frame tileid="104" duration="50"/>
    <frame tileid="104" duration="50"/>
    <frame tileid="104" duration="50"/>
    <frame tileid="104" duration="50"/>
    <frame tileid="104" duration="50"/>
    <frame tileid="104" duration="50"/>
    <frame tileid="104" duration="50"/>
    <frame tileid="104" duration="50"/>
    <frame tileid="104" duration="50"/>
    <frame tileid="104" duration="50"/>
    <frame tileid="104" duration="50"/>
    <frame tileid="104" duration="50"/>
    <frame tileid="104" duration="50"/>
    <frame tileid="104" duration="50"/>
    <frame tileid="96" duration="50"/>
    <frame tileid="106" duration="50"/>
    <frame tileid="96" duration="50"/>
    <frame tileid="104" duration="50"/>
    <frame tileid="104" duration="50"/>
    <frame tileid="104" duration="50"/>
    <frame tileid="104" duration="50"/>
    <frame tileid="104" duration="50"/>
    <frame tileid="104" duration="50"/>
    <frame tileid="104" duration="50"/>
    <frame tileid="104" duration="50"/>
    <frame tileid="104" duration="50"/>
    <frame tileid="104" duration="50"/>
    <frame tileid="104" duration="50"/>
    <frame tileid="104" duration="50"/>
    <frame tileid="104" duration="50"/>
    <frame tileid="104" duration="50"/>
    <frame tileid="104" duration="50"/>
    <frame tileid="104" duration="50"/>
    <frame tileid="104" duration="50"/>
    <frame tileid="104" duration="50"/>
    <frame tileid="104" duration="50"/>
    <frame tileid="104" duration="50"/>
   </animation>
  </tile>
  <tile id="105">
   <animation>
    <frame tileid="105" duration="50"/>
    <frame tileid="105" duration="50"/>
    <frame tileid="105" duration="50"/>
    <frame tileid="105" duration="50"/>
    <frame tileid="105" duration="50"/>
    <frame tileid="105" duration="50"/>
    <frame tileid="105" duration="50"/>
    <frame tileid="105" duration="50"/>
    <frame tileid="105" duration="50"/>
    <frame tileid="105" duration="50"/>
    <frame tileid="105" duration="50"/>
    <frame tileid="105" duration="50"/>
    <frame tileid="105" duration="50"/>
    <frame tileid="105" duration="50"/>
    <frame tileid="105" duration="50"/>
    <frame tileid="105" duration="50"/>
    <frame tileid="105" duration="50"/>
    <frame tileid="105" duration="50"/>
    <frame tileid="105" duration="50"/>
    <frame tileid="105" duration="50"/>
    <frame tileid="97" duration="50"/>
    <frame tileid="107" duration="50"/>
    <frame tileid="97" duration="50"/>
    <frame tileid="105" duration="50"/>
    <frame tileid="105" duration="50"/>
    <frame tileid="105" duration="50"/>
    <frame tileid="105" duration="50"/>
    <frame tileid="105" duration="50"/>
    <frame tileid="105" duration="50"/>
    <frame tileid="105" duration="50"/>
    <frame tileid="105" duration="50"/>
    <frame tileid="105" duration="50"/>
    <frame tileid="105" duration="50"/>
    <frame tileid="105" duration="50"/>
    <frame tileid="105" duration="50"/>
    <frame tileid="105" duration="50"/>
    <frame tileid="105" duration="50"/>
    <frame tileid="105" duration="50"/>
    <frame tileid="105" duration="50"/>
    <frame tileid="105" duration="50"/>
    <frame tileid="105" duration="50"/>
    <frame tileid="105" duration="50"/>
    <frame tileid="105" duration="50"/>
   </animation>
  </tile>
 </tileset>
 <layer id="11" name="Back" width="3" height="3">
  <data encoding="csv">
2147,608,640,
639,640,2147,
607,608,608
</data>
 </layer>
 <layer id="1" name="Back2" width="3" height="3">
  <data encoding="csv">
0,0,0,
0,0,0,
0,0,0
</data>
 </layer>
 <layer id="2" name="Buildings" width="3" height="3">
  <data encoding="csv">
0,0,3604,
81,81,3614,
113,113,113
</data>
 </layer>
 <layer id="12" name="Buildings2" width="3" height="3">
  <data encoding="csv">
0,0,0,
0,0,0,
0,0,0
</data>
 </layer>
 <layer id="3" name="Front" width="3" height="3">
  <data encoding="csv">
3604,3604,0,
3614,3614,0,
0,0,0
</data>
 </layer>
 <layer id="4" name="Front2" width="3" height="3">
  <data encoding="csv">
0,0,0,
81,81,81,
0,0,0
</data>
 </layer>
 <layer id="13" name="Front3" width="3" height="3">
  <data encoding="csv">
759,247,1493,
903,2541,2542,
0,2573,2574
</data>
 </layer>
 <layer id="5" name="Paths" width="3" height="3" visible="0">
  <data encoding="csv">
0,0,0,
0,0,0,
0,0,0
</data>
 </layer>
 <layer id="14" name="AlwaysFront" width="3" height="3">
  <data encoding="csv">
0,0,0,
0,0,0,
0,0,0
</data>
 </layer>
 <objectgroup id="6" name="Back"/>
 <objectgroup id="7" name="Buildings">
  <object id="51" name="TileData" x="0" y="32" width="16" height="16">
   <properties>
    <property name="Action" value="Message MunicipalFlavor45"/>
   </properties>
  </object>
 </objectgroup>
 <objectgroup id="8" name="Front"/>
 <objectgroup id="9" name="Front2"/>
 <objectgroup id="10" name="Paths"/>
</map>
