<?xml version="1.0" encoding="UTF-8"?>
<map version="1.10" tiledversion="1.12.1" orientation="orthogonal" renderorder="right-down" compressionlevel="0" width="28" height="22" tilewidth="16" tileheight="16" infinite="0" nextlayerid="14" nextobjectid="38">
 <properties>
  <property name="DayTiles" value="Back 23 11 224 Back 24 11 225"/>
  <property name="Doors" value="20 14 1 120"/>
  <property name="Lights" value="24 11 6"/>
  <property name="NPCWarp" value="25 16 MunicipalCells 0 1"/>
  <property name="NightTiles" value="Back 23 11 284 Back 24 11 285"/>
  <property name="Warp" value="9 20 Town 26 48 10 20 Town 27 48"/>
 </properties>
 <tileset firstgid="1" name="indoors" tilewidth="16" tileheight="16" tilecount="2176" columns="32">
  <image source="townInterior" width="512" height="1088"/>
 </tileset>
 <tileset firstgid="2177" name="indoors2" tilewidth="16" tileheight="16" tilecount="1312" columns="32">
  <image source="townInterior_2" width="512" height="656"/>
 </tileset>
 <tileset firstgid="3489" name="paths" tilewidth="16" tileheight="16" tilecount="64" columns="4">
  <image source="paths" width="64" height="256"/>
 </tileset>
 <tileset firstgid="3553" name="z_municipalbuilding_interior_tiles" tilewidth="16" tileheight="16" tilecount="200" columns="10">
  <image source="z_municipalbuilding_interior_tiles.png" width="160" height="320"/>
  <tile id="104">
   <animation>
    <frame tileid="104" duration="50"/>
    <frame tileid="104" duration="50"/>
    <frame tileid="104" duration="50"/>
    <frame tileid="104" duration="50"/>
    <frame tileid="104" duration="50"/>
    <frame tileid="104" duration="50"/>
    <frame tileid="104" duration="50"/>
    <frame tileid="104" duration="50"/>
    <frame tileid="104" duration="50"/>
    <frame tileid="104" duration="50"/>
    <frame tileid="104" duration="50"/>
    <frame tileid="104" duration="50"/>
    <frame tileid="104" duration="50"/>
    <frame tileid="104" duration="50"/>
    <frame tileid="104" duration="50"/>
    <frame tileid="104" duration="50"/>
    <frame tileid="104" duration="50"/>
    <frame tileid="104" duration="50"/>
    <frame tileid="104" duration="50"/>
    <frame tileid="104" duration="50"/>
    <frame tileid="96" duration="50"/>
    <frame tileid="106" duration="50"/>
    <frame tileid="96" duration="50"/>
    <frame tileid="104" duration="50"/>
    <frame tileid="104" duration="50"/>
    <frame tileid="104" duration="50"/>
    <frame tileid="104" duration="50"/>
    <frame tileid="104" duration="50"/>
    <frame tileid="104" duration="50"/>
    <frame tileid="104" duration="50"/>
    <frame tileid="104" duration="50"/>
    <frame tileid="104" duration="50"/>
    <frame tileid="104" duration="50"/>
    <frame tileid="104" duration="50"/>
    <frame tileid="104" duration="50"/>
    <frame tileid="104" duration="50"/>
    <frame tileid="104" duration="50"/>
    <frame tileid="104" duration="50"/>
    <frame tileid="104" duration="50"/>
    <frame tileid="104" duration="50"/>
    <frame tileid="104" duration="50"/>
    <frame tileid="104" duration="50"/>
    <frame tileid="104" duration="50"/>
   </animation>
  </tile>
  <tile id="105">
   <animation>
    <frame tileid="105" duration="50"/>
    <frame tileid="105" duration="50"/>
    <frame tileid="105" duration="50"/>
    <frame tileid="105" duration="50"/>
    <frame tileid="105" duration="50"/>
    <frame tileid="105" duration="50"/>
    <frame tileid="105" duration="50"/>
    <frame tileid="105" duration="50"/>
    <frame tileid="105" duration="50"/>
    <frame tileid="105" duration="50"/>
    <frame tileid="105" duration="50"/>
    <frame tileid="105" duration="50"/>
    <frame tileid="105" duration="50"/>
    <frame tileid="105" duration="50"/>
    <frame tileid="105" duration="50"/>
    <frame tileid="105" duration="50"/>
    <frame tileid="105" duration="50"/>
    <frame tileid="105" duration="50"/>
    <frame tileid="105" duration="50"/>
    <frame tileid="105" duration="50"/>
    <frame tileid="97" duration="50"/>
    <frame tileid="107" duration="50"/>
    <frame tileid="97" duration="50"/>
    <frame tileid="105" duration="50"/>
    <frame tileid="105" duration="50"/>
    <frame tileid="105" duration="50"/>
    <frame tileid="105" duration="50"/>
    <frame tileid="105" duration="50"/>
    <frame tileid="105" duration="50"/>
    <frame tileid="105" duration="50"/>
    <frame tileid="105" duration="50"/>
    <frame tileid="105" duration="50"/>
    <frame tileid="105" duration="50"/>
    <frame tileid="105" duration="50"/>
    <frame tileid="105" duration="50"/>
    <frame tileid="105" duration="50"/>
    <frame tileid="105" duration="50"/>
    <frame tileid="105" duration="50"/>
    <frame tileid="105" duration="50"/>
    <frame tileid="105" duration="50"/>
    <frame tileid="105" duration="50"/>
    <frame tileid="105" duration="50"/>
    <frame tileid="105" duration="50"/>
   </animation>
  </tile>
 </tileset>
 <tileset firstgid="3753" name="z_farmhouse_tiles" tilewidth="16" tileheight="16" tilecount="264" columns="12">
  <image source="farmhouse_tiles" width="192" height="352"/>
 </tileset>
 <tileset firstgid="4017" name="MidnightsMisc" tilewidth="16" tileheight="16" tilecount="480" columns="12">
  <image source="MidnightsMisc.png" width="192" height="640"/>
  <tile id="291">
   <animation>
    <frame tileid="291" duration="50"/>
    <frame tileid="326" duration="50"/>
    <frame tileid="327" duration="50"/>
    <frame tileid="290" duration="50"/>
    <frame tileid="290" duration="50"/>
    <frame tileid="290" duration="50"/>
    <frame tileid="290" duration="50"/>
    <frame tileid="290" duration="50"/>
    <frame tileid="290" duration="50"/>
    <frame tileid="290" duration="50"/>
    <frame tileid="290" duration="50"/>
    <frame tileid="290" duration="50"/>
    <frame tileid="290" duration="50"/>
    <frame tileid="290" duration="50"/>
    <frame tileid="290" duration="50"/>
    <frame tileid="290" duration="50"/>
    <frame tileid="290" duration="50"/>
    <frame tileid="290" duration="50"/>
    <frame tileid="327" duration="50"/>
    <frame tileid="326" duration="50"/>
    <frame tileid="291" duration="50"/>
    <frame tileid="291" duration="50"/>
    <frame tileid="291" duration="50"/>
    <frame tileid="291" duration="50"/>
    <frame tileid="291" duration="50"/>
    <frame tileid="291" duration="50"/>
    <frame tileid="291" duration="50"/>
    <frame tileid="291" duration="50"/>
    <frame tileid="291" duration="50"/>
    <frame tileid="291" duration="50"/>
    <frame tileid="291" duration="50"/>
    <frame tileid="291" duration="50"/>
    <frame tileid="291" duration="50"/>
    <frame tileid="291" duration="50"/>
    <frame tileid="291" duration="50"/>
    <frame tileid="291" duration="50"/>
    <frame tileid="291" duration="50"/>
    <frame tileid="291" duration="50"/>
    <frame tileid="291" duration="50"/>
    <frame tileid="291" duration="50"/>
   </animation>
  </tile>
  <tile id="292">
   <animation>
    <frame tileid="292" duration="250"/>
    <frame tileid="294" duration="250"/>
    <frame tileid="292" duration="250"/>
    <frame tileid="318" duration="250"/>
   </animation>
  </tile>
  <tile id="293">
   <animation>
    <frame tileid="293" duration="250"/>
    <frame tileid="295" duration="250"/>
    <frame tileid="293" duration="250"/>
    <frame tileid="319" duration="250"/>
   </animation>
  </tile>
  <tile id="304">
   <animation>
    <frame tileid="304" duration="250"/>
    <frame tileid="306" duration="250"/>
    <frame tileid="304" duration="250"/>
    <frame tileid="330" duration="250"/>
   </animation>
  </tile>
  <tile id="305">
   <animation>
    <frame tileid="305" duration="250"/>
    <frame tileid="307" duration="250"/>
    <frame tileid="305" duration="250"/>
    <frame tileid="331" duration="250"/>
   </animation>
  </tile>
  <tile id="312">
   <animation>
    <frame tileid="312" duration="800"/>
    <frame tileid="308" duration="800"/>
   </animation>
  </tile>
  <tile id="313">
   <animation>
    <frame tileid="313" duration="800"/>
    <frame tileid="309" duration="800"/>
   </animation>
  </tile>
 </tileset>
 <layer id="11" name="Back" width="28" height="22">
  <data encoding="csv">
0,0,0,0,0,0,0,0,0,0,0,0,0,0,0,0,0,0,0,0,0,0,0,0,0,0,0,0,
0,0,0,0,0,0,0,0,0,0,0,0,0,0,0,0,0,0,0,0,0,0,0,0,0,0,0,0,
0,0,0,0,0,0,0,0,0,0,0,0,0,0,0,0,0,0,0,0,0,0,0,0,0,0,0,0,
0,0,0,3667,3668,3668,3668,3668,3668,3668,3668,3668,3668,3668,3668,3668,3668,3668,3668,3668,3668,3668,3668,3668,3668,0,0,0,
0,0,0,3677,3678,3678,3678,3678,3678,3678,3678,3678,3678,3678,3678,3678,3678,3678,3678,3678,3678,3678,3678,3678,3678,0,0,0,
0,0,0,3687,3688,3688,3688,3688,3688,3688,3688,3688,3688,3688,3688,3688,3688,3688,3688,3688,3688,3688,3688,3688,3688,0,0,0,
0,0,0,574,576,575,576,576,576,576,576,575,576,576,576,640,639,576,576,576,576,576,576,576,576,0,0,0,
0,0,0,2147,608,607,608,607,608,607,608,607,608,608,2147,608,607,2147,607,2147,2147,2147,2147,608,2147,0,0,0,
0,0,0,640,639,640,2147,2147,2147,640,2147,640,2147,640,639,640,2147,2147,639,640,639,640,639,640,639,0,0,0,
0,0,0,608,607,608,2147,608,2147,608,2147,608,640,2147,607,2147,2147,608,607,2147,607,608,607,575,607,0,0,0,
0,0,0,640,639,640,639,640,639,640,639,640,608,639,2147,639,639,640,639,2147,2147,2147,639,607,608,0,0,0,
0,0,0,607,639,640,607,640,639,2147,2147,640,2147,607,2147,607,639,2147,2147,640,639,640,2147,4241,4242,0,0,0,
0,0,0,639,607,608,2147,608,607,608,2147,608,640,639,2147,2147,607,608,2147,608,607,608,2147,0,0,3671,0,0,
0,0,0,640,639,640,639,2147,2147,640,639,640,2147,607,639,3668,3668,3668,3668,3668,608,3668,3668,3668,3668,3668,0,0,
0,0,0,639,607,608,607,640,2147,2147,607,608,608,608,607,3678,3678,3678,3678,3678,2147,3678,3678,3678,3678,3678,0,0,
0,0,0,608,2147,2147,2147,608,2147,639,608,608,640,640,640,3688,3688,3688,3688,3688,639,3688,3688,3688,3688,3688,0,0,
0,0,0,640,639,2147,639,2147,639,607,639,640,2147,2147,608,608,607,640,639,640,607,607,2147,2147,640,639,0,0,
0,0,0,608,607,608,607,608,607,608,607,608,2147,2147,2147,2147,2147,608,607,608,639,639,608,639,608,607,0,0,
0,0,1,1,1,1,1,1,1,607,640,1,0,0,0,0,1,1,1,1,1,1,1,1,1,1,0,0,
0,0,0,0,0,0,0,0,0,640,2147,0,0,0,0,0,0,0,0,0,0,0,0,0,0,0,0,0,
0,0,0,0,0,0,0,0,0,0,0,0,0,0,0,0,0,0,0,0,0,0,0,0,0,0,0,0,
0,0,0,0,0,0,0,0,0,0,0,0,0,0,0,0,0,0,0,0,0,0,0,0,0,0,0,0
</data>
 </layer>
 <layer id="1" name="Back2" width="28" height="22">
  <data encoding="csv">
0,0,0,0,0,0,0,0,0,0,0,0,0,0,0,0,0,0,0,0,0,0,0,0,0,0,0,0,
0,0,0,0,0,0,0,0,0,0,0,0,0,0,0,0,0,0,0,0,0,0,0,0,0,0,0,0,
0,0,0,0,0,0,0,0,0,0,0,0,0,0,0,0,0,0,0,0,0,0,0,0,0,0,0,0,
0,0,0,0,0,0,0,0,0,0,0,0,0,0,0,0,0,0,0,0,0,0,0,0,0,0,0,0,
0,0,0,0,0,0,0,0,0,0,0,0,0,0,0,0,0,0,0,0,0,0,0,0,0,0,0,0,
0,0,0,0,0,0,113,0,0,0,113,113,0,0,0,0,0,0,0,0,0,0,0,0,0,0,0,0,
0,0,0,0,0,0,0,0,0,0,0,0,0,0,0,0,0,0,0,0,0,0,0,0,0,0,0,0,
0,0,0,0,0,0,0,0,0,0,0,0,0,0,0,0,0,0,0,0,0,0,0,0,0,0,0,0,
0,0,0,0,0,0,0,0,0,0,0,0,0,0,0,0,0,0,0,0,0,0,0,0,0,0,0,0,
0,0,0,0,0,0,0,0,0,0,0,0,0,0,0,0,0,0,0,0,0,0,0,0,0,0,0,0,
0,0,0,0,0,0,0,0,0,0,0,0,0,0,0,0,0,0,0,0,0,0,0,0,0,0,0,0,
0,0,0,0,0,0,0,0,0,0,0,0,0,0,0,0,0,0,0,0,0,0,0,0,0,0,0,0,
0,0,0,0,0,0,0,0,0,0,0,0,0,0,0,0,0,0,0,0,0,0,0,0,0,0,0,0,
0,0,0,0,0,0,0,0,0,0,0,0,0,0,0,0,0,0,0,0,0,0,0,0,0,0,0,0,
0,0,0,0,0,0,0,0,0,0,0,0,0,0,0,0,0,0,0,0,0,0,0,0,0,0,0,0,
0,0,0,0,0,0,0,0,0,0,0,0,0,0,0,0,0,0,0,0,0,0,0,0,0,0,0,0,
0,0,0,0,0,0,0,0,0,0,0,0,0,0,0,0,0,0,0,0,0,0,0,0,0,0,0,0,
0,0,0,0,0,0,0,0,0,0,0,0,0,0,0,0,0,0,0,0,0,0,0,0,0,0,0,0,
0,0,0,0,0,0,0,0,0,3117,3118,0,0,0,0,0,0,0,0,0,0,0,0,0,0,0,0,0,
0,0,0,0,0,0,0,0,0,3149,3150,0,0,0,0,0,0,0,0,0,0,0,0,0,0,0,0,0,
0,0,0,0,0,0,0,0,0,0,0,0,0,0,0,0,0,0,0,0,0,0,0,0,0,0,0,0,
0,0,0,0,0,0,0,0,0,0,0,0,0,0,0,0,0,0,0,0,0,0,0,0,0,0,0,0
</data>
 </layer>
 <layer id="2" name="Buildings" width="28" height="22">
  <data encoding="csv">
1,1,1,1,1,1,1,1,1,1,1,1,1,1,1,1,1,1,1,1,1,1,1,1,1,1,1,1,
1,1,1,1,1,1,1,1,1,1,1,1,1,1,1,1,1,1,1,1,1,1,1,1,1,1,1,1,
1,1,1,3628,3671,3671,3671,3671,3671,3671,3671,3671,3671,3671,3671,3672,3670,3671,3671,3671,3671,3671,3671,3671,3671,3672,1,1,
1,1,3637,3638,0,0,0,0,0,0,0,0,0,0,0,3682,3680,0,0,0,0,0,0,0,0,3682,1,1,
1,1,3680,80,81,81,81,81,81,81,81,81,81,81,81,3682,3680,81,81,2541,2542,81,81,81,81,3682,1,1,
1,1,3680,112,113,113,113,113,113,113,113,113,113,113,113,3682,3680,113,113,2573,2574,113,113,113,113,3682,1,1,
1,1,3680,144,3608,0,3715,3716,0,0,0,0,0,0,4105,3682,3680,3603,3604,2605,2606,3713,3714,0,0,3682,1,1,
1,1,3680,3600,0,0,0,0,0,0,0,0,0,0,4105,3682,3680,0,0,0,0,0,0,3666,0,3682,1,1,
1,1,3680,3610,0,0,0,0,0,0,0,0,0,0,4105,3682,3680,0,0,3599,3673,3674,3675,3676,0,3682,1,1,
1,1,3680,3610,0,0,0,0,3652,3657,3658,3626,0,0,4105,3682,3680,0,0,3609,3683,3684,3685,3686,0,3682,1,1,
1,1,3680,3610,0,0,3614,3615,3633,3634,3635,3636,0,0,3562,3682,3680,0,0,0,0,523,523,0,0,3682,1,1,
1,1,3680,769,0,0,3624,3625,3643,3644,3645,3646,0,0,3572,3682,3690,496,0,0,0,0,0,0,2488,3692,1,1,
1,1,3680,4141,0,0,0,0,0,0,0,0,0,0,3582,3631,3671,3671,3671,3632,0,3631,3671,3671,3671,3672,1,1,
1,1,3680,3581,0,0,0,0,0,0,0,0,0,0,3592,155,0,0,0,156,0,155,0,0,0,3682,1,1,
1,1,3680,3591,0,0,0,0,0,0,0,0,0,0,3602,187,81,81,81,188,121,187,81,81,81,3682,1,1,
1,1,3680,3601,0,0,0,0,0,0,0,0,0,0,0,113,113,113,113,220,0,219,113,113,113,3682,1,1,
1,1,3680,3611,0,0,0,0,0,0,0,0,0,0,0,0,0,0,0,0,0,0,0,0,0,3682,1,1,
1,1,3617,0,0,3623,3623,3623,0,0,0,0,2148,2148,0,0,0,0,0,0,0,0,0,0,0,3620,1,1,
1,1,1,1,1,1,1,1,3680,0,0,3682,1,1,1,1,1,1,1,1,1,1,1,1,1,0,1,1,
1,1,1,1,1,1,1,1,3690,0,0,3692,1,1,1,1,1,1,1,1,1,1,1,1,1,1,1,1,
1,1,1,1,1,1,1,1,1,0,0,1,1,1,1,1,1,1,1,1,1,1,1,1,1,1,1,1,
1,1,1,1,1,1,1,1,1,1,1,1,1,1,1,1,1,1,1,1,1,1,1,1,1,1,1,1
</data>
 </layer>
 <layer id="12" name="Buildings2" width="28" height="22">
  <data encoding="csv">
0,0,0,0,0,0,0,0,0,0,0,0,0,0,0,0,0,0,0,0,0,0,0,0,0,0,0,0,
0,0,0,0,0,0,0,0,0,0,0,0,0,0,0,0,0,0,0,0,0,0,0,0,0,0,0,0,
0,0,0,0,0,0,0,0,0,0,0,0,0,0,0,0,0,0,0,0,0,0,0,0,0,0,0,0,
0,0,0,0,0,0,0,0,0,0,0,0,0,0,0,0,0,0,0,0,0,0,0,0,0,0,0,0,
0,0,0,2423,0,4258,0,0,0,4258,3722,0,0,0,0,0,0,0,0,0,0,0,0,0,0,0,0,0,
0,0,0,2455,0,4270,0,0,3695,4270,3719,0,0,0,0,0,0,0,0,0,0,0,0,0,4269,0,0,0,
0,0,0,2487,0,0,0,0,0,0,0,0,0,0,0,0,0,0,0,0,0,0,0,0,0,0,0,0,
0,0,0,0,0,0,0,0,0,0,0,0,0,0,0,0,0,0,0,0,0,0,0,0,0,0,0,0,
0,0,0,3600,0,0,0,0,0,0,0,0,0,0,0,0,0,0,0,0,0,0,0,0,0,0,0,0,
0,0,0,3600,0,0,0,0,0,0,0,0,0,0,0,0,0,0,0,0,0,0,0,0,0,0,0,0,
0,0,0,4129,0,0,0,0,0,0,0,0,0,0,0,0,0,0,0,0,0,0,0,0,0,0,0,0,
0,0,0,0,0,0,0,0,0,0,0,0,0,0,0,0,0,0,0,0,0,0,0,0,0,0,0,0,
0,0,0,0,0,0,0,0,0,0,0,0,0,0,0,0,0,0,0,0,0,0,0,0,0,0,0,0,
0,0,0,0,0,0,0,0,0,0,0,0,0,0,0,3937,0,0,0,0,0,0,0,0,0,0,0,0,
0,0,0,0,0,0,0,0,0,0,0,0,0,0,0,3949,0,0,0,0,0,0,0,0,3654,0,0,0,
0,0,0,0,0,0,0,0,0,0,0,0,0,0,0,3961,0,0,0,0,0,0,0,0,0,0,0,0,
0,0,0,0,0,0,0,0,0,0,0,0,0,0,0,0,0,0,0,0,0,0,0,0,0,0,0,0,
0,0,0,0,0,0,0,0,0,0,0,0,0,0,0,0,0,0,0,0,0,0,0,0,0,0,0,0,
0,0,0,0,0,0,0,0,0,0,0,0,0,0,0,0,0,0,0,0,0,0,0,0,0,0,0,0,
0,0,0,0,0,0,0,0,0,0,0,0,0,0,0,0,0,0,0,0,0,0,0,0,0,0,0,0,
0,0,0,0,0,0,0,0,0,0,0,0,0,0,0,0,0,0,0,0,0,0,0,0,0,0,0,0,
0,0,0,0,0,0,0,0,0,0,0,0,0,0,0,0,0,0,0,0,0,0,0,0,0,0,0,0
</data>
 </layer>
 <layer id="3" name="Front" width="28" height="22">
  <data encoding="csv">
0,0,0,0,0,0,0,0,0,0,0,0,0,0,0,0,0,0,0,0,0,0,0,0,0,0,0,0,
0,0,0,0,0,0,0,0,0,0,0,0,0,0,0,0,0,0,0,0,0,0,0,0,0,0,0,0,
0,0,0,0,0,0,0,0,0,0,0,0,0,0,0,0,0,0,0,0,0,0,0,0,0,0,0,0,
0,0,0,1430,0,0,0,0,0,0,3699,3701,3702,0,0,0,0,0,0,0,0,1330,1331,0,0,0,0,0,
0,0,3680,0,3588,0,0,3655,0,0,3709,3711,3712,3662,4106,0,0,3583,3584,0,0,1362,1363,1258,4257,3682,0,0,
0,0,3680,0,3598,0,3705,3706,0,0,0,0,0,0,4118,0,0,3593,3594,0,0,3703,3704,0,0,3682,0,0,
0,0,3680,3590,0,0,0,0,0,0,0,0,0,0,0,0,0,0,0,0,0,0,0,3656,0,3682,0,0,
0,0,3680,3590,0,0,0,0,0,0,0,0,0,0,0,0,0,0,0,3589,3663,3664,3665,0,0,3682,0,0,
0,0,3680,3590,0,0,0,0,3642,3647,3648,3616,0,0,0,0,0,0,0,0,0,0,0,0,0,3682,0,0,
0,0,3680,0,0,0,0,3613,0,0,0,0,0,0,0,0,0,0,0,0,0,491,491,0,0,3682,0,0,
0,0,3680,744,0,0,0,3623,0,0,0,0,0,0,0,0,0,464,0,0,0,0,0,0,2456,3682,0,0,
0,0,3680,1258,0,0,0,0,0,0,0,0,0,0,0,0,0,3691,3691,3622,0,3621,3691,3691,3691,0,0,0,
0,0,3680,3571,0,0,0,0,0,0,0,0,0,0,0,0,0,0,0,0,57,0,0,0,0,0,0,0,
0,0,3680,0,0,0,0,0,0,0,0,0,0,0,0,0,0,0,0,0,89,0,0,0,0,0,0,0,
0,0,3680,0,0,0,0,0,0,0,0,0,0,0,0,0,0,0,0,3653,0,0,0,0,0,3682,0,0,
0,0,3680,0,0,0,0,0,0,0,0,0,0,0,0,0,0,0,0,0,0,0,0,0,0,3682,0,0,
0,0,3680,0,0,3613,3613,3613,0,0,0,0,2116,2116,0,0,0,0,0,0,0,0,0,0,0,3682,0,0,
0,0,3617,3618,3691,3691,3691,3691,3622,0,0,3621,3691,3691,3691,3691,3691,3691,3691,3691,3691,3691,3691,3691,3619,3620,0,0,
0,0,0,0,0,0,0,0,3680,0,0,3682,0,0,0,0,0,0,0,0,0,0,0,0,0,0,0,0,
0,0,0,0,0,0,0,0,3690,3691,3691,3692,0,0,0,0,0,0,0,0,0,0,0,0,0,0,0,0,
0,0,0,0,0,0,0,0,0,1,1,0,0,0,0,0,0,0,0,0,0,0,0,0,0,0,0,0,
0,0,0,0,0,0,0,0,0,0,0,0,0,0,0,0,0,0,0,0,0,0,0,0,0,0,0,0
</data>
 </layer>
 <layer id="4" name="Front2" width="28" height="22">
  <properties>
   <property name="Draw" value="Front"/>
  </properties>
  <data encoding="csv">
0,0,0,0,0,0,0,0,0,0,0,0,0,0,0,0,0,0,0,0,0,0,0,0,0,0,0,0,
0,0,0,0,0,0,0,0,0,0,0,0,0,0,0,0,0,0,0,0,0,0,0,0,0,0,0,0,
0,0,0,0,0,0,0,0,0,0,0,0,0,0,0,0,0,0,0,0,0,0,0,0,0,0,0,0,
0,0,0,0,0,0,0,0,0,0,0,0,0,0,0,0,0,0,0,0,0,0,0,0,0,0,0,0,
0,0,0,0,0,0,0,0,0,0,0,0,0,0,0,0,0,0,0,0,0,3693,3694,0,3654,0,0,0,
0,0,0,0,0,0,0,0,0,0,0,0,0,0,0,0,0,0,0,0,0,0,0,0,0,0,0,0,
0,0,0,0,0,0,0,0,0,0,0,0,0,0,0,0,0,0,0,0,0,0,0,0,0,0,0,0,
0,0,0,0,0,0,0,0,0,0,0,0,0,0,0,0,0,0,0,214,0,0,0,0,0,0,0,0,
0,0,0,0,0,0,0,0,0,0,0,0,0,0,0,0,0,0,0,0,0,0,0,0,0,0,0,0,
0,0,0,0,0,0,0,0,0,0,0,0,0,0,0,0,0,0,0,0,0,0,0,0,0,0,0,0,
0,0,0,0,0,0,0,0,0,0,0,0,0,0,0,0,0,0,0,0,0,0,0,0,0,0,0,0,
0,0,0,0,0,0,0,0,0,0,0,0,0,0,0,0,0,0,0,0,0,0,0,0,0,0,0,0,
0,0,0,0,0,0,0,0,0,0,0,0,0,0,0,0,0,0,0,0,0,0,0,0,0,0,0,0,
0,0,0,0,0,0,0,0,0,0,0,0,0,0,0,0,0,0,0,0,0,0,0,0,0,0,0,0,
0,0,0,0,0,0,0,0,0,0,0,0,0,0,0,0,0,0,0,0,0,0,0,0,0,0,0,0,
0,0,0,0,0,0,0,0,0,0,0,0,0,0,0,0,0,0,0,0,0,0,0,0,0,0,0,0,
0,0,0,0,0,0,0,0,0,0,0,0,0,0,0,0,0,0,0,0,0,0,0,0,0,0,0,0,
0,0,0,0,0,0,0,0,0,0,0,0,0,0,0,0,0,0,0,0,0,0,0,0,0,0,0,0,
0,0,0,0,0,0,0,0,0,0,0,0,0,0,0,0,0,0,0,0,0,0,0,0,0,0,0,0,
0,0,0,0,0,0,0,0,0,0,0,0,0,0,0,0,0,0,0,0,0,0,0,0,0,0,0,0,
0,0,0,0,0,0,0,0,0,0,0,0,0,0,0,0,0,0,0,0,0,0,0,0,0,0,0,0,
0,0,0,0,0,0,0,0,0,0,0,0,0,0,0,0,0,0,0,0,0,0,0,0,0,0,0,0
</data>
 </layer>
 <layer id="5" name="Paths" width="28" height="22" visible="0">
  <data encoding="csv">
0,0,0,0,0,0,0,0,0,0,0,0,0,0,0,0,0,0,0,0,0,0,0,0,0,0,0,0,
0,0,0,0,0,0,0,0,0,0,0,0,0,0,0,0,0,0,0,0,0,0,0,0,0,0,0,0,
0,0,0,0,0,0,0,0,0,0,0,0,0,0,0,0,0,0,0,0,0,0,0,0,0,0,0,0,
0,0,0,0,0,0,0,0,0,0,0,0,0,0,0,0,0,0,0,0,0,0,0,0,0,0,0,0,
0,0,0,0,0,0,0,0,0,0,0,0,0,0,0,0,0,0,0,0,0,0,0,0,0,0,0,0,
0,0,0,0,0,0,0,0,0,0,0,0,0,0,0,0,0,0,3497,0,0,0,3497,0,0,0,0,0,
0,0,0,0,0,0,3497,0,0,0,0,3497,0,0,3497,0,0,0,0,0,0,0,0,0,0,0,0,0,
0,0,0,0,0,0,0,0,0,0,0,0,0,0,0,0,0,0,0,0,0,0,0,0,0,0,0,0,
0,0,0,0,0,0,0,0,0,0,0,0,0,0,0,0,0,0,0,0,3497,0,0,3497,0,0,0,0,
0,0,0,0,0,0,0,0,0,0,0,0,0,0,0,0,0,0,0,0,0,0,0,0,0,0,0,0,
0,0,0,3497,0,0,0,0,3497,0,0,3497,0,0,3497,0,0,3497,0,0,0,0,0,0,0,0,0,0,
0,0,0,0,0,0,0,0,0,0,0,0,0,0,0,0,0,0,0,0,0,0,0,0,0,0,0,0,
0,0,0,0,0,0,0,0,0,0,0,0,0,0,0,0,0,0,0,0,0,0,0,0,0,0,0,0,
0,0,0,0,0,0,0,0,0,0,0,0,0,0,0,0,0,0,0,0,0,0,0,0,0,0,0,0,
0,0,0,0,0,0,0,0,0,3497,0,0,0,0,0,0,0,3497,0,0,0,0,0,3497,0,0,0,0,
0,0,0,0,0,0,0,0,0,0,0,0,0,0,0,0,0,0,0,0,0,0,0,0,0,0,0,0,
0,0,0,0,3497,0,0,0,0,0,0,0,0,3497,0,0,0,0,0,0,0,0,0,0,0,0,0,0,
0,0,0,0,0,0,0,0,0,0,0,0,0,0,0,0,0,0,0,0,0,0,0,0,0,0,0,0,
0,0,0,0,0,0,0,0,0,0,0,0,0,0,0,0,0,0,0,0,0,0,0,0,0,0,0,0,
0,0,0,0,0,0,0,0,0,0,0,0,0,0,0,0,0,0,0,0,0,0,0,0,0,0,0,0,
0,0,0,0,0,0,0,0,0,0,0,0,0,0,0,0,0,0,0,0,0,0,0,0,0,0,0,0,
0,0,0,0,0,0,0,0,0,0,0,0,0,0,0,0,0,0,0,0,0,0,0,0,0,0,0,0
</data>
 </layer>
 <layer id="13" name="AlwaysFront" width="28" height="22">
  <data encoding="csv">
0,0,0,0,0,0,0,0,0,0,0,0,0,0,0,0,0,0,0,0,0,0,0,0,0,0,0,0,
0,0,0,0,0,0,0,0,0,0,0,0,0,0,0,0,0,0,0,0,0,0,0,0,0,0,0,0,
0,0,0,0,0,0,0,0,0,0,0,0,0,0,0,0,0,0,0,0,0,0,0,0,0,0,0,0,
0,0,0,0,0,0,0,0,0,0,0,0,0,0,0,0,0,0,0,0,0,0,0,0,0,0,0,0,
0,0,0,0,0,0,0,0,0,0,0,0,0,0,0,0,0,0,0,0,0,0,0,0,0,0,0,0,
0,0,0,0,0,0,0,0,0,0,0,0,0,0,0,0,0,0,0,0,0,0,0,0,0,0,0,0,
0,0,0,0,0,0,0,0,0,0,0,0,0,0,0,0,0,0,0,0,0,0,0,0,0,0,0,0,
0,0,0,0,0,0,0,0,0,0,0,0,0,0,0,0,0,0,0,0,0,0,0,0,0,0,0,0,
0,0,0,0,0,0,0,0,0,0,0,0,0,0,0,0,0,0,0,0,0,3674,3675,0,0,0,0,0,
0,0,0,0,0,0,0,0,0,0,0,0,0,0,0,0,0,0,0,0,0,0,0,0,0,0,0,0,
0,0,0,0,0,0,0,0,0,0,0,0,0,0,0,0,0,0,0,0,0,0,0,0,0,0,0,0,
0,0,0,0,0,0,0,0,0,0,0,0,0,0,0,0,0,0,0,0,0,0,0,0,0,0,0,0,
0,0,0,4051,0,0,0,0,0,0,0,0,0,0,0,0,0,0,0,0,0,0,0,0,0,0,0,0,
0,0,0,0,0,0,0,0,0,0,0,0,0,0,0,0,0,0,0,0,0,0,0,0,0,0,0,0,
0,0,0,0,0,0,0,0,0,0,0,0,0,0,0,0,0,0,0,0,0,0,0,0,0,3682,0,0,
0,0,0,0,0,0,0,0,0,0,0,0,0,0,0,0,0,0,0,0,0,0,0,0,0,3682,0,0,
0,0,0,0,0,0,0,0,0,0,0,0,0,0,0,0,0,0,0,0,0,0,0,0,0,3682,0,0,
0,0,0,0,0,0,0,0,0,0,0,0,0,0,0,0,0,0,0,0,0,0,0,0,3619,3620,0,0,
0,0,0,0,0,0,0,0,0,0,0,0,0,0,0,0,0,0,0,0,0,0,0,0,0,0,0,0,
0,0,0,0,0,0,0,0,3690,3691,3691,3692,0,0,0,0,0,0,0,0,0,0,0,0,0,0,0,0,
0,0,0,0,0,0,0,0,0,0,0,0,0,0,0,0,0,0,0,0,0,0,0,0,0,0,0,0,
0,0,0,0,0,0,0,0,0,0,0,0,0,0,0,0,0,0,0,0,0,0,0,0,0,0,0,0
</data>
 </layer>
 <objectgroup id="6" name="Back"/>
 <objectgroup id="7" name="Buildings" visible="0">
  <object id="2" name="TileData" x="96" y="176" width="32" height="16">
   <properties>
    <property name="Action" value="Message MunicipalFlavor1"/>
   </properties>
  </object>
  <object id="28" name="TileData" x="48" y="192" width="16" height="80">
   <properties>
    <property name="Action" value="Message MunicipalFlavor16"/>
   </properties>
  </object>
  <object id="29" name="TileData" x="224" y="160" width="16" height="80">
   <properties>
    <property name="Action" value="Message MunicipalFlavor17"/>
   </properties>
  </object>
  <object id="30" name="TileData" x="224" y="96" width="16" height="64">
   <properties>
    <property name="Action" value="Message MunicipalFlavor18"/>
   </properties>
  </object>
  <object id="22" name="TileData" x="144" y="176" width="32" height="16">
   <properties>
    <property name="Action" value="OpenShop MV.Municipal_Shop none 900 1600"/>
   </properties>
  </object>
  <object id="3" name="TileData" x="112" y="96" width="16" height="16">
   <properties>
    <property name="Action" value="Message MunicipalFlavor3"/>
   </properties>
  </object>
  <object id="5" name="TileData" x="96" y="96" width="16" height="16">
   <properties>
    <property name="Action" value="Spiderbuttons.BETAS_DialogueBox Bouncer Characters/Dialogue/MV.Municipal_SheriffBill:coffee None"/>
   </properties>
  </object>
  <object id="6" name="TileData" x="176" y="80" width="32" height="16">
   <properties>
    <property name="Action" value="Message MunicipalFlavor52"/>
   </properties>
  </object>
  <object id="36" name="TileData" x="160" y="80" width="16" height="16">
   <properties>
    <property name="Action" value="Message MunicipalFlavor53"/>
   </properties>
  </object>
  <object id="37" name="TileData" x="128" y="176" width="16" height="16">
   <properties>
    <property name="Action" value="Message MunicipalFlavor54"/>
   </properties>
  </object>
  <object id="7" name="TileData" x="128" y="80" width="16" height="16">
   <properties>
    <property name="Action" value="Message MunicipalFlavor5"/>
   </properties>
  </object>
  <object id="8" name="TileData" x="144" y="80" width="16" height="16">
   <properties>
    <property name="Action" value="Message MunicipalFlavor6"/>
   </properties>
  </object>
  <object id="34" name="TileData" x="208" y="80" width="16" height="16">
   <properties>
    <property name="Action" value="Message MunicipalFlavor4"/>
   </properties>
  </object>
  <object id="9" name="TileData" x="80" y="80" width="16" height="16">
   <properties>
    <property name="Action" value="Message MunicipalFlavor7"/>
   </properties>
  </object>
  <object id="32" name="TileData" x="48" y="160" width="16" height="32">
   <properties>
    <property name="Action" value="Message MunicipalFlavor50"/>
   </properties>
  </object>
  <object id="10" name="TileData" x="304" y="240" width="16" height="16">
   <properties>
    <property name="Action" value="Message MunicipalFlavor8"/>
   </properties>
  </object>
  <object id="31" name="TileData" x="320" y="224" width="16" height="16">
   <properties>
    <property name="Action" value="Door"/>
   </properties>
  </object>
  <object id="17" name="TileData" x="384" y="240" width="16" height="16">
   <properties>
    <property name="Action" value="Message MunicipalFlavor42"/>
   </properties>
  </object>
  <object id="35" name="TileData" x="400" y="256" width="16" height="16">
   <properties>
    <property name="Action" value="Passable T"/>
   </properties>
  </object>
  <object id="33" name="TileData" x="384" y="80" width="16" height="16">
   <properties>
    <property name="Action" value="Message MunicipalFlavor11"/>
   </properties>
  </object>
  <object id="18" name="TileData" x="272" y="96" width="32" height="16">
   <properties>
    <property name="Action" value="Message MunicipalFlavor12"/>
   </properties>
  </object>
  <object id="19" name="TileData" x="304" y="96" width="16" height="16">
   <properties>
    <property name="Action" value="Message MunicipalFlavor13"/>
   </properties>
  </object>
  <object id="20" name="TileData" x="320" y="96" width="16" height="16">
   <properties>
    <property name="Action" value="Message MunicipalFlavor14"/>
   </properties>
  </object>
  <object id="21" name="TileData" x="336" y="96" width="32" height="16">
   <properties>
    <property name="Action" value="Message MunicipalFlavor15"/>
   </properties>
  </object>
  <object id="11" name="TileData" x="304" y="128" width="16" height="16">
   <properties>
    <property name="Action" value="Message MunicipalFlavor9"/>
   </properties>
  </object>
  <object id="12" name="TileData" x="352" y="128" width="16" height="16">
   <properties>
    <property name="Action" value="Message MunicipalFlavor10"/>
   </properties>
  </object>
 </objectgroup>
 <objectgroup id="8" name="Front"/>
 <objectgroup id="9" name="Front2"/>
 <objectgroup id="10" name="Paths"/>
</map>
