<?xml version="1.0" encoding="UTF-8"?>
<map version="1.10" tiledversion="1.11.2" orientation="orthogonal" renderorder="right-down" width="1" height="2" tilewidth="16" tileheight="16" infinite="0" nextlayerid="9" nextobjectid="6">
 <tileset firstgid="1" name="MidnightsMisc" tilewidth="16" tileheight="16" tilecount="456" columns="12">
  <image source="MidnightsMisc.png" width="192" height="608"/>
 </tileset>
 <layer id="5" name="Front" width="1" height="2">
  <data encoding="csv">
10,
22
</data>
 </layer>
 <objectgroup id="6" name="Front"/>
</map>
