<?xml version="1.0" encoding="UTF-8"?>
<map version="1.10" tiledversion="1.11.2" orientation="orthogonal" renderorder="right-down" compressionlevel="0" width="1" height="1" tilewidth="16" tileheight="16" infinite="0" nextlayerid="15" nextobjectid="49">
 <tileset firstgid="1" name="indoors" tilewidth="16" tileheight="16" tilecount="2176" columns="32">
  <image source="townInterior" width="512" height="1088"/>
 </tileset>
 <tileset firstgid="2177" name="indoors2" tilewidth="16" tileheight="16" tilecount="1312" columns="32">
  <image source="townInterior_2" width="512" height="656"/>
 </tileset>
 <tileset firstgid="3489" name="MidnightsMisc" tilewidth="16" tileheight="16" tilecount="216" columns="12">
  <image source="MidnightsMisc.png" width="192" height="288"/>
 </tileset>
 <layer id="11" name="Back" width="1" height="1">
  <data encoding="csv">
2147
</data>
 </layer>
 <layer id="1" name="Back2" width="1" height="1">
  <data encoding="csv">
3079
</data>
 </layer>
 <layer id="2" name="Buildings" width="1" height="1">
  <data encoding="csv">
658
</data>
 </layer>
 <layer id="12" name="Buildings2" width="1" height="1">
  <data encoding="csv">
0
</data>
 </layer>
 <layer id="3" name="Front" width="1" height="1">
  <data encoding="csv">
2684358149
</data>
 </layer>
 <layer id="4" name="Front2" width="1" height="1">
  <properties>
   <property name="Draw" value="Front"/>
  </properties>
  <data encoding="csv">
0
</data>
 </layer>
 <layer id="13" name="Front3" width="1" height="1">
  <data encoding="csv">
0
</data>
 </layer>
 <layer id="5" name="Paths" width="1" height="1" visible="0">
  <data encoding="csv">
0
</data>
 </layer>
 <layer id="14" name="AlwaysFront" width="1" height="1">
  <data encoding="csv">
0
</data>
 </layer>
 <objectgroup id="6" name="Back"/>
 <objectgroup id="7" name="Buildings">
  <object id="48" name="TileData" x="0" y="0" width="16" height="16">
   <properties>
    <property name="Action" value="Message MunicipalFlavor35"/>
   </properties>
  </object>
 </objectgroup>
 <objectgroup id="8" name="Front"/>
 <objectgroup id="9" name="Front2"/>
 <objectgroup id="10" name="Paths"/>
</map>
